triton-droids/embedded/data_collection/ik_motors_6_10.csv
t,right_hip1_joint,right_hip2_joint,right_thigh_joint,right_knee_joint,right_ankle_joint
0.000000,0.300000000,0.000000000,0.000000000,-0.800000000,0.500000000
0.002500,0.300000000,0.000000000,0.000000000,-0.800000000,0.500000000
0.005000,0.300000000,0.000000000,0.000000000,-0.800000000,0.500000000
0.007500,0.300000000,0.000000000,0.000000000,-0.800000000,0.500000000
0.010000,0.299818518,-0.000000041,-0.000000117,-0.799976235,0.499951150
0.012500,0.299667083,-0.000000077,-0.000000215,-0.799949454,0.499908362
0.015000,0.299501083,-0.000000115,-0.000000322,-0.799919692,0.499861340
0.017500,0.299308598,-0.000000160,-0.000000446,-0.799885451,0.499806895
0.020000,0.299086460,-0.000000212,-0.000000589,-0.799845830,0.499744032
0.022500,0.298833879,-0.000000271,-0.000000751,-0.799800396,0.499672443
0.025000,0.298550732,-0.000000337,-0.000000933,-0.799748932,0.499592036
0.027500,0.298237092,-0.000000410,-0.000001135,-0.799691308,0.499502790
0.030000,0.297893102,-0.000000490,-0.000001357,-0.799627420,0.499404708
0.032500,0.297518934,-0.000000578,-0.000001597,-0.799557168,0.499297801
0.035000,0.297114783,-0.000000672,-0.000001857,-0.799480452,0.499182084
0.037500,0.296680859,-0.000000773,-0.000002136,-0.799397168,0.499057576
0.040000,0.296217394,-0.000000881,-0.000002434,-0.799307206,0.498924298
0.042500,0.295724632,-0.000000996,-0.000002751,-0.799210452,0.498782274
0.045000,0.295202836,-0.000001118,-0.000003086,-0.799106788,0.498631529
0.047500,0.294652287,-0.000001246,-0.000003440,-0.798996092,0.498472093
0.050000,0.294073283,-0.000001381,-0.000003812,-0.798878241,0.498303998
0.052500,0.293298938,-0.000001564,-0.000004308,-0.798693540,0.498071294
0.055000,0.292784326,-0.000001683,-0.000004639,-0.798596240,0.497924057
0.057500,0.291982328,-0.000001871,-0.000005153,-0.798410977,0.497684795
0.060000,0.291426915,-0.000001999,-0.000005510,-0.798304614,0.497525486
0.062500,0.290561153,-0.000002202,-0.000006065,-0.798100441,0.497265975
0.065000,0.289799449,-0.000002379,-0.000006553,-0.797925824,0.497039106
0.067500,0.289022222,-0.000002560,-0.000007051,-0.797749383,0.496808111
0.070000,0.288220545,-0.000002746,-0.000007565,-0.797565562,0.496569308
0.072500,0.287394097,-0.000002937,-0.000008094,-0.797373531,0.496322380
0.075000,0.286543293,-0.000003134,-0.000008639,-0.797173094,0.496067364
0.077500,0.285668629,-0.000003337,-0.000009199,-0.796964140,0.495804338
0.080000,0.284770627,-0.000003544,-0.000009774,-0.796746570,0.495533393
0.082500,0.283849828,-0.000003757,-0.000010363,-0.796520296,0.495254625
0.085000,0.282906792,-0.000003974,-0.000010966,-0.796285237,0.494968137
0.087500,0.281942098,-0.000004196,-0.000011583,-0.796041324,0.494674038
0.090000,0.280956346,-0.000004423,-0.000012212,-0.795788494,0.494372447
0.092500,0.279950154,-0.000004654,-0.000012855,-0.795526699,0.494063488
0.095000,0.278924158,-0.000004890,-0.000013510,-0.795255900,0.493747292
0.097500,0.277879017,-0.000005129,-0.000014177,-0.794976072,0.493424000
0.100000,0.276815407,-0.000005373,-0.000014855,-0.794687203,0.493093759
0.102500,0.275734023,-0.000005620,-0.000015545,-0.794389295,0.492756727
0.105000,0.274635581,-0.000005870,-0.000016245,-0.794082364,0.492413067
0.107500,0.273520815,-0.000006124,-0.000016955,-0.793766443,0.492062954
0.110000,0.272390479,-0.000006381,-0.000017674,-0.793441580,0.491706569
0.112500,0.271245346,-0.000006641,-0.000018403,-0.793107840,0.491344105
0.115000,0.270086207,-0.000006904,-0.000019140,-0.792765305,0.490975762
0.117500,0.268913873,-0.000007170,-0.000019886,-0.792414078,0.490601750
0.120000,0.267729174,-0.000007437,-0.000020638,-0.792054276,0.490222290
0.122500,0.266532957,-0.000007707,-0.000021398,-0.791686039,0.489837609
0.125000,0.265326088,-0.000007979,-0.000022164,-0.791309523,0.489447947
0.127500,0.264109453,-0.000008252,-0.000022935,-0.790924908,0.489053554
0.130000,0.262883952,-0.000008527,-0.000023712,-0.790532391,0.488654688
0.132500,0.261650505,-0.000008803,-0.000024494,-0.790132191,0.488251619
0.135000,0.260410049,-0.000009080,-0.000025279,-0.789724549,0.487844625
0.137500,0.259163537,-0.000009358,-0.000026068,-0.789309726,0.487433995
0.140000,0.257911939,-0.000009637,-0.000026860,-0.788888004,0.487020030
0.142500,0.256656241,-0.000009915,-0.000027653,-0.788459688,0.486603038
0.145000,0.255397444,-0.000010194,-0.000028448,-0.788025105,0.486183338
0.147500,0.254136565,-0.000010473,-0.000029244,-0.787584603,0.485761261
0.150000,0.252874635,-0.000010751,-0.000030040,-0.787138550,0.485337147
0.152500,0.251612699,-0.000011029,-0.000030836,-0.786687339,0.484911343
0.155000,0.250351816,-0.000011305,-0.000031630,-0.786231382,0.484484211
0.157500,0.249093058,-0.000011581,-0.000032423,-0.785771114,0.484056118
0.160000,0.247837508,-0.000011855,-0.000033213,-0.785306990,0.483627443
0.162500,0.246586262,-0.000012128,-0.000034000,-0.784839487,0.483198574
0.165000,0.245340428,-0.000012399,-0.000034782,-0.784369101,0.482769908
0.167500,0.244101121,-0.000012668,-0.000035561,-0.783896349,0.482341849
0.170000,0.242869468,-0.000012934,-0.000036333,-0.783421766,0.481914813
0.172500,0.241646606,-0.000013198,-0.000037100,-0.782945910,0.481489223
0.175000,0.240433676,-0.000013459,-0.000037860,-0.782469352,0.481065507
0.177500,0.239231830,-0.000013717,-0.000038612,-0.781992684,0.480644106
0.180000,0.238042223,-0.000013971,-0.000039356,-0.781516514,0.480225465
0.182500,0.236866019,-0.000014223,-0.000040092,-0.781041467,0.479810035
0.185000,0.235704384,-0.000014470,-0.000040817,-0.780568182,0.479398277
0.187500,0.234558489,-0.000014713,-0.000041532,-0.780097313,0.478990655
0.190000,0.233429505,-0.000014953,-0.000042236,-0.779629527,0.478587640
0.192500,0.232318609,-0.000015187,-0.000042928,-0.779165504,0.478189707
0.195000,0.231226974,-0.000015417,-0.000043608,-0.778705936,0.477797338
0.197500,0.230155776,-0.000015642,-0.000044274,-0.778251522,0.477411015
0.200000,0.229106188,-0.000015862,-0.000044926,-0.777802973,0.477031228
0.202500,0.228079381,-0.000016077,-0.000045564,-0.777361006,0.476658466
0.205000,0.227076522,-0.000016286,-0.000046186,-0.776926346,0.476293222
0.207500,0.226098773,-0.000016489,-0.000046791,-0.776499721,0.475935990
0.210000,0.225147292,-0.000016687,-0.000047380,-0.776081864,0.475587265
0.212500,0.224223227,-0.000016878,-0.000047952,-0.775673509,0.475247543
0.215000,0.223327721,-0.000017062,-0.000048505,-0.775275392,0.474917318
0.217500,0.222461905,-0.000017240,-0.000049039,-0.774888248,0.474597082
0.220000,0.221626901,-0.000017412,-0.000049553,-0.774512807,0.474287327
0.222500,0.220823819,-0.000017576,-0.000050047,-0.774149800,0.473988541
0.225000,0.220223516,-0.000017697,-0.000050420,-0.773899643,0.473772356
0.227500,0.219331861,-0.000017881,-0.000050969,-0.773477024,0.473434948
0.230000,0.218775462,-0.000017993,-0.000051314,-0.773238248,0.473232197
0.232500,0.217965222,-0.000018159,-0.000051811,-0.772848401,0.472923182
0.235000,0.217466733,-0.000018259,-0.000052120,-0.772632185,0.472740476
0.237500,0.216906133,-0.000018373,-0.000052467,-0.772381409,0.472532956
0.240000,0.216355810,-0.000018484,-0.000052807,-0.772128007,0.472326987
0.242500,0.215837036,-0.000018590,-0.000053127,-0.771885041,0.472131411
0.245000,0.215356651,-0.000018687,-0.000053423,-0.771657783,0.471949397
0.247500,0.214917328,-0.000018777,-0.000053693,-0.771448513,0.471782257
0.250000,0.214520501,-0.000018857,-0.000053936,-0.771258404,0.471630688
0.252500,0.214167217,-0.000018928,-0.000054151,-0.771088223,0.471495174
0.255000,0.213858382,-0.000018990,-0.000054339,-0.770938576,0.471376120
0.257500,0.213594843,-0.000019043,-0.000054498,-0.770809999,0.471273894
0.260000,0.213377406,-0.000019086,-0.000054628,-0.770702981,0.471188842
0.262500,0.213206844,-0.000019119,-0.000054728,-0.770617977,0.471121291
0.265000,0.213206844,-0.000019119,-0.000054728,-0.770617977,0.471121291
0.267500,0.213206844,-0.000019119,-0.000054728,-0.770617977,0.471121291
0.270000,0.213039556,-0.000019151,-0.000054826,-0.770537422,0.471055832
0.272500,0.213039556,-0.000019151,-0.000054826,-0.770537422,0.471055832
0.275000,0.213039556,-0.000019151,-0.000054826,-0.770537422,0.471055832
0.277500,0.213039556,-0.000019151,-0.000054826,-0.770537422,0.471055832
0.280000,0.213334987,-0.000019092,-0.000054632,-0.770645814,0.471154786
0.282500,0.213596226,-0.000019037,-0.000054461,-0.770762472,0.471248246
0.285000,0.213886091,-0.000018976,-0.000054272,-0.770895660,0.471353376
0.287500,0.214222036,-0.000018905,-0.000054054,-0.771050120,0.471475666
0.290000,0.214609170,-0.000018823,-0.000053804,-0.771227931,0.471616931
0.292500,0.215049169,-0.000018731,-0.000053521,-0.771429890,0.471777797
0.295000,0.215542713,-0.000018627,-0.000053204,-0.771656240,0.471958492
0.297500,0.216090165,-0.000018513,-0.000052854,-0.771906988,0.472159100
0.300000,0.216691769,-0.000018387,-0.000052470,-0.772182024,0.472379639
0.302500,0.217347700,-0.000018250,-0.000052052,-0.772481169,0.472620091
0.305000,0.218259580,-0.000018053,-0.000051470,-0.772929525,0.472963261
0.307500,0.218881314,-0.000017924,-0.000051073,-0.773196982,0.473186490
0.310000,0.219880015,-0.000017711,-0.000050437,-0.773670048,0.473557622
0.312500,0.220784593,-0.000017519,-0.000049860,-0.774085558,0.473889929
0.315000,0.221731194,-0.000017318,-0.000049257,-0.774512397,0.474235592
0.317500,0.222730985,-0.000017107,-0.000048622,-0.774959623,0.474599878
0.320000,0.223784813,-0.000016883,-0.000047952,-0.775427868,0.474983155
0.322500,0.224892569,-0.000016649,-0.000047250,-0.775916677,0.475385242
0.325000,0.226054011,-0.000016402,-0.000046514,-0.776425428,0.475805877
0.327500,0.227268847,-0.000016144,-0.000045745,-0.776953442,0.476244771
0.330000,0.228536736,-0.000015874,-0.000044942,-0.777499990,0.476701605
0.332500,0.229857294,-0.000015593,-0.000044107,-0.778064301,0.477176038
0.335000,0.231230094,-0.000015300,-0.000043240,-0.778645560,0.477667706
0.337500,0.232654662,-0.000014995,-0.000042340,-0.779242911,0.478176222
0.340000,0.234130483,-0.000014679,-0.000041409,-0.779855454,0.478701175
0.342500,0.235656998,-0.000014352,-0.000040445,-0.780482251,0.479242134
0.345000,0.237233604,-0.000014012,-0.000039450,-0.781122326,0.479798646
0.347500,0.238859658,-0.000013662,-0.000038425,-0.781774663,0.480370237
0.350000,0.240534472,-0.000013300,-0.000037368,-0.782438213,0.480956415
0.352500,0.242257322,-0.000012926,-0.000036282,-0.783111890,0.481556668
0.355000,0.244027438,-0.000012541,-0.000035165,-0.783794576,0.482170465
0.357500,0.245844013,-0.000012146,-0.000034020,-0.784485122,0.482797259
0.360000,0.247706202,-0.000011739,-0.000032845,-0.785182350,0.483436486
0.362500,0.249613120,-0.000011321,-0.000031642,-0.785885053,0.484087567
0.365000,0.251563843,-0.000010892,-0.000030412,-0.786591998,0.484749908
0.367500,0.253557415,-0.000010453,-0.000029153,-0.787301930,0.485422900
0.370000,0.255592841,-0.000010003,-0.000027869,-0.788013571,0.486105923
0.372500,0.257669092,-0.000009543,-0.000026557,-0.788725622,0.486798345
0.375000,0.259785105,-0.000009073,-0.000025221,-0.789436768,0.487499521
0.377500,0.261939786,-0.000008593,-0.000023859,-0.790145677,0.488208798
0.380000,0.264132007,-0.000008102,-0.000022473,-0.790851004,0.488925513
0.382500,0.266360610,-0.000007602,-0.000021064,-0.791551393,0.489648997
0.385000,0.268624410,-0.000007093,-0.000019631,-0.792245478,0.490378571
0.387500,0.270922191,-0.000006575,-0.000018176,-0.792931888,0.491113553
0.390000,0.273252711,-0.000006047,-0.000016699,-0.793609246,0.491853252
0.392500,0.275614703,-0.000005511,-0.000015202,-0.794276174,0.492596976
0.395000,0.278006873,-0.000004967,-0.000013684,-0.794931292,0.493344029
0.397500,0.280427906,-0.000004414,-0.000012147,-0.795573226,0.494093714
0.400000,0.282876464,-0.000003853,-0.000010591,-0.796200605,0.494845330
0.402500,0.285351190,-0.000003285,-0.000009018,-0.796812065,0.495598177
0.405000,0.287850704,-0.000002710,-0.000007427,-0.797406254,0.496351557
0.407500,0.290373612,-0.000002128,-0.000005820,-0.797981829,0.497104772
0.410000,0.292918501,-0.000001539,-0.000004197,-0.798537464,0.497857127
0.412500,0.295483943,-0.000000944,-0.000002560,-0.799071849,0.498607929
0.415000,0.298068497,-0.000000343,-0.000000910,-0.799583694,0.499356492
0.417500,0.300683414,0.000000267,0.000000763,-0.800097672,0.500112626
0.420000,0.303445519,0.000000911,0.000002532,-0.800853719,0.500973244
0.422500,0.306366309,0.000001595,0.000004405,-0.801875729,0.501947701
0.425000,0.309432998,0.000002317,0.000006373,-0.803138547,0.503025308
0.427500,0.312636271,0.000003075,0.000008432,-0.804624327,0.504198236
0.430000,0.315969427,0.000003870,0.000010577,-0.806320602,0.505460764
0.432500,0.319645412,0.000004765,0.000012938,-0.808397465,0.506911069
0.435000,0.323023539,0.000005573,0.000015120,-0.810328570,0.508247382
0.437500,0.326934689,0.000006540,0.000017639,-0.812793763,0.509857510
0.440000,0.330754269,0.000007484,0.000020106,-0.815270126,0.511445383
0.442500,0.334676675,0.000008462,0.000022644,-0.817912557,0.513099736
0.445000,0.338703420,0.000009477,0.000025254,-0.820721483,0.514820151
0.447500,0.342831106,0.000010529,0.000027933,-0.823691371,0.516603333
0.450000,0.347056205,0.000011618,0.000030680,-0.826816525,0.518445890
0.452500,0.351375170,0.000012745,0.000033493,-0.830091259,0.520344415
0.455000,0.355784431,0.000013910,0.000036370,-0.833509881,0.522295490
0.457500,0.360280378,0.000015112,0.000039308,-0.837066666,0.524295681
0.460000,0.364859362,0.000016353,0.000042307,-0.840755850,0.526341542
0.462500,0.369517684,0.000017633,0.000045363,-0.844571622,0.528429616
0.465000,0.374251598,0.000018950,0.000048476,-0.848508117,0.530556447
0.467500,0.379057305,0.000020307,0.000051642,-0.852559420,0.532718577
0.470000,0.383930957,0.000021702,0.000054860,-0.856719563,0.534912559
0.472500,0.388868658,0.000023136,0.000058128,-0.860982532,0.537134963
0.475000,0.393866462,0.000024609,0.000061444,-0.865342272,0.539382380
0.477500,0.398920378,0.000026120,0.000064804,-0.869792687,0.541651435
0.480000,0.404026372,0.000027669,0.000068208,-0.874327655,0.543938788
0.482500,0.409180371,0.000029257,0.000071653,-0.878941026,0.546241143
0.485000,0.414378262,0.000030882,0.000075136,-0.883626634,0.548555255
0.487500,0.419615901,0.000032545,0.000078656,-0.888378304,0.550877936
0.490000,0.424889110,0.000034245,0.000082210,-0.893189858,0.553206062
0.492500,0.430193687,0.000035981,0.000085796,-0.898055123,0.555536573
0.495000,0.435525401,0.000037753,0.000089411,-0.902967941,0.557866484
0.497500,0.440880006,0.000039560,0.000093053,-0.907922169,0.560192885
0.500000,0.446253234,0.000041401,0.000096719,-0.912911696,0.562512947
0.502500,0.451640806,0.000043275,0.000100408,-0.917930442,0.564823924
0.505000,0.457038431,0.000045183,0.000104116,-0.922972367,0.567123155
0.507500,0.462441810,0.000047121,0.000107842,-0.928031481,0.569408070
0.510000,0.467846642,0.000049090,0.000111582,-0.933101845,0.571676187
0.512500,0.473248623,0.000051088,0.000115334,-0.938177579,0.573925117
0.515000,0.478643452,0.000053114,0.000119096,-0.943252869,0.576152561
0.517500,0.484026833,0.000055166,0.000122865,-0.948321971,0.578356316
0.520000,0.489394479,0.000057243,0.000126638,-0.953379216,0.580534271
0.522500,0.494742113,0.000059344,0.000130412,-0.958419014,0.582684406
0.525000,0.500065473,0.000061466,0.000134186,-0.963435860,0.584804797
0.527500,0.505360312,0.000063608,0.000137957,-0.968424338,0.586893609
0.530000,0.510622405,0.000065768,0.000141720,-0.973379123,0.588949097
0.532500,0.515847547,0.000067944,0.000145475,-0.978294989,0.590969608
0.535000,0.521031560,0.000070134,0.000149218,-0.983166804,0.592953574
0.537500,0.526170291,0.000072336,0.000152946,-0.987989544,0.594899513
0.540000,0.531259620,0.000074548,0.000156657,-0.992758286,0.596806028
0.542500,0.536295457,0.000076767,0.000160348,-0.997468216,0.598671802
0.545000,0.541445478,0.000079077,0.000164125,-1.002307417,0.599547032
0.547500,0.546691389,0.000081473,0.000167975,-1.007256329,0.599613267
0.550000,0.551881560,0.000083880,0.000171803,-1.012143205,0.599639535
0.552500,0.556992847,0.000086286,0.000175594,-1.016939996,0.599661707
0.555000,0.562019894,0.000088685,0.000179345,-1.021640791,0.599682580
0.557500,0.566958759,0.000091075,0.000183052,-1.026241536,0.599702383
0.560000,0.571805662,0.000093453,0.000186713,-1.030738442,0.599721147
0.562500,0.576556892,0.000095816,0.000190324,-1.035127856,0.599738889
0.565000,0.581208798,0.000098160,0.000193883,-1.039406252,0.599755621
0.567500,0.585757797,0.000100483,0.000197387,-1.043570230,0.599771356
0.570000,0.590200366,0.000102781,0.000200833,-1.047616513,0.599786108
0.572500,0.594533052,0.000105052,0.000204217,-1.051541948,0.599799887
0.575000,0.598752468,0.000107290,0.000207538,-1.055343503,0.599812705
0.577500,0.602855296,0.000109494,0.000210792,-1.059018267,0.599824571
0.580000,0.606838291,0.000111661,0.000213975,-1.062563447,0.599835497
0.582500,0.610698280,0.000113786,0.000217086,-1.065976367,0.599845490
0.585000,0.614432166,0.000115866,0.000220121,-1.069254471,0.599854558
0.587500,0.618036925,0.000117898,0.000223078,-1.072395313,0.599862710
0.590000,0.621509615,0.000119879,0.000225952,-1.075396564,0.599869952
0.592500,0.624847372,0.000121806,0.000228743,-1.078256006,0.599876291
0.595000,0.628047413,0.000123675,0.000231445,-1.080971533,0.599881731
0.597500,0.631107040,0.000125482,0.000234058,-1.083541148,0.599886278
0.600000,0.634023640,0.000127226,0.000236578,-1.085962961,0.599889935
0.602500,0.635569763,0.000128318,0.000238137,-1.087478941,0.599817762
0.605000,0.636921326,0.000129303,0.000239558,-1.088804896,0.599808961
0.607500,0.638114475,0.000130201,0.000240863,-1.089975005,0.599803552
0.610000,0.639098582,0.000130894,0.000241857,-1.090929889,0.599462758
0.612500,0.639994646,0.000131546,0.000242786,-1.091809889,0.599454056
0.615000,0.640619697,0.000132042,0.000243533,-1.092421784,0.600000000
0.617500,0.641259553,0.000132561,0.000244277,-1.093052997,0.599868178
0.620000,0.641696997,0.000132966,0.000244880,-1.093483010,0.599441816
0.622500,0.641874450,0.000133141,0.000245154,-1.093656132,0.599831148
0.625000,0.641937929,0.000133253,0.000245351,-1.093719265,0.600000000
0.627500,0.641937929,0.000133253,0.000245351,-1.093719265,0.600000000
0.630000,0.641937929,0.000133253,0.000245351,-1.093719265,0.600000000
0.632500,0.641539554,0.000133141,0.000245220,-1.093351366,0.599335042
0.635000,0.641033660,0.000132959,0.000245019,-1.092866092,0.599469449
0.637500,0.640371071,0.000132688,0.000244711,-1.092225067,0.599540591
0.640000,0.639558715,0.000132335,0.000244299,-1.091436997,0.599551591
0.642500,0.638598927,0.000131904,0.000243781,-1.090504821,0.599503564
0.645000,0.637492806,0.000131394,0.000243160,-1.089429811,0.599397042
0.647500,0.636241167,0.000130808,0.000242435,-1.088212808,0.599232399
0.650000,0.634415691,0.000129963,0.000241442,-1.086399803,0.599143933
0.652500,0.633146038,0.000129370,0.000240688,-1.085178931,0.598965816
0.655000,0.631052240,0.000128382,0.000239483,-1.083111647,0.598759443
0.657500,0.629108651,0.000127473,0.000238362,-1.081204393,0.598601335
0.660000,0.627049171,0.000126502,0.000237145,-1.079188958,0.598388484
0.662500,0.624853807,0.000125458,0.000235820,-1.077041416,0.598112627
0.665000,0.622522141,0.000124341,0.000234386,-1.074760736,0.597773715
0.667500,0.620055428,0.000123153,0.000232845,-1.072348083,0.597372416
0.670000,0.617455148,0.000121894,0.000231197,-1.069804924,0.596909465
0.672500,0.614722890,0.000120568,0.000229443,-1.067132849,0.596385606
0.675000,0.611860339,0.000119175,0.000227584,-1.064333564,0.595801590
0.677500,0.608869272,0.000117718,0.000225623,-1.061408889,0.595158176
0.680000,0.605751562,0.000116200,0.000223559,-1.058360756,0.594456128
0.682500,0.602509173,0.000114621,0.000221395,-1.055191216,0.593696220
0.685000,0.599144163,0.000112984,0.000219132,-1.051902437,0.592879235
0.687500,0.595658678,0.000111293,0.000216771,-1.048496707,0.592005966
0.690000,0.592054957,0.000109548,0.000214316,-1.044976438,0.591077219
0.692500,0.588335328,0.000107753,0.000211766,-1.041344162,0.590093816
0.695000,0.584502209,0.000105911,0.000209125,-1.037602540,0.589056590
0.697500,0.580558103,0.000104023,0.000206394,-1.033754358,0.587966393
0.700000,0.576505603,0.000102093,0.000203576,-1.029802533,0.586824096
0.702500,0.572347387,0.000100123,0.000200673,-1.025750112,0.585630589
0.705000,0.568086220,0.000098116,0.000197686,-1.021600277,0.584386786
0.707500,0.563724949,0.000096075,0.000194619,-1.017356343,0.583093625
0.710000,0.559266507,0.000094002,0.000191474,-1.013021763,0.581752071
0.712500,0.554713911,0.000091901,0.000188254,-1.008600130,0.580363118
0.715000,0.550070259,0.000089775,0.000184961,-1.004095178,0.578927793
0.717500,0.545338731,0.000087625,0.000181598,-0.999510781,0.577447154
0.720000,0.540522587,0.000085456,0.000178168,-0.994850961,0.575922302
0.722500,0.535625168,0.000083269,0.000174673,-0.990119884,0.574354372
0.725000,0.530649893,0.000081068,0.000171117,-0.985321864,0.572744548
0.727500,0.525600262,0.000078856,0.000167502,-0.980461366,0.571094057
0.730000,0.520479848,0.000076635,0.000163832,-0.975543005,0.569404176
0.732500,0.515292305,0.000074408,0.000160110,-0.970571548,0.567676238
0.735000,0.510041360,0.000072178,0.000156340,-0.965551915,0.565911629
0.737500,0.504730815,0.000069948,0.000152523,-0.960489183,0.564111798
0.740000,0.499364548,0.000067719,0.000148664,-0.955388581,0.562278258
0.742500,0.493561469,0.000065257,0.000144382,-0.949811019,0.560452705
0.745000,0.488410295,0.000063184,0.000140653,-0.945007782,0.558698916
0.747500,0.482539416,0.000060756,0.000136316,-0.939415521,0.556813157
0.750000,0.476940741,0.000058481,0.000132154,-0.934158900,0.555037716
0.752500,0.471316690,0.000056229,0.000127975,-0.928906347,0.553232087
0.755000,0.465663843,0.000053996,0.000123780,-0.923653093,0.551394317
0.757500,0.459986325,0.000051786,0.000119572,-0.918405123,0.549526629
0.760000,0.454288531,0.000049601,0.000115355,-0.913168916,0.547631455
0.762500,0.448574930,0.000047441,0.000111132,-0.907951118,0.545711318
0.765000,0.442850054,0.000045310,0.000106908,-0.902758531,0.543768841
0.767500,0.437118496,0.000043208,0.000102685,-0.897598116,0.541806748
0.770000,0.431384910,0.000041138,0.000098469,-0.892476984,0.539827866
0.772500,0.425654011,0.000039101,0.000094262,-0.887402401,0.537835136
0.775000,0.419930568,0.000037097,0.000090069,-0.882381782,0.535831612
0.777500,0.414219407,0.000035130,0.000085893,-0.877422691,0.533820465
0.780000,0.408525408,0.000033199,0.000081738,-0.872532841,0.531804991
0.782500,0.402853505,0.000031305,0.000077607,-0.867720087,0.529788613
0.785000,0.397208682,0.000029451,0.000073506,-0.862992435,0.527774881
0.787500,0.391595977,0.000027636,0.000069436,-0.858358036,0.525767480
0.790000,0.386020481,0.000025861,0.000065403,-0.853825188,0.523770233
0.792500,0.380487337,0.000024127,0.000061409,-0.849402345,0.521787100
0.795000,0.375001747,0.000022434,0.000057458,-0.845098118,0.519822187
0.797500,0.369568975,0.000020784,0.000053555,-0.840921289,0.517879748
0.800000,0.364194352,0.000019176,0.000049702,-0.836880824,0.515964193
0.802500,0.358883289,0.000017610,0.000045904,-0.832985896,0.514080090
0.805000,0.353641294,0.000016087,0.000042164,-0.829245917,0.512232182
0.807500,0.348473986,0.000014607,0.000038486,-0.825670578,0.510425398
0.810000,0.343387134,0.000013171,0.000034873,-0.822269917,0.508664873
0.812500,0.338386696,0.000011778,0.000031330,-0.819054406,0.506955981
0.815000,0.333478884,0.000010428,0.000027861,-0.816035081,0.505304379
0.817500,0.328670254,0.000009121,0.000024469,-0.813223736,0.503716079
0.820000,0.323967861,0.000007859,0.000021159,-0.810633223,0.502197554
0.822500,0.319379484,0.000006640,0.000017937,-0.808277931,0.500755929
0.825000,0.314914040,0.000005466,0.000014807,-0.806174627,0.499399300
0.827500,0.310582374,0.000004337,0.000011776,-0.804344075,0.498137373
0.830000,0.306399084,0.000003255,0.000008854,-0.802814778,0.496982952
0.832500,0.302388741,0.000002225,0.000006056,-0.801635688,0.495957025
0.835000,0.298556905,0.000001245,0.000003385,-0.800817219,0.495065053
0.837500,0.294724628,0.000000273,0.000000726,-0.799993034,0.494161055
0.840000,0.290867021,-0.000000699,-0.000001938,-0.799110178,0.493224426
0.842500,0.286984505,-0.000001670,-0.000004607,-0.798166988,0.492255102
0.845000,0.283078443,-0.000002639,-0.000007279,-0.797163681,0.491253752
0.847500,0.279150272,-0.000003606,-0.000009954,-0.796100623,0.490221072
0.850000,0.275201471,-0.000004571,-0.000012632,-0.794978268,0.489157767
0.852500,0.271233557,-0.000005532,-0.000015311,-0.793797156,0.488064549
0.855000,0.267248083,-0.000006490,-0.000017991,-0.792557911,0.486942139
0.857500,0.263246640,-0.000007444,-0.000020671,-0.791261241,0.485791264
0.860000,0.259230856,-0.000008393,-0.000023350,-0.789907940,0.484612662
0.862500,0.255202393,-0.000009337,-0.000026027,-0.788498883,0.483407081
0.865000,0.251162945,-0.000010275,-0.000028701,-0.787035029,0.482175280
0.867500,0.247114240,-0.000011207,-0.000031372,-0.785517417,0.480918028
0.870000,0.243058040,-0.000012131,-0.000034038,-0.783947170,0.479636108
0.872500,0.238996133,-0.000013048,-0.000036699,-0.782325489,0.478330315
0.875000,0.234930340,-0.000013958,-0.000039352,-0.780653656,0.477001459
0.877500,0.230862509,-0.000014858,-0.000041999,-0.778933029,0.475650364
0.880000,0.226794515,-0.000015750,-0.000044636,-0.777165045,0.474277870
0.882500,0.222728258,-0.000016632,-0.000047264,-0.775351217,0.472884833
0.885000,0.218665666,-0.000017504,-0.000049882,-0.773493131,0.471472126
0.887500,0.214608687,-0.000018365,-0.000052487,-0.771592450,0.470040640
0.890000,0.210559294,-0.000019215,-0.000055080,-0.769650907,0.468591286
0.892500,0.206519479,-0.000020054,-0.000057659,-0.767670305,0.467124992
0.895000,0.202491254,-0.000020881,-0.000060222,-0.765652516,0.465642710
0.897500,0.198476652,-0.000021696,-0.000062770,-0.763599483,0.464145410
0.900000,0.194477720,-0.000022498,-0.000065300,-0.761513210,0.462634087
0.902500,0.190496522,-0.000023287,-0.000067812,-0.759395768,0.461109755
0.905000,0.186535137,-0.000024062,-0.000070304,-0.757249289,0.459573455
0.907500,0.182595656,-0.000024823,-0.000072775,-0.755075964,0.458026250
0.910000,0.178680182,-0.000025571,-0.000075225,-0.752878043,0.456469229
0.912500,0.174790827,-0.000026304,-0.000077652,-0.750657830,0.454903506
0.915000,0.170929712,-0.000027022,-0.000080055,-0.748417685,0.453330219
0.917500,0.167098967,-0.000027725,-0.000082432,-0.746160015,0.451750536
0.920000,0.163300723,-0.000028413,-0.000084783,-0.743887277,0.450165649
0.922500,0.159537118,-0.000029086,-0.000087107,-0.741601973,0.448576777
0.925000,0.155810292,-0.000029743,-0.000089402,-0.739306648,0.446985169
0.927500,0.152122382,-0.000030384,-0.000091667,-0.737003885,0.445392098
0.930000,0.148475528,-0.000031009,-0.000093901,-0.734696306,0.443798868
0.932500,0.144871864,-0.000031618,-0.000096103,-0.732386563,0.442206806
0.935000,0.141313518,-0.000032211,-0.000098273,-0.730077341,0.440617270
0.937500,0.137802614,-0.000032787,-0.000100407,-0.727771349,0.439031645
0.940000,0.134341265,-0.000033348,-0.000102507,-0.725471322,0.437451339
0.942500,0.130931575,-0.000033891,-0.000104570,-0.723180012,0.435877789
0.945000,0.127575632,-0.000034419,-0.000106596,-0.720900187,0.434312456
0.947500,0.124275514,-0.000034930,-0.000108582,-0.718634627,0.432756824
0.950000,0.121033277,-0.000035424,-0.000110530,-0.716386120,0.431212404
0.952500,0.117850961,-0.000035902,-0.000112436,-0.714157457,0.429680723
0.955000,0.114730586,-0.000036364,-0.000114301,-0.711951427,0.428163334
0.957500,0.111674146,-0.000036810,-0.000116123,-0.709770818,0.426661805
0.960000,0.108683611,-0.000037239,-0.000117902,-0.707618404,0.425177724
0.962500,0.105760923,-0.000037653,-0.000119635,-0.705496948,0.423712690
0.965000,0.102907996,-0.000038050,-0.000121323,-0.703409194,0.422268319
0.967500,0.100126710,-0.000038432,-0.000122964,-0.701357862,0.420846236
0.970000,0.097418912,-0.000038798,-0.000124558,-0.699345646,0.419448073
0.972500,0.094786410,-0.000039148,-0.000126103,-0.697375206,0.418075468
0.975000,0.092230978,-0.000039483,-0.000127599,-0.695449165,0.416730062
0.977500,0.089913317,-0.000039784,-0.000128978,-0.693742851,0.415540955
0.980000,0.087357166,-0.000040116,-0.000130469,-0.691740617,0.414158105
0.982500,0.085186919,-0.000040389,-0.000131753,-0.690118664,0.413023484
0.985000,0.082959747,-0.000040672,-0.000133070,-0.688403350,0.411839828
0.987500,0.080803522,-0.000040942,-0.000134342,-0.686724760,0.410681027
0.990000,0.078732434,-0.000041198,-0.000135560,-0.685102543,0.409557321
0.992500,0.076749322,-0.000041440,-0.000136722,-0.683541188,0.408471276
0.995000,0.074855748,-0.000041667,-0.000137827,-0.682043160,0.407424496
0.997500,0.073053077,-0.000041880,-0.000138876,-0.680610600,0.406418445
1.000000,0.071342597,-0.000042080,-0.000139867,-0.679245535,0.405454537
1.002500,0.069725535,-0.000042266,-0.000140800,-0.677949900,0.404534146
1.005000,0.068203052,-0.000042438,-0.000141674,-0.676725539,0.403658606
1.007500,0.066776245,-0.000042597,-0.000142489,-0.675574198,0.402829204
1.010000,0.065446144,-0.000042743,-0.000143243,-0.674497527,0.402047177
1.012500,0.064213710,-0.000042876,-0.000143938,-0.673497070,0.401313711
1.015000,0.063079835,-0.000042996,-0.000144572,-0.672574266,0.400629933
1.017500,0.062045338,-0.000043104,-0.000145145,-0.671730442,0.399996909
1.020000,0.061110967,-0.000043199,-0.000145657,-0.670966815,0.399415642
1.022500,0.060277395,-0.000043282,-0.000146107,-0.670284484,0.398887068
1.025000,0.059545222,-0.000043352,-0.000146495,-0.669684431,0.398412050
1.027500,0.058914968,-0.000043411,-0.000146821,-0.669167515,0.397991380
1.030000,0.058505945,-0.000043449,-0.000147043,-0.668850382,0.397738059
1.032500,0.058087996,-0.000043490,-0.000147271,-0.668514435,0.397476292
1.035000,0.057738373,-0.000043523,-0.000147456,-0.668224269,0.397247235
1.037500,0.057481069,-0.000043546,-0.000147584,-0.668005083,0.397065517
1.040000,0.057323796,-0.000043558,-0.000147651,-0.667866499,0.396936475
1.042500,0.057323796,-0.000043558,-0.000147651,-0.667866499,0.396936475
1.045000,0.057323796,-0.000043558,-0.000147651,-0.667866499,0.396936475
1.047500,0.057323796,-0.000043558,-0.000147651,-0.667866499,0.396936475
1.050000,0.057664697,-0.000043515,-0.000147409,-0.668104027,0.397060320
1.052500,0.058049092,-0.000043464,-0.000147142,-0.668408216,0.397218591
1.055000,0.058519456,-0.000043402,-0.000146822,-0.668788687,0.397425368
1.057500,0.059087538,-0.000043329,-0.000146443,-0.669250071,0.397685237
1.060000,0.059756423,-0.000043243,-0.000146003,-0.669793923,0.397999535
1.062500,0.060526647,-0.000043146,-0.000145500,-0.670420319,0.398368438
1.065000,0.061397939,-0.000043036,-0.000144937,-0.671128656,0.398791673
1.067500,0.062671435,-0.000042865,-0.000144105,-0.672226027,0.399417715
1.070000,0.063540232,-0.000042757,-0.000143544,-0.672906930,0.399835043
1.072500,0.064988978,-0.000042566,-0.000142609,-0.674124827,0.400553282
1.075000,0.066319069,-0.000042390,-0.000141749,-0.675221122,0.401205991
1.077500,0.067723930,-0.000042206,-0.000140846,-0.676363980,0.401897371
1.080000,0.069221496,-0.000042010,-0.000139888,-0.677575609,0.402639090
1.082500,0.070812690,-0.000041802,-0.000138876,-0.678857402,0.403431649
1.085000,0.072496570,-0.000041581,-0.000137809,-0.680207914,0.404274132
1.087500,0.074271935,-0.000041347,-0.000136689,-0.681625265,0.405165393
1.090000,0.076137499,-0.000041099,-0.000135517,-0.683107444,0.406104211
1.092500,0.078091915,-0.000040839,-0.000134292,-0.684652357,0.407089309
1.095000,0.080133785,-0.000040565,-0.000133016,-0.686257833,0.408119357
1.097500,0.082261657,-0.000040278,-0.000131691,-0.687921631,0.409192982
1.100000,0.084474029,-0.000039977,-0.000130316,-0.689641442,0.410308767
1.102500,0.086769351,-0.000039663,-0.000128893,-0.691414898,0.411465257
1.105000,0.089146026,-0.000039334,-0.000127422,-0.693239572,0.412660962
1.107500,0.091602416,-0.000038992,-0.000125905,-0.695112986,0.413894362
1.110000,0.094136837,-0.000038636,-0.000124343,-0.697032613,0.415163908
1.112500,0.096747570,-0.000038265,-0.000122736,-0.698995885,0.416468028
1.115000,0.099432855,-0.000037880,-0.000121085,-0.701000194,0.417805133
1.117500,0.102190897,-0.000037481,-0.000119393,-0.703042898,0.419173614
1.120000,0.105019869,-0.000037067,-0.000117659,-0.705121325,0.420571852
1.122500,0.107917911,-0.000036639,-0.000115884,-0.707232781,0.421998216
1.125000,0.110883135,-0.000036196,-0.000114071,-0.709374548,0.423451071
1.127500,0.113913624,-0.000035738,-0.000112220,-0.711543895,0.424928780
1.130000,0.117007438,-0.000035266,-0.000110331,-0.713738076,0.426429703
1.132500,0.120162611,-0.000034780,-0.000108407,-0.715954339,0.427952207
1.135000,0.123377158,-0.000034278,-0.000106447,-0.718189929,0.429494661
1.137500,0.126649072,-0.000033762,-0.000104455,-0.720442089,0.431055445
1.140000,0.129976329,-0.000033232,-0.000102429,-0.722708069,0.432632951
1.142500,0.133356891,-0.000032686,-0.000100372,-0.724985124,0.434225582
1.145000,0.136788702,-0.000032127,-0.000098285,-0.727270522,0.435831757
1.147500,0.140269697,-0.000031553,-0.000096169,-0.729561547,0.437449914
1.150000,0.143797799,-0.000030965,-0.000094025,-0.731855500,0.439078511
1.152500,0.147370922,-0.000030363,-0.000091854,-0.734149705,0.440716026
1.155000,0.150986972,-0.000029747,-0.000089658,-0.736441512,0.442360960
1.157500,0.154643849,-0.000029117,-0.000087436,-0.738728296,0.444011841
1.160000,0.158339451,-0.000028473,-0.000085192,-0.741007467,0.445667220
1.162500,0.162071671,-0.000027816,-0.000082925,-0.743276467,0.447325679
1.165000,0.165838402,-0.000027146,-0.000080637,-0.745532776,0.448985824
1.167500,0.169637536,-0.000026463,-0.000078329,-0.747773913,0.450646294
1.170000,0.173710361,-0.000025722,-0.000075888,-0.750211355,0.452467871
1.172500,0.177339413,-0.000025066,-0.000073683,-0.752218342,0.454010454
1.175000,0.181446671,-0.000024305,-0.000071219,-0.754583539,0.455810140
1.177500,0.185354027,-0.000023583,-0.000068876,-0.756736639,0.457493840
1.180000,0.189277359,-0.000022852,-0.000066521,-0.758855082,0.459165963
1.182500,0.193220579,-0.000022109,-0.000064152,-0.760944431,0.460829110
1.185000,0.197181804,-0.000021356,-0.000061769,-0.763002851,0.462482309
1.187500,0.201158980,-0.000020592,-0.000059375,-0.765028268,0.464124489
1.190000,0.205150057,-0.000019817,-0.000056969,-0.767018657,0.465754612
1.192500,0.209152999,-0.000019034,-0.000054553,-0.768972051,0.467371675
1.195000,0.213165784,-0.000018241,-0.000052129,-0.770886546,0.468974711
1.197500,0.217186406,-0.000017439,-0.000049697,-0.772760301,0.470562786
1.200000,0.221212874,-0.000016629,-0.000047258,-0.774591542,0.472135004
1.202500,0.225243219,-0.000015811,-0.000044813,-0.776378559,0.473690504
1.205000,0.229275486,-0.000014986,-0.000042364,-0.778119712,0.475228460
1.207500,0.233307743,-0.000014154,-0.000039911,-0.779813427,0.476748080
1.210000,0.237338080,-0.000013316,-0.000037456,-0.781458204,0.478248608
1.212500,0.241364607,-0.000012472,-0.000034999,-0.783052610,0.479729321
1.215000,0.245385459,-0.000011623,-0.000032542,-0.784595287,0.481189530
1.217500,0.249398795,-0.000010769,-0.000030086,-0.786084949,0.482628581
1.220000,0.253402798,-0.000009912,-0.000027631,-0.787520385,0.484045852
1.222500,0.257395681,-0.000009050,-0.000025178,-0.788900457,0.485440753
1.225000,0.261375682,-0.000008186,-0.000022730,-0.790224103,0.486812727
1.227500,0.265341067,-0.000007320,-0.000020286,-0.791490337,0.488161249
1.230000,0.269290132,-0.000006452,-0.000017847,-0.792698251,0.489485825
1.232500,0.273221205,-0.000005582,-0.000015415,-0.793847013,0.490785992
1.235000,0.277132644,-0.000004713,-0.000012991,-0.794935867,0.492061317
1.237500,0.281022838,-0.000003843,-0.000010575,-0.795964139,0.493311398
1.240000,0.284890211,-0.000002974,-0.000008169,-0.796931229,0.494535861
1.242500,0.288733220,-0.000002106,-0.000005773,-0.797836618,0.495734362
1.245000,0.292550358,-0.000001240,-0.000003388,-0.798679866,0.496906586
1.247500,0.296340151,-0.000000376,-0.000001016,-0.799460611,0.498052245
1.250000,0.300101165,0.000000485,0.000001344,-0.800178570,0.499171079
1.252500,0.303974793,0.000001375,0.000003782,-0.801124351,0.500380386
1.255000,0.308033751,0.000002314,0.000006344,-0.802447050,0.501740044
1.257500,0.312247422,0.000003297,0.000009012,-0.804085197,0.503224448
1.260000,0.316598330,0.000004321,0.000011774,-0.806004483,0.504818831
1.262500,0.321074347,0.000005385,0.000014623,-0.808181570,0.506512772
1.265000,0.325665863,0.000006487,0.000017552,-0.810598309,0.508297865
1.267500,0.330364682,0.000007629,0.000020558,-0.813239483,0.510166828
1.270000,0.335163492,0.000008808,0.000023634,-0.816091719,0.512113077
1.272500,0.340055569,0.000010025,0.000026778,-0.819142887,0.514130489
1.275000,0.345034604,0.000011280,0.000029986,-0.822381737,0.516213277
1.277500,0.350094585,0.000012573,0.000033253,-0.825797669,0.518355899
1.280000,0.355229725,0.000013903,0.000036578,-0.829380575,0.520553017
1.282500,0.360434410,0.000015270,0.000039955,-0.833120735,0.522799455
1.285000,0.365703158,0.000016675,0.000043383,-0.837008746,0.525090184
1.287500,0.371030600,0.000018117,0.000046857,-0.841035463,0.527420312
1.290000,0.376411456,0.000019595,0.000050376,-0.845191968,0.529785070
1.292500,0.381840524,0.000021110,0.000053936,-0.849469536,0.532179817
1.295000,0.387312668,0.000022661,0.000057533,-0.853859623,0.534600032
1.297500,0.392822814,0.000024248,0.000061166,-0.858353846,0.537041319
1.300000,0.398365944,0.000025870,0.000064831,-0.862943977,0.539499407
1.302500,0.403937092,0.000027527,0.000068525,-0.867621934,0.541970154
1.305000,0.409531342,0.000029218,0.000072245,-0.872379779,0.544449543
1.307500,0.415143828,0.000030943,0.000075990,-0.877209713,0.546933693
1.310000,0.420769731,0.000032701,0.000079755,-0.882104078,0.549418855
1.312500,0.426404283,0.000034490,0.000083538,-0.887055352,0.551901415
1.315000,0.432042763,0.000036311,0.000087336,-0.892056154,0.554377896
1.317500,0.437680500,0.000038162,0.000091147,-0.897099239,0.556844957
1.320000,0.443312873,0.000040042,0.000094967,-0.902177504,0.559299398
1.322500,0.448935314,0.000041949,0.000098794,-0.907283988,0.561738155
1.325000,0.454543305,0.000043884,0.000102626,-0.912411870,0.564158302
1.327500,0.460132383,0.000045844,0.000106459,-0.917554473,0.566557051
1.330000,0.465698140,0.000047828,0.000110291,-0.922705264,0.568931748
1.332500,0.471236222,0.000049834,0.000114119,-0.927857855,0.571279875
1.335000,0.476742333,0.000051862,0.000117941,-0.933006004,0.573599044
1.337500,0.482212238,0.000053909,0.000121753,-0.938143615,0.575887000
1.340000,0.487641757,0.000055974,0.000125553,-0.943264740,0.578141613
1.342500,0.493026775,0.000058055,0.000129339,-0.948363578,0.580360879
1.345000,0.498363235,0.000060150,0.000133107,-0.953434475,0.582542913
1.347500,0.503647147,0.000062257,0.000136855,-0.958471924,0.584685952
1.350000,0.508874582,0.000064374,0.000140581,-0.963470566,0.586788345
1.352500,0.514041679,0.000066500,0.000144281,-0.968425189,0.588848554
1.355000,0.519144641,0.000068631,0.000147953,-0.973330727,0.590865147
1.357500,0.524179742,0.000070767,0.000151595,-0.978182261,0.592836797
1.360000,0.529143321,0.000072904,0.000155203,-0.982975015,0.594762278
1.362500,0.534031790,0.000075040,0.000158776,-0.987704358,0.596640457
1.365000,0.538841629,0.000077173,0.000162310,-0.992365804,0.598470297
1.367500,0.543674331,0.000079351,0.000165870,-0.997071161,0.599301868
1.370000,0.548661444,0.000081648,0.000169536,-1.001975798,0.599595510
1.372500,0.553542159,0.000083930,0.000173147,-1.006777746,0.599624216
1.375000,0.558322738,0.000086199,0.000176703,-1.011483747,0.599644207
1.377500,0.562996322,0.000088452,0.000180202,-1.016085687,0.599662507
1.380000,0.567559634,0.000090683,0.000183640,-1.020579860,0.599679679
1.382500,0.572009750,0.000092891,0.000187015,-1.024963035,0.599695786
1.385000,0.576343848,0.000095073,0.000190323,-1.029232143,0.599710848
1.387500,0.580559195,0.000097226,0.000193564,-1.033384249,0.599724884
1.390000,0.584653143,0.000099346,0.000196733,-1.037416545,0.599737910
1.392500,0.588623132,0.000101431,0.000199830,-1.041326351,0.599749943
1.395000,0.592466686,0.000103478,0.000202851,-1.045111107,0.599760997
1.397500,0.596181416,0.000105483,0.000205794,-1.048768375,0.599771087
1.400000,0.599765019,0.000107445,0.000208657,-1.052295831,0.599780226
1.402500,0.603215280,0.000109360,0.000211437,-1.055691269,0.599788428
1.405000,0.606530072,0.000111224,0.000214133,-1.058952592,0.599795704
1.407500,0.609707355,0.000113037,0.000216741,-1.062077812,0.599802066
1.410000,0.612745179,0.000114794,0.000219260,-1.065065050,0.599807523
1.412500,0.615641681,0.000116493,0.000221687,-1.067912530,0.599812086
1.415000,0.618395089,0.000118131,0.000224021,-1.070618580,0.599815764
1.417500,0.621003720,0.000119705,0.000226259,-1.073181628,0.599818564
1.420000,0.623465984,0.000121214,0.000228399,-1.075600200,0.599820495
1.422500,0.625780380,0.000122654,0.000230439,-1.077872920,0.599821564
1.425000,0.627945498,0.000124024,0.000232378,-1.079998506,0.599821775
1.427500,0.629960024,0.000125320,0.000234213,-1.081975772,0.599821137
1.430000,0.631822733,0.000126541,0.000235943,-1.083803621,0.599819652
1.432500,0.633532496,0.000127685,0.000237565,-1.085481050,0.599817325
1.435000,0.635088274,0.000128749,0.000239079,-1.087007143,0.599814160
1.437500,0.636489128,0.000129732,0.000240482,-1.088381074,0.599810160
1.440000,0.637734208,0.000130631,0.000241772,-1.089602103,0.599805327
1.442500,0.638767201,0.000131333,0.000242768,-1.090604453,0.599464621
1.445000,0.639715470,0.000131996,0.000243702,-1.091535546,0.599456175
1.447500,0.640390669,0.000132503,0.000244454,-1.092196468,0.600000000
1.450000,0.641084804,0.000133036,0.000245205,-1.092880926,0.599879516
1.452500,0.641575850,0.000133454,0.000245818,-1.093363394,0.599444442
1.455000,0.641792875,0.000133643,0.000246105,-1.093574480,0.599848107
1.457500,0.641903202,0.000133772,0.000246321,-1.093682868,0.600000000
1.460000,0.641903202,0.000133772,0.000246321,-1.093682868,0.600000000
1.462500,0.641903202,0.000133772,0.000246321,-1.093682868,0.600000000
1.465000,0.641635382,0.000133721,0.000246266,-1.093439897,0.599359335
1.467500,0.641198488,0.000133569,0.000246100,-1.093023163,0.599520001
1.470000,0.640590733,0.000133320,0.000245817,-1.092436420,0.599611917
1.472500,0.639829138,0.000132987,0.000245427,-1.091698199,0.599642030
1.475000,0.638918832,0.000132575,0.000244932,-1.090814410,0.599612569
1.477500,0.637861677,0.000132084,0.000244332,-1.089787207,0.599524387
1.480000,0.636658682,0.000131515,0.000243629,-1.088617674,0.599377950
1.482500,0.634895212,0.000130690,0.000242657,-1.086866500,0.599312626
1.485000,0.633663882,0.000130110,0.000241919,-1.085682459,0.599148660
1.487500,0.631627783,0.000129139,0.000240734,-1.083672224,0.598963637
1.490000,0.629732368,0.000128242,0.000239626,-1.081812242,0.598823103
1.492500,0.627719929,0.000127284,0.000238423,-1.079842805,0.598627362
1.495000,0.625571115,0.000126251,0.000237111,-1.077740761,0.598368443
1.497500,0.623285532,0.000125146,0.000235692,-1.075505118,0.598046320
1.500000,0.620864407,0.000123969,0.000234165,-1.073137014,0.597661658
1.502500,0.618309190,0.000122721,0.000232531,-1.070637879,0.597215190
1.505000,0.615621439,0.000121406,0.000230792,-1.068009269,0.596707657
1.507500,0.612802804,0.000120023,0.000228948,-1.065252851,0.596139807
1.510000,0.609855036,0.000118576,0.000227001,-1.062370408,0.595512392
1.512500,0.606779973,0.000117067,0.000224952,-1.059363834,0.594826174
1.515000,0.603579552,0.000115497,0.000222803,-1.056235142,0.594081922
1.517500,0.600255797,0.000113869,0.000220554,-1.052986460,0.593280412
1.520000,0.596810828,0.000112185,0.000218208,-1.049620037,0.592422435
1.522500,0.593246853,0.000110448,0.000215767,-1.046138244,0.591508789
1.525000,0.589566170,0.000108660,0.000213232,-1.042543573,0.590540290
1.527500,0.585771167,0.000106823,0.000210605,-1.038838641,0.589517764
1.530000,0.581864319,0.000104941,0.000207887,-1.035026194,0.588442056
1.532500,0.577848191,0.000103016,0.000205082,-1.031109105,0.587314029
1.535000,0.573725432,0.000101050,0.000202192,-1.027090378,0.586134565
1.537500,0.569498778,0.000099046,0.000199218,-1.022973149,0.584904569
1.540000,0.565171049,0.000097008,0.000196163,-1.018760690,0.583624968
1.542500,0.560745151,0.000094937,0.000193030,-1.014456409,0.582296716
1.545000,0.556224073,0.000092838,0.000189821,-1.010063850,0.580920798
1.547500,0.551610885,0.000090712,0.000186538,-1.005586702,0.579498226
1.550000,0.546908741,0.000088562,0.000183185,-1.001028791,0.578030047
1.552500,0.542120875,0.000086391,0.000179764,-0.996394091,0.576517347
1.555000,0.537250601,0.000084203,0.000176278,-0.991686720,0.574961247
1.557500,0.532301313,0.000082000,0.000172730,-0.986910942,0.573362914
1.560000,0.527276482,0.000079785,0.000169123,-0.982071173,0.571723558
1.562500,0.522179660,0.000077560,0.000165459,-0.977171976,0.570044438
1.565000,0.517014473,0.000075328,0.000161743,-0.972218069,0.568326867
1.567500,0.511784623,0.000073093,0.000157977,-0.967214321,0.566572212
1.570000,0.506493889,0.000070856,0.000154165,-0.962165756,0.564781900
1.572500,0.501146123,0.000068621,0.000150309,-0.957077553,0.562957421
1.575000,0.495361628,0.000066149,0.000146027,-0.951512138,0.561140854
1.577500,0.490225120,0.000064068,0.000142299,-0.946716437,0.559394404
1.580000,0.484369762,0.000061630,0.000137960,-0.941132056,0.557516539
1.582500,0.478784160,0.000059344,0.000133794,-0.935880320,0.555747809
1.585000,0.473171704,0.000057080,0.000129611,-0.930630539,0.553948339
1.587500,0.467528983,0.000054836,0.000125411,-0.925377947,0.552116171
1.590000,0.461860103,0.000052613,0.000121197,-0.920128480,0.550253492
1.592500,0.456169440,0.000050414,0.000116973,-0.914888562,0.548362697
1.595000,0.450461441,0.000048242,0.000112742,-0.909664790,0.546446275
1.597500,0.444740617,0.000046097,0.000108509,-0.904463914,0.544506806
1.600000,0.439011544,0.000043981,0.000104277,-0.899292843,0.542546974
1.602500,0.433278856,0.000041896,0.000100050,-0.894158639,0.540569565
1.605000,0.427547248,0.000039844,0.000095832,-0.889068519,0.538577476
1.607500,0.421821473,0.000037826,0.000091627,-0.884029848,0.536573715
1.610000,0.416106340,0.000035843,0.000087437,-0.879050142,0.534561410
1.612500,0.410406711,0.000033897,0.000083268,-0.874137063,0.532543809
1.615000,0.404727502,0.000031988,0.000079123,-0.869298423,0.530524285
1.617500,0.399073684,0.000030118,0.000075005,-0.864542177,0.528506343
1.620000,0.393450275,0.000028287,0.000070918,-0.859876426,0.526493616
1.622500,0.387862350,0.000026496,0.000066866,-0.855309423,0.524489876
1.625000,0.382315036,0.000024746,0.000062853,-0.850849567,0.522499032
1.627500,0.376813515,0.000023037,0.000058883,-0.846505418,0.520525137
1.630000,0.371363030,0.000021371,0.000054958,-0.842285700,0.518572391
1.632500,0.365968890,0.000019746,0.000051084,-0.838199316,0.516645146
1.635000,0.360636479,0.000018164,0.000047262,-0.834255367,0.514747913
1.637500,0.355371269,0.000016625,0.000043498,-0.830463182,0.512885371
1.640000,0.350178842,0.000015130,0.000039794,-0.826832354,0.511062382
1.642500,0.345064914,0.000013677,0.000036156,-0.823372799,0.509284005
1.645000,0.340035373,0.000012268,0.000032585,-0.820094830,0.507555526
1.647500,0.335096337,0.000010902,0.000029087,-0.817009278,0.505882500
1.650000,0.330254239,0.000009579,0.000025665,-0.814127660,0.504270804
1.652500,0.325515944,0.000008301,0.000022324,-0.811462431,0.502726742
1.655000,0.320888957,0.000007066,0.000019069,-0.809027400,0.501257190
1.657500,0.316381754,0.000005876,0.000015904,-0.806838413,0.499869867
1.660000,0.312004409,0.000004731,0.000012837,-0.804914639,0.498573837
1.662500,0.307769938,0.000003632,0.000009874,-0.803281323,0.497380596
1.665000,0.303698145,0.000002583,0.000007030,-0.801977651,0.496307220
1.667500,0.299824441,0.000001590,0.000004325,-0.801074820,0.495383598
1.670000,0.295999624,0.000000616,0.000001664,-0.800267498,0.494488332
1.672500,0.292150804,-0.000000357,-0.000001001,-0.799404989,0.493561683
1.675000,0.288276671,-0.000001329,-0.000003670,-0.798482183,0.492602205
1.677500,0.284378514,-0.000002300,-0.000006343,-0.797499148,0.491610513
1.680000,0.280457756,-0.000003268,-0.000009019,-0.796456217,0.490587299
1.682500,0.276515862,-0.000004235,-0.000011698,-0.795353818,0.489533264
1.685000,0.272554335,-0.000005198,-0.000014379,-0.794192461,0.488449116
1.687500,0.268574718,-0.000006158,-0.000017060,-0.792972743,0.487335569
1.690000,0.264578590,-0.000007114,-0.000019742,-0.791695344,0.486193349
1.692500,0.260567567,-0.000008065,-0.000022423,-0.790361031,0.485023189
1.695000,0.256543299,-0.000009011,-0.000025102,-0.788970652,0.483825831
1.697500,0.252507471,-0.000009952,-0.000027779,-0.787525139,0.482602028
1.700000,0.248461801,-0.000010886,-0.000030453,-0.786025504,0.481352546
1.702500,0.244408038,-0.000011814,-0.000033122,-0.784472842,0.480078162
1.705000,0.240347962,-0.000012734,-0.000035786,-0.782868330,0.478779665
1.707500,0.236283385,-0.000013646,-0.000038443,-0.781213222,0.477457859
1.710000,0.232216145,-0.000014550,-0.000041093,-0.779508852,0.476113563
1.712500,0.228148108,-0.000015445,-0.000043735,-0.777756631,0.474747609
1.715000,0.224081168,-0.000016331,-0.000046367,-0.775958046,0.473360847
1.717500,0.220017242,-0.000017207,-0.000048990,-0.774114662,0.471954143
1.720000,0.215958273,-0.000018072,-0.000051600,-0.772228114,0.470528382
1.722500,0.211906225,-0.000018926,-0.000054198,-0.770300112,0.469084467
1.725000,0.207863084,-0.000019769,-0.000056782,-0.768332437,0.467623320
1.727500,0.203830857,-0.000020601,-0.000059352,-0.766326939,0.466145883
1.730000,0.199811570,-0.000021420,-0.000061906,-0.764285537,0.464653120
1.732500,0.195807264,-0.000022226,-0.000064443,-0.762210215,0.463146016
1.735000,0.191819999,-0.000023020,-0.000066961,-0.760103022,0.461625579
1.737500,0.187851850,-0.000023800,-0.000069461,-0.757966070,0.460092839
1.740000,0.183904902,-0.000024566,-0.000071940,-0.755801532,0.458548851
1.742500,0.179981256,-0.000025319,-0.000074398,-0.753611638,0.456994696
1.745000,0.176083022,-0.000026057,-0.000076833,-0.751398674,0.455431477
1.747500,0.172212317,-0.000026780,-0.000079244,-0.749164982,0.453860326
1.750000,0.168371268,-0.000027489,-0.000081631,-0.746912953,0.452282398
1.752500,0.164562007,-0.000028182,-0.000083992,-0.744645030,0.450698877
1.755000,0.160786669,-0.000028860,-0.000086325,-0.742363698,0.449110973
1.757500,0.157047395,-0.000029522,-0.000088630,-0.740071490,0.447519925
1.760000,0.153346322,-0.000030169,-0.000090906,-0.737770976,0.445926996
1.762500,0.149685590,-0.000030799,-0.000093151,-0.735464765,0.444333480
1.765000,0.146067334,-0.000031414,-0.000095364,-0.733155500,0.442740696
1.767500,0.142493687,-0.000032012,-0.000097545,-0.730845855,0.441149991
1.770000,0.138966772,-0.000032594,-0.000099692,-0.728538533,0.439562741
1.772500,0.135488707,-0.000033160,-0.000101804,-0.726236259,0.437980346
1.775000,0.132061599,-0.000033710,-0.000103879,-0.723941781,0.436404233
1.777500,0.128687543,-0.000034243,-0.000105918,-0.721657861,0.434835854
1.780000,0.125368618,-0.000034759,-0.000107918,-0.719387277,0.433276687
1.782500,0.122106890,-0.000035259,-0.000109879,-0.717132814,0.431728231
1.785000,0.118904404,-0.000035743,-0.000111800,-0.714897262,0.430192010
1.787500,0.115763187,-0.000036210,-0.000113679,-0.712683413,0.428669567
1.790000,0.112685241,-0.000036661,-0.000115515,-0.710494055,0.427162466
1.792500,0.109672545,-0.000037096,-0.000117309,-0.708331966,0.425672286
1.795000,0.106727052,-0.000037515,-0.000119058,-0.706199915,0.424200625
1.797500,0.103850683,-0.000037918,-0.000120761,-0.704100652,0.422749092
1.800000,0.101045331,-0.000038305,-0.000122418,-0.702036907,0.421319308
1.802500,0.098312854,-0.000038676,-0.000124028,-0.700011381,0.419912905
1.805000,0.095655074,-0.000039032,-0.000125590,-0.698026747,0.418531517
1.807500,0.093073776,-0.000039372,-0.000127102,-0.696085641,0.417176786
1.810000,0.090731370,-0.000039677,-0.000128497,-0.694364955,0.415978337
1.812500,0.088146643,-0.000040014,-0.000130006,-0.692344562,0.414584322
1.815000,0.085950592,-0.000040293,-0.000131307,-0.690706669,0.413439393
1.817500,0.083695610,-0.000040580,-0.000132641,-0.688973317,0.412244203
1.820000,0.081510920,-0.000040855,-0.000133931,-0.687275732,0.411073289
1.822500,0.079410853,-0.000041116,-0.000135167,-0.685633727,0.409936968
1.825000,0.077398278,-0.000041362,-0.000136347,-0.684051834,0.408837821
1.827500,0.075474775,-0.000041594,-0.000137471,-0.682532546,0.407777464
1.830000,0.073641731,-0.000041812,-0.000138539,-0.681078029,0.406757368
1.832500,0.071900454,-0.000042016,-0.000139549,-0.679690340,0.405778959
1.835000,0.070252190,-0.000042207,-0.000140501,-0.678371442,0.404843626
1.837500,0.068698123,-0.000042384,-0.000141395,-0.677123211,0.403952714
1.840000,0.067239372,-0.000042547,-0.000142229,-0.675947426,0.403107527
1.842500,0.065876988,-0.000042697,-0.000143004,-0.674845770,0.402309318
1.845000,0.064611957,-0.000042835,-0.000143718,-0.673819822,0.401559291
1.847500,0.063445192,-0.000042959,-0.000144372,-0.672871056,0.400858591
1.850000,0.062377539,-0.000043071,-0.000144966,-0.672000839,0.400208306
1.852500,0.061409769,-0.000043170,-0.000145498,-0.671210423,0.399609460
1.855000,0.060542580,-0.000043257,-0.000145968,-0.670500947,0.399063011
1.857500,0.059776595,-0.000043331,-0.000146377,-0.669873432,0.398569846
1.860000,0.059112364,-0.000043394,-0.000146724,-0.669328780,0.398130782
1.862500,0.058550357,-0.000043444,-0.000147008,-0.668867769,0.397746557
1.865000,0.058193838,-0.000043476,-0.000147198,-0.668591205,0.397520403
1.867500,0.057839575,-0.000043510,-0.000147387,-0.668305959,0.397292112
1.870000,0.057557229,-0.000043535,-0.000147531,-0.668070543,0.397098910
1.872500,0.057368424,-0.000043551,-0.000147617,-0.667907735,0.396954020
1.875000,0.057368424,-0.000043551,-0.000147617,-0.667907735,0.396954020
1.877500,0.057368424,-0.000043551,-0.000147617,-0.667907735,0.396954020
1.880000,0.057368424,-0.000043551,-0.000147617,-0.667907735,0.396954020
1.882500,0.057603761,-0.000043519,-0.000147441,-0.668064987,0.397024386
1.885000,0.057932090,-0.000043475,-0.000147208,-0.668320343,0.397152148
1.887500,0.058361304,-0.000043418,-0.000146914,-0.668664710,0.397336397
1.890000,0.058892939,-0.000043350,-0.000146557,-0.669095019,0.397576573
1.892500,0.059526983,-0.000043269,-0.000146138,-0.669609847,0.397872246
1.895000,0.060263021,-0.000043175,-0.000145657,-0.670208172,0.398222995
1.897500,0.061100491,-0.000043070,-0.000145114,-0.670889009,0.398628355
1.900000,0.062330296,-0.000042904,-0.000144309,-0.671949131,0.399230509
1.902500,0.063172874,-0.000042800,-0.000143765,-0.672609940,0.399634323
1.905000,0.064581582,-0.000042613,-0.000142853,-0.673795188,0.400331105
1.907500,0.065878527,-0.000042443,-0.000142014,-0.674865267,0.400966194
1.910000,0.067251221,-0.000042263,-0.000141130,-0.675983257,0.401640658
1.912500,0.068717051,-0.000042071,-0.000140192,-0.677170694,0.402365816
1.915000,0.070276898,-0.000041867,-0.000139198,-0.678428911,0.403142150
1.917500,0.071929837,-0.000041650,-0.000138150,-0.679756483,0.403968758
1.920000,0.073674683,-0.000041421,-0.000137049,-0.681151554,0.404844517
1.922500,0.075510170,-0.000041178,-0.000135894,-0.682612144,0.405768224
1.925000,0.077434970,-0.000040922,-0.000134687,-0.684136181,0.406738620
1.927500,0.079447702,-0.000040653,-0.000133429,-0.685721521,0.407754394
1.930000,0.081546930,-0.000040371,-0.000132121,-0.687365945,0.408814187
1.932500,0.083731170,-0.000040074,-0.000130763,-0.689067165,0.409916597
1.935000,0.085998887,-0.000039765,-0.000129356,-0.690822832,0.411060182
1.937500,0.088348499,-0.000039441,-0.000127902,-0.692630540,0.412243464
1.940000,0.090778381,-0.000039104,-0.000126400,-0.694487824,0.413464934
1.942500,0.093286865,-0.000038752,-0.000124854,-0.696392176,0.414723052
1.945000,0.095872242,-0.000038386,-0.000123262,-0.698341038,0.416016256
1.947500,0.098532765,-0.000038006,-0.000121626,-0.700331816,0.417342960
1.950000,0.101266652,-0.000037612,-0.000119948,-0.702361878,0.418701564
1.952500,0.104072085,-0.000037203,-0.000118228,-0.704428563,0.420090451
1.955000,0.106947215,-0.000036780,-0.000116468,-0.706529181,0.421507995
1.957500,0.109890163,-0.000036342,-0.000114668,-0.708661023,0.422952563
1.960000,0.112899021,-0.000035889,-0.000112829,-0.710821362,0.424422518
1.962500,0.115971857,-0.000035422,-0.000110953,-0.713007455,0.425916222
1.965000,0.119106713,-0.000034940,-0.000109041,-0.715216553,0.427432039
1.967500,0.122301609,-0.000034444,-0.000107094,-0.717445899,0.428968338
1.970000,0.125554547,-0.000033933,-0.000105112,-0.719692739,0.430523495
1.972500,0.128863507,-0.000033407,-0.000103098,-0.721954318,0.432095899
1.975000,0.132226455,-0.000032867,-0.000101052,-0.724227889,0.433683948
1.977500,0.135641342,-0.000032312,-0.000098975,-0.726510716,0.435286057
1.980000,0.139106105,-0.000031743,-0.000096869,-0.728800077,0.436900659
1.982500,0.142618671,-0.000031160,-0.000094734,-0.731093267,0.438526202
1.985000,0.146176956,-0.000030562,-0.000092572,-0.733387601,0.440161160
1.987500,0.149778869,-0.000029951,-0.000090384,-0.735680420,0.441804027
1.990000,0.153422312,-0.000029326,-0.000088171,-0.737969091,0.443453320
1.992500,0.157105183,-0.000028687,-0.000085935,-0.740251012,0.445107584
1.995000,0.160825377,-0.000028034,-0.000083675,-0.742523612,0.446765390
1.997500,0.164580785,-0.000027369,-0.000081395,-0.744784360,0.448425337
2.000000,0.168369300,-0.000026690,-0.000079093,-0.747030760,0.450086053
2.002500,0.172431819,-0.000025953,-0.000076659,-0.749474825,0.451908575
2.005000,0.176052024,-0.000025301,-0.000074459,-0.751488180,0.453452122
2.007500,0.180150471,-0.000024544,-0.000072001,-0.753861619,0.455253647
2.010000,0.183819810,-0.000023869,-0.000069769,-0.755832140,0.456789190
2.012500,0.187967300,-0.000023088,-0.000067279,-0.758151868,0.458577644
2.015000,0.191910111,-0.000022348,-0.000064912,-0.760258907,0.460249053
2.017500,0.195865479,-0.000021598,-0.000062535,-0.762327827,0.461907004
2.020000,0.199837303,-0.000020838,-0.000060146,-0.764364139,0.463554099
2.022500,0.203823717,-0.000020068,-0.000057745,-0.766366096,0.465189423
2.025000,0.207822684,-0.000019287,-0.000055334,-0.768331723,0.466811968
2.027500,0.211832179,-0.000018498,-0.000052913,-0.770259093,0.468420758
2.030000,0.215850188,-0.000017699,-0.000050485,-0.772146345,0.470014850
2.032500,0.219874715,-0.000016892,-0.000048049,-0.773991680,0.471593338
2.035000,0.223903784,-0.000016077,-0.000045607,-0.775793367,0.473155352
2.037500,0.227935433,-0.000015255,-0.000043160,-0.777549740,0.474700054
2.040000,0.231967724,-0.000014425,-0.000040709,-0.779259205,0.476226645
2.042500,0.235998737,-0.000013590,-0.000038256,-0.780920234,0.477734357
2.045000,0.240026576,-0.000012748,-0.000035800,-0.782531373,0.479222459
2.047500,0.244049366,-0.000011901,-0.000033344,-0.784091238,0.480690251
2.050000,0.248065258,-0.000011049,-0.000030888,-0.785598518,0.482137070
2.052500,0.252072428,-0.000010193,-0.000028433,-0.787051976,0.483562284
2.055000,0.256069077,-0.000009333,-0.000025980,-0.788450449,0.484965294
2.057500,0.260053434,-0.000008470,-0.000023531,-0.789792850,0.486345533
2.060000,0.264023756,-0.000007604,-0.000021086,-0.791078168,0.487702467
2.062500,0.267978328,-0.000006737,-0.000018646,-0.792305466,0.489035592
2.065000,0.271915468,-0.000005868,-0.000016213,-0.793473888,0.490344437
2.067500,0.275833523,-0.000004998,-0.000013786,-0.794582653,0.491628559
2.070000,0.279730871,-0.000004128,-0.000011368,-0.795631057,0.492887548
2.072500,0.283605924,-0.000003259,-0.000008959,-0.796618477,0.494121020
2.075000,0.287457129,-0.000002391,-0.000006560,-0.797544366,0.495328624
2.077500,0.291282964,-0.000001524,-0.000004172,-0.798408258,0.496510034
2.080000,0.295081947,-0.000000660,-0.000001795,-0.799209763,0.497664954
2.082500,0.298852627,0.000000201,0.000000568,-0.799948573,0.498793118
2.085000,0.302662414,0.000001075,0.000002962,-0.800764671,0.499950941
2.087500,0.306664135,0.000001999,0.000005486,-0.801970988,0.501264663
2.090000,0.310828530,0.000002967,0.000008120,-0.803508578,0.502709784
2.092500,0.315135148,0.000003978,0.000010851,-0.805337021,0.504269104
2.095000,0.319570556,0.000005028,0.000013671,-0.807430298,0.505931147
2.097500,0.324124476,0.000006118,0.000016574,-0.809768878,0.507686975
2.100000,0.328788315,0.000007246,0.000019555,-0.812336724,0.509528996
2.102500,0.333554508,0.000008413,0.000022608,-0.815119931,0.511450425
2.105000,0.338416159,0.000009618,0.000025729,-0.818106005,0.513445004
2.107500,0.343366836,0.000010860,0.000028916,-0.821283433,0.515506847
2.110000,0.348400437,0.000012140,0.000032164,-0.824641417,0.517630336
2.112500,0.353511108,0.000013458,0.000035469,-0.828169700,0.519810072
2.115000,0.358693180,0.000014812,0.000038829,-0.831858442,0.522040826
2.117500,0.363941131,0.000016205,0.000042240,-0.835698140,0.524317525
2.120000,0.369249558,0.000017634,0.000045699,-0.839679568,0.526635230
2.122500,0.374613150,0.000019100,0.000049203,-0.843793736,0.528989134
2.125000,0.380026683,0.000020603,0.000052749,-0.848031858,0.531374552
2.127500,0.385484998,0.000022142,0.000056334,-0.852385331,0.533786925
2.130000,0.390983002,0.000023717,0.000059955,-0.856845718,0.536221814
2.132500,0.396515658,0.000025327,0.000063610,-0.861404741,0.538674909
2.135000,0.402077983,0.000026973,0.000067294,-0.866054270,0.541142022
2.137500,0.407665045,0.000028652,0.000071006,-0.870786319,0.543619097
2.140000,0.413271960,0.000030366,0.000074743,-0.875593043,0.546102206
2.142500,0.418893895,0.000032113,0.000078501,-0.880466738,0.548587557
2.145000,0.424526064,0.000033892,0.000082278,-0.885399835,0.551071490
2.147500,0.430163730,0.000035702,0.000086071,-0.890384905,0.553550484
2.150000,0.435802206,0.000037543,0.000089878,-0.895414660,0.556021151
2.152500,0.441436854,0.000039413,0.000093695,-0.900481949,0.558480246
2.155000,0.447063088,0.000041312,0.000097521,-0.905579763,0.560924659
2.157500,0.452676372,0.000043237,0.000101351,-0.910701234,0.563351418
2.160000,0.458272227,0.000045189,0.000105184,-0.915839636,0.565757689
2.162500,0.463846224,0.000047165,0.000109017,-0.920988389,0.568140775
2.165000,0.469393992,0.000049164,0.000112846,-0.926141057,0.570498112
2.167500,0.474911216,0.000051185,0.000116670,-0.931291348,0.572827270
2.170000,0.480393639,0.000053226,0.000120485,-0.936433118,0.575125949
2.172500,0.485837064,0.000055285,0.000124290,-0.941560369,0.577391978
2.175000,0.491237353,0.000057361,0.000128081,-0.946667252,0.579623311
2.177500,0.496590431,0.000059451,0.000131855,-0.951748062,0.581818025
2.180000,0.501892283,0.000061554,0.000135610,-0.956797244,0.583974316
2.182500,0.507138962,0.000063668,0.000139343,-0.961809391,0.586090497
2.185000,0.512326584,0.000065791,0.000143052,-0.966779240,0.588164991
2.187500,0.517451329,0.000067921,0.000146734,-0.971701678,0.590196333
2.190000,0.522509448,0.000070055,0.000150386,-0.976571735,0.592183161
2.192500,0.527497258,0.000072192,0.000154006,-0.981384589,0.594124215
2.195000,0.532411147,0.000074328,0.000157590,-0.986135561,0.596018333
2.197500,0.537247571,0.000076463,0.000161137,-0.990820116,0.597864446
2.200000,0.542003061,0.000078592,0.000164644,-0.995433860,0.599661575
2.202500,0.547005070,0.000080881,0.000168318,-1.000345024,0.599598311
2.205000,0.551924800,0.000083170,0.000171949,-1.005185808,0.599618281
2.207500,0.556740841,0.000085445,0.000175525,-1.009926334,0.599637938
2.210000,0.561450558,0.000087703,0.000179043,-1.014563508,0.599656549
2.212500,0.566050965,0.000089942,0.000182502,-1.019093979,0.599674076
2.215000,0.570539131,0.000092159,0.000185898,-1.023514502,0.599690534
2.217500,0.574912210,0.000094349,0.000189229,-1.027821965,0.599705942
2.220000,0.579167439,0.000096512,0.000192492,-1.032013390,0.599720318
2.222500,0.583302142,0.000098643,0.000195686,-1.036085927,0.599733679
2.225000,0.587313730,0.000100740,0.000198807,-1.040036853,0.599746041
2.227500,0.591199699,0.000102800,0.000201853,-1.043863569,0.599757420
2.230000,0.594957630,0.000104820,0.000204822,-1.047563597,0.599767830
2.232500,0.598585192,0.000106796,0.000207712,-1.051134574,0.599777285
2.235000,0.602080142,0.000108727,0.000210520,-1.054574257,0.599785798
2.237500,0.605440321,0.000110609,0.000213244,-1.057880511,0.599793381
2.240000,0.608663662,0.000112439,0.000215882,-1.061051312,0.599800046
2.242500,0.611748183,0.000114215,0.000218431,-1.064084747,0.599805804
2.245000,0.614691994,0.000115933,0.000220889,-1.066979004,0.599810664
2.247500,0.617493291,0.000117592,0.000223254,-1.069732377,0.599814636
2.250000,0.620150363,0.000119188,0.000225524,-1.072343261,0.599817728
2.252500,0.622661587,0.000120719,0.000227697,-1.074810149,0.599819948
2.255000,0.625025433,0.000122182,0.000229771,-1.077131633,0.599821303
2.257500,0.627240462,0.000123575,0.000231744,-1.079306401,0.599821800
2.260000,0.629305326,0.000124896,0.000233614,-1.081333233,0.599821444
2.262500,0.631218770,0.000126143,0.000235378,-1.083211004,0.599820240
2.265000,0.632979635,0.000127312,0.000237037,-1.084938679,0.599818194
2.267500,0.634586851,0.000128403,0.000238587,-1.086515314,0.599815308
2.270000,0.636039445,0.000129413,0.000240027,-1.087940052,0.599811586
2.272500,0.637336537,0.000130341,0.000241355,-1.089212125,0.599807030
2.275000,0.638477345,0.000131184,0.000242570,-1.090330851,0.599801643
2.277500,0.639412473,0.000131834,0.000243496,-1.091238181,0.599460861
2.280000,0.640256267,0.000132441,0.000244354,-1.092067032,0.599451905
2.282500,0.640831139,0.000132892,0.000245034,-1.092629872,0.600000000
2.285000,0.641416670,0.000133365,0.000245707,-1.093207802,0.599856749
2.287500,0.641636532,0.000133550,0.000245999,-1.093418001,0.600000000
2.290000,0.641931694,0.000133791,0.000246332,-1.093709235,0.599463485
2.292500,0.641995822,0.000133901,0.000246511,-1.093778114,0.599811896
2.295000,0.641995822,0.000133901,0.000246511,-1.093778114,0.599811896
2.297500,0.641995822,0.000133901,0.000246511,-1.093778114,0.599811896
2.300000,0.641384673,0.000133660,0.000246225,-1.093204555,0.599904884
2.302500,0.640764501,0.000133403,0.000245935,-1.092603622,0.599987349
2.305000,0.640035353,0.000133087,0.000245568,-1.091894917,0.600000000
2.307500,0.639236852,0.000132740,0.000245146,-1.091121376,0.599254513
2.310000,0.638275790,0.000132305,0.000244610,-1.090190812,0.599209249
2.312500,0.637134015,0.000131771,0.000243949,-1.089083020,0.599092283
2.315000,0.635435587,0.000130981,0.000243023,-1.087397855,0.599063329
2.317500,0.634241998,0.000130421,0.000242312,-1.086250204,0.598919189
2.320000,0.632261934,0.000129479,0.000241168,-1.084295454,0.598766336
2.322500,0.630412961,0.000128607,0.000240095,-1.082481056,0.598653837
2.325000,0.628445876,0.000127672,0.000238926,-1.080555968,0.598485425
2.327500,0.626341979,0.000126663,0.000237649,-1.078497827,0.598253431
2.330000,0.624100898,0.000125580,0.000236263,-1.076305681,0.597957857
2.332500,0.621723832,0.000124425,0.000234770,-1.073980639,0.597599373
2.335000,0.619212199,0.000123199,0.000233169,-1.071524094,0.597178712
2.337500,0.616567524,0.000121905,0.000231463,-1.068937564,0.596696618
2.340000,0.613791427,0.000120543,0.000229652,-1.066222681,0.596153837
2.342500,0.610885623,0.000119116,0.000227738,-1.063381186,0.595551123
2.345000,0.607851923,0.000117625,0.000225721,-1.060414936,0.594889237
2.347500,0.604692229,0.000116074,0.000223603,-1.057325905,0.594168947
2.350000,0.601408536,0.000114464,0.000221386,-1.054116180,0.593391030
2.352500,0.598002932,0.000112797,0.000219070,-1.050787971,0.592556273
2.355000,0.594477595,0.000111076,0.000216659,-1.047343606,0.591665475
2.357500,0.590834792,0.000109303,0.000214153,-1.043785535,0.590719447
2.360000,0.587076882,0.000107481,0.000211555,-1.040116335,0.589719013
2.362500,0.583206310,0.000105612,0.000208866,-1.036338707,0.588665015
2.365000,0.579225610,0.000103700,0.000206088,-1.032455481,0.587558311
2.367500,0.575137403,0.000101746,0.000203225,-1.028469616,0.586399778
2.370000,0.570944396,0.000099754,0.000200277,-1.024384205,0.585190315
2.372500,0.566649382,0.000097725,0.000197247,-1.020202474,0.583930844
2.375000,0.562255236,0.000095664,0.000194138,-1.015927782,0.582622311
2.377500,0.557764920,0.000093573,0.000190953,-1.011563631,0.581265693
2.380000,0.553181476,0.000091454,0.000187693,-1.007113658,0.579861992
2.382500,0.548508031,0.000089311,0.000184362,-1.002581645,0.578412249
2.385000,0.543747791,0.000087146,0.000180962,-0.997971514,0.576917534
2.387500,0.538904043,0.000084962,0.000177496,-0.993287336,0.575378960
2.390000,0.533980154,0.000082763,0.000173967,-0.988533325,0.573797680
2.392500,0.528979571,0.000080550,0.000170378,-0.983713846,0.572174890
2.395000,0.523905817,0.000078327,0.000166731,-0.978833413,0.570511834
2.397500,0.518762493,0.000076097,0.000163031,-0.973896692,0.568809809
2.400000,0.513553276,0.000073862,0.000159281,-0.968908500,0.567070164
2.402500,0.508281920,0.000071624,0.000155482,-0.963873809,0.565294307
2.405000,0.502952251,0.000069388,0.000151639,-0.958797748,0.563483708
2.407500,0.497185601,0.000066913,0.000147370,-0.953243867,0.561682836
2.410000,0.492063393,0.000064829,0.000143652,-0.948455472,0.559948214
2.412500,0.486222905,0.000062387,0.000139324,-0.942878459,0.558084538
2.415000,0.481020429,0.000060324,0.000135550,-0.938054643,0.556290986
2.417500,0.475095829,0.000057910,0.000131163,-0.932441529,0.554357884
2.420000,0.469452856,0.000055651,0.000126957,-0.927175636,0.552540590
2.422500,0.463790378,0.000053417,0.000122741,-0.921922310,0.550696106
2.425000,0.458104929,0.000051207,0.000118514,-0.916676791,0.548822487
2.427500,0.452400719,0.000049022,0.000114280,-0.911445267,0.546922072
2.430000,0.446682229,0.000046865,0.000110042,-0.906234425,0.544997418
2.432500,0.440954012,0.000044736,0.000105804,-0.901051121,0.543051187
2.435000,0.435220681,0.000042638,0.000101570,-0.895902363,0.541086140
2.437500,0.429486908,0.000040573,0.000097344,-0.890795315,0.539105148
2.440000,0.423757427,0.000038541,0.000093129,-0.885737292,0.537111193
2.442500,0.418037025,0.000036544,0.000088930,-0.880735757,0.535107371
2.445000,0.412330545,0.000034583,0.000084749,-0.875798324,0.533096901
2.447500,0.406642885,0.000032659,0.000080591,-0.870932753,0.531083123
2.450000,0.400978994,0.000030774,0.000076460,-0.866146949,0.529069506
2.452500,0.395343875,0.000028928,0.000072359,-0.861448965,0.527059650
2.455000,0.389742582,0.000027121,0.000068292,-0.856847000,0.525057288
2.457500,0.384180222,0.000025356,0.000064262,-0.852349404,0.523066292
2.460000,0.378661959,0.000023632,0.000060273,-0.847964681,0.521090674
2.462500,0.373193011,0.000021950,0.000056330,-0.843701498,0.519134593
2.465000,0.367778665,0.000020310,0.000052435,-0.839568695,0.517202356
2.467500,0.362424278,0.000018712,0.000048593,-0.835575305,0.515298429
2.470000,0.357135288,0.000017158,0.000044806,-0.831730574,0.513427440
2.472500,0.351917238,0.000015646,0.000041079,-0.828044003,0.511594194
2.475000,0.346775794,0.000014178,0.000037416,-0.824525389,0.509803690
2.477500,0.341716780,0.000012753,0.000033820,-0.821184904,0.508061142
2.480000,0.336746230,0.000011372,0.000030295,-0.818033190,0.506372013
2.482500,0.331870459,0.000010034,0.000026845,-0.815081509,0.504742073
2.485000,0.327096169,0.000008740,0.000023475,-0.812341968,0.503177474
2.487500,0.322430623,0.000007489,0.000020188,-0.809827864,0.501684885
2.490000,0.317881921,0.000006283,0.000016991,-0.807554260,0.500271709
2.492500,0.313459506,0.000005122,0.000013888,-0.805539014,0.498946487
2.495000,0.309175178,0.000004007,0.000010888,-0.803804867,0.497719718
2.497500,0.305045679,0.000002940,0.000008000,-0.802384724,0.496605970
2.500000,0.301104776,0.000001928,0.000005247,-0.801346347,0.495633771
2.502500,0.297285998,0.000000952,0.000002584,-0.800553279,0.494749590
2.505000,0.293445431,-0.000000021,-0.000000080,-0.799710256,0.493835829
2.507500,0.289579211,-0.000000994,-0.000002749,-0.798807078,0.492889005
2.510000,0.285688522,-0.000001966,-0.000005423,-0.797843605,0.491909662
2.512500,0.281774769,-0.000002936,-0.000008099,-0.796820135,0.490898491
2.515000,0.277839403,-0.000003903,-0.000010779,-0.795737066,0.489856194
2.517500,0.273883914,-0.000004868,-0.000013460,-0.794594878,0.488783479
2.520000,0.269909833,-0.000005830,-0.000016143,-0.793394140,0.487681063
2.522500,0.265918724,-0.000006788,-0.000018825,-0.792135504,0.486549669
2.525000,0.261912191,-0.000007741,-0.000021508,-0.790819706,0.485390029
2.527500,0.257891873,-0.000008689,-0.000024189,-0.789447566,0.484202886
2.530000,0.253859441,-0.000009632,-0.000026868,-0.788019987,0.482988992
2.532500,0.249816603,-0.000010569,-0.000029543,-0.786537955,0.481749110
2.535000,0.245765097,-0.000011499,-0.000032215,-0.785002537,0.480484015
2.537500,0.241706693,-0.000012422,-0.000034881,-0.783414882,0.479194494
2.540000,0.237643190,-0.000013337,-0.000037542,-0.781776216,0.477881350
2.542500,0.233576419,-0.000014244,-0.000040195,-0.780087848,0.476545396
2.545000,0.229508235,-0.000015143,-0.000042841,-0.778351161,0.475187463
2.547500,0.225440523,-0.000016032,-0.000045477,-0.776567619,0.473808397
2.550000,0.221375192,-0.000016911,-0.000048103,-0.774738757,0.472409060
2.552500,0.217314176,-0.000017780,-0.000050718,-0.772866189,0.470990331
2.555000,0.213259432,-0.000018639,-0.000053321,-0.770951600,0.469553110
2.557500,0.209212939,-0.000019486,-0.000055911,-0.768996745,0.468098314
2.560000,0.205176696,-0.000020321,-0.000058486,-0.767003452,0.466626879
2.562500,0.201152721,-0.000021145,-0.000061046,-0.764973617,0.465139762
2.565000,0.197143053,-0.000021956,-0.000063589,-0.762909201,0.463637944
2.567500,0.193149744,-0.000022754,-0.000066114,-0.760812232,0.462122426
2.570000,0.189174863,-0.000023538,-0.000068621,-0.758684802,0.460594232
2.572500,0.185220494,-0.000024310,-0.000071107,-0.756529061,0.459054410
2.575000,0.181288730,-0.000025067,-0.000073573,-0.754347221,0.457504033
2.577500,0.177381679,-0.000025810,-0.000076016,-0.752141550,0.455944197
2.580000,0.173501455,-0.000026538,-0.000078436,-0.749914371,0.454376026
2.582500,0.169650183,-0.000027252,-0.000080831,-0.747668059,0.452800668
2.585000,0.165829992,-0.000027950,-0.000083201,-0.745405038,0.451219299
2.587500,0.162043017,-0.000028633,-0.000085544,-0.743127781,0.449633121
2.590000,0.158291396,-0.000029301,-0.000087859,-0.740838804,0.448043363
2.592500,0.154577267,-0.000029953,-0.000090145,-0.738540665,0.446451282
2.595000,0.150902771,-0.000030589,-0.000092400,-0.736235960,0.444858162
2.597500,0.147270043,-0.000031209,-0.000094625,-0.733927321,0.443265315
2.600000,0.143681217,-0.000031813,-0.000096817,-0.731617413,0.441674080
2.602500,0.140138420,-0.000032401,-0.000098975,-0.729308927,0.440085822
2.605000,0.136643771,-0.000032972,-0.000101099,-0.727004583,0.438501935
2.607500,0.133199382,-0.000033527,-0.000103187,-0.724707121,0.436923837
2.610000,0.129807350,-0.000034065,-0.000105238,-0.722419298,0.435352974
2.612500,0.126469761,-0.000034588,-0.000107252,-0.720143887,0.433790814
2.615000,0.123188684,-0.000035093,-0.000109226,-0.717883672,0.432238852
2.617500,0.119966173,-0.000035582,-0.000111160,-0.715641440,0.430698602
2.620000,0.116804260,-0.000036055,-0.000113054,-0.713419984,0.429171604
2.622500,0.113704955,-0.000036512,-0.000114905,-0.711222093,0.427659412
2.625000,0.110670246,-0.000036952,-0.000116713,-0.709050550,0.426163604
2.627500,0.107702094,-0.000037377,-0.000118477,-0.706908125,0.424685771
2.630000,0.104802432,-0.000037785,-0.000120195,-0.704797577,0.423227520
2.632500,0.101973161,-0.000038177,-0.000121868,-0.702721641,0.421790467
2.635000,0.099216152,-0.000038553,-0.000123494,-0.700683030,0.420376242
2.637500,0.096533238,-0.000038914,-0.000125072,-0.698684426,0.418986480
2.640000,0.093926217,-0.000039260,-0.000126601,-0.696728478,0.417622819
2.642500,0.091559205,-0.000039570,-0.000128011,-0.694993636,0.416415328
2.645000,0.088946056,-0.000039912,-0.000129539,-0.692955328,0.415010538
2.647500,0.086724336,-0.000040195,-0.000130856,-0.691301703,0.413855587
2.650000,0.084441688,-0.000040487,-0.000132208,-0.689550541,0.412649156
2.652500,0.082228675,-0.000040767,-0.000133515,-0.687834184,0.411466415
2.655000,0.080099766,-0.000041033,-0.000134769,-0.686172611,0.410317761
2.657500,0.078057859,-0.000041284,-0.000135968,-0.684570392,0.409205788
2.660000,0.076104554,-0.000041521,-0.000137110,-0.683030047,0.408132119
2.662500,0.074241258,-0.000041743,-0.000138197,-0.681553769,0.407098238
2.665000,0.072469298,-0.000041952,-0.000139226,-0.680143643,0.406105581
2.667500,0.070789941,-0.000042147,-0.000140197,-0.678801661,0.405155548
2.670000,0.069204392,-0.000042328,-0.000141110,-0.677529729,0.404249500
2.672500,0.067713791,-0.000042496,-0.000141964,-0.676329659,0.403388754
2.675000,0.066319214,-0.000042650,-0.000142758,-0.675203167,0.402574580
2.677500,0.065021666,-0.000042792,-0.000143493,-0.674151865,0.401808200
2.680000,0.063822088,-0.000042920,-0.000144167,-0.673177265,0.401090778
2.682500,0.062721345,-0.000043036,-0.000144780,-0.672280769,0.400423420
2.685000,0.061720235,-0.000043140,-0.000145333,-0.671463667,0.399807173
2.687500,0.060819481,-0.000043231,-0.000145823,-0.670727137,0.399243017
2.690000,0.060019730,-0.000043309,-0.000146253,-0.670072239,0.398731862
2.692500,0.059321558,-0.000043376,-0.000146620,-0.669499916,0.398274549
2.695000,0.058725459,-0.000043430,-0.000146925,-0.669010986,0.397871843
2.697500,0.058342701,-0.000043465,-0.000147131,-0.668714149,0.397631976
2.700000,0.057956606,-0.000043502,-0.000147339,-0.668403561,0.397386818
2.702500,0.057640634,-0.000043532,-0.000147503,-0.668140783,0.397175565
2.705000,0.057417596,-0.000043551,-0.000147610,-0.667949804,0.397012143
2.707500,0.057294813,-0.000043558,-0.000147656,-0.667839762,0.396901626
2.710000,0.057294813,-0.000043558,-0.000147656,-0.667839762,0.396901626
2.712500,0.057294813,-0.000043558,-0.000147656,-0.667839762,0.396901626
2.715000,0.057514477,-0.000043528,-0.000147489,-0.667991015,0.396966065
2.717500,0.057814363,-0.000043487,-0.000147274,-0.668226105,0.397079884
2.720000,0.058211124,-0.000043434,-0.000147000,-0.668545011,0.397247411
2.722500,0.058709084,-0.000043369,-0.000146665,-0.668948096,0.397469942
2.725000,0.059309155,-0.000043292,-0.000146267,-0.669435227,0.397747715
2.727500,0.060011243,-0.000043203,-0.000145806,-0.670005878,0.398080564
2.730000,0.060814914,-0.000043102,-0.000145284,-0.670659267,0.398468128
2.732500,0.061719576,-0.000042988,-0.000144701,-0.671394441,0.398909931
2.735000,0.063036128,-0.000042811,-0.000143844,-0.672528153,0.399561425
2.737500,0.063930850,-0.000042700,-0.000143268,-0.673228739,0.399993028
2.740000,0.065419080,-0.000042504,-0.000142310,-0.674478508,0.400734232
2.742500,0.066781792,-0.000042325,-0.000141432,-0.675600290,0.401406035
2.745000,0.068218307,-0.000042137,-0.000140510,-0.676767304,0.402115743
2.747500,0.069747106,-0.000041937,-0.000139535,-0.678002424,0.402875370
2.750000,0.071369148,-0.000041724,-0.000138505,-0.679307099,0.403685440
2.752500,0.073083480,-0.000041499,-0.000137422,-0.680679867,0.404545023
2.755000,0.074888880,-0.000041260,-0.000136285,-0.682118819,0.405452957
2.757500,0.076784042,-0.000041009,-0.000135095,-0.683621918,0.406408002
2.760000,0.078767602,-0.000040744,-0.000133854,-0.685187044,0.407408865
2.762500,0.080838145,-0.000040466,-0.000132562,-0.686812001,0.408454202
2.765000,0.082994200,-0.000040175,-0.000131221,-0.688494526,0.409542626
2.767500,0.085234249,-0.000039870,-0.000129830,-0.690232288,0.410672708
2.770000,0.087556726,-0.000039551,-0.000128392,-0.692022900,0.411842982
2.772500,0.089960020,-0.000039218,-0.000126906,-0.693863917,0.413051947
2.775000,0.092442477,-0.000038871,-0.000125374,-0.695752843,0.414298075
2.777500,0.095002402,-0.000038510,-0.000123797,-0.697687137,0.415579809
2.780000,0.097638060,-0.000038134,-0.000122176,-0.699664217,0.416895573
2.782500,0.100347680,-0.000037745,-0.000120512,-0.701681462,0.418243770
2.785000,0.103129457,-0.000037341,-0.000118806,-0.703736220,0.419622789
2.787500,0.105981550,-0.000036922,-0.000117059,-0.705825812,0.421031006
2.790000,0.108902092,-0.000036489,-0.000115272,-0.707947534,0.422466791
2.792500,0.111889183,-0.000036042,-0.000113446,-0.710098664,0.423928507
2.795000,0.114940899,-0.000035579,-0.000111582,-0.712276464,0.425414517
2.797500,0.118055290,-0.000035102,-0.000109682,-0.714478186,0.426923183
2.800000,0.121230385,-0.000034611,-0.000107746,-0.716701077,0.428452872
2.802500,0.124464189,-0.000034105,-0.000105776,-0.718942379,0.430001959
2.805000,0.127754692,-0.000033584,-0.000103773,-0.721199339,0.431568828
2.807500,0.131099862,-0.000033048,-0.000101737,-0.723469206,0.433151872
2.810000,0.134497657,-0.000032499,-0.000099670,-0.725749240,0.434749502
2.812500,0.137946016,-0.000031934,-0.000097574,-0.728036714,0.436360144
2.815000,0.141442871,-0.000031356,-0.000095449,-0.730328917,0.437982242
2.817500,0.144986141,-0.000030763,-0.000093296,-0.732623156,0.439614259
2.820000,0.148573737,-0.000030156,-0.000091116,-0.734916765,0.441254684
2.822500,0.152203563,-0.000029536,-0.000088912,-0.737207100,0.442902026
2.825000,0.155873519,-0.000028901,-0.000086683,-0.739491549,0.444554820
2.827500,0.159581499,-0.000028253,-0.000084431,-0.741767531,0.446211628
2.830000,0.163325396,-0.000027592,-0.000082157,-0.744032500,0.447871040
2.832500,0.167103104,-0.000026918,-0.000079863,-0.746283950,0.449531674
2.835000,0.170912515,-0.000026231,-0.000077548,-0.748519412,0.451192178
2.837500,0.174995243,-0.000025485,-0.000075102,-0.750949743,0.453013282
2.840000,0.178632825,-0.000024825,-0.000072891,-0.752949993,0.454555166
2.842500,0.182748504,-0.000024060,-0.000070422,-0.755306489,0.456353446
2.845000,0.186663288,-0.000023335,-0.000068075,-0.757450707,0.458035470
2.847500,0.190593367,-0.000022600,-0.000065716,-0.759559569,0.459705508
2.850000,0.194542651,-0.000021854,-0.000063343,-0.761638630,0.461366164
2.852500,0.198509261,-0.000021097,-0.000060957,-0.763686071,0.463016476
2.855000,0.202491143,-0.000020330,-0.000058559,-0.765699837,0.464655389
2.857500,0.206486255,-0.000019553,-0.000056151,-0.767677922,0.466281878
2.860000,0.210492562,-0.000018766,-0.000053733,-0.769618379,0.467894952
2.862500,0.214508048,-0.000017970,-0.000051306,-0.771519326,0.469493657
2.865000,0.218530713,-0.000017166,-0.000048872,-0.773378942,0.471077075
2.867500,0.222558571,-0.000016353,-0.000046432,-0.775195474,0.472644320
2.870000,0.226589657,-0.000015533,-0.000043986,-0.776967236,0.474194545
2.872500,0.230622025,-0.000014706,-0.000041536,-0.778692607,0.475726937
2.875000,0.234653749,-0.000013872,-0.000039083,-0.780370040,0.477240717
2.877500,0.238682925,-0.000013032,-0.000036627,-0.781998055,0.478735139
2.880000,0.242707671,-0.000012186,-0.000034171,-0.783575245,0.480209496
2.882500,0.246726130,-0.000011336,-0.000031714,-0.785100275,0.481663108
2.885000,0.250736469,-0.000010481,-0.000029258,-0.786571883,0.483095334
2.887500,0.254736881,-0.000009622,-0.000026805,-0.787988882,0.484505564
2.890000,0.258725585,-0.000008760,-0.000024354,-0.789350160,0.485893219
2.892500,0.262700830,-0.000007895,-0.000021907,-0.790654679,0.487257754
2.895000,0.266660891,-0.000007028,-0.000019465,-0.791901480,0.488598654
2.897500,0.270604075,-0.000006160,-0.000017029,-0.793089679,0.489915438
2.900000,0.274528719,-0.000005290,-0.000014600,-0.794218469,0.491207652
2.902500,0.278433191,-0.000004420,-0.000012179,-0.795287122,0.492474874
2.905000,0.282315892,-0.000003551,-0.000009766,-0.796294987,0.493716713
2.907500,0.286175256,-0.000002682,-0.000007363,-0.797241492,0.494932804
2.910000,0.290009753,-0.000001815,-0.000004971,-0.798126145,0.496122815
2.912500,0.293817886,-0.000000950,-0.000002591,-0.798948529,0.497286439
2.915000,0.297598194,-0.000000087,-0.000000223,-0.799708311,0.498423399
2.917500,0.301369014,0.000000777,0.000002145,-0.800445510,0.499549718
2.920000,0.305310075,0.000001684,0.000004628,-0.801528447,0.500814089
2.922500,0.309423111,0.000002638,0.000007227,-0.802961297,0.502217652
2.925000,0.313684071,0.000003635,0.000009927,-0.804696186,0.503740242
2.927500,0.318077833,0.000004672,0.000012718,-0.806703625,0.505369010
2.930000,0.322593295,0.000005749,0.000015595,-0.808962389,0.507094360
2.932500,0.327221401,0.000006865,0.000018550,-0.811455476,0.508908330
2.935000,0.331954295,0.000008019,0.000021579,-0.814168375,0.510803906
2.937500,0.336784884,0.000009211,0.000024678,-0.817088177,0.512774675
2.940000,0.341706600,0.000010441,0.000027844,-0.820203080,0.514814639
2.942500,0.346713243,0.000011708,0.000031072,-0.823502069,0.516918102
2.945000,0.351798882,0.000013013,0.000034358,-0.826974724,0.519079594
2.947500,0.356957793,0.000014356,0.000037701,-0.830611075,0.521293833
2.950000,0.362184408,0.000015736,0.000041095,-0.834401516,0.523555696
2.952500,0.367473288,0.000017153,0.000044538,-0.838336734,0.525860199
2.955000,0.372819094,0.000018606,0.000048028,-0.842407663,0.528202493
2.957500,0.378216572,0.000020097,0.000051561,-0.846605453,0.530577853
2.960000,0.383660544,0.000021624,0.000055133,-0.850921440,0.532981676
2.962500,0.389145895,0.000023187,0.000058743,-0.855347136,0.535409484
2.965000,0.394667571,0.000024786,0.000062386,-0.859874209,0.537856923
2.967500,0.400220570,0.000026420,0.000066061,-0.864494481,0.540319765
2.970000,0.405799944,0.000028088,0.000069764,-0.869199919,0.542793908
2.972500,0.411400794,0.000029790,0.000073493,-0.873982630,0.545275383
2.975000,0.417018268,0.000031526,0.000077244,-0.878834864,0.547760350
2.977500,0.422647566,0.000033294,0.000081015,-0.883749007,0.550245107
2.980000,0.428283933,0.000035094,0.000084804,-0.888717584,0.552726084
2.982500,0.433922667,0.000036925,0.000088606,-0.893733259,0.555199851
2.985000,0.439559113,0.000038786,0.000092421,-0.898788835,0.557663114
2.987500,0.445188668,0.000040675,0.000096244,-0.903877256,0.560112718
2.990000,0.450806778,0.000042592,0.000100073,-0.908991607,0.562545645
2.992500,0.456408946,0.000044535,0.000103905,-0.914125115,0.564959015
2.995000,0.461990726,0.000046503,0.000107738,-0.919271150,0.567350085
2.997500,0.467547727,0.000048495,0.000111569,-0.924423230,0.569716247
3.000000,0.473075616,0.000050509,0.000115395,-0.929575012,0.572055027
3.002500,0.478570116,0.000052543,0.000119214,-0.934720306,0.574364082
3.005000,0.484027010,0.000054596,0.000123022,-0.939853063,0.576641197
3.007500,0.489442140,0.000056667,0.000126818,-0.944967384,0.578884286
3.010000,0.494811410,0.000058752,0.000130598,-0.950057518,0.581091385
3.012500,0.500130786,0.000060851,0.000134360,-0.955117859,0.583260649
3.015000,0.505396297,0.000062962,0.000138101,-0.960142950,0.585390355
3.017500,0.510604037,0.000065082,0.000141818,-0.965127481,0.587478887
3.020000,0.515750167,0.000067210,0.000145509,-0.970066288,0.589524746
3.022500,0.520830912,0.000069343,0.000149171,-0.974954355,0.591526533
3.025000,0.525842569,0.000071479,0.000152802,-0.979786810,0.593482957
3.027500,0.530781500,0.000073616,0.000156399,-0.984558927,0.595392822
3.030000,0.535644139,0.000075751,0.000159959,-0.989266121,0.597255029
3.032500,0.540426993,0.000077883,0.000163479,-0.993903953,0.599068570
3.035000,0.545357943,0.000080124,0.000167105,-0.998728775,0.599563063
3.037500,0.550297531,0.000082409,0.000170745,-1.003584770,0.599609269
3.040000,0.555147254,0.000084688,0.000174339,-1.008357596,0.599631318
3.042500,0.559892658,0.000086953,0.000177877,-1.013029485,0.599650452
3.045000,0.564529825,0.000089198,0.000181356,-1.017595882,0.599668352
3.047500,0.569055725,0.000091422,0.000184773,-1.022053406,0.599685165
3.050000,0.573467477,0.000093622,0.000188125,-1.026398893,0.599700922
3.052500,0.577762290,0.000095794,0.000191412,-1.030629320,0.599715640
3.055000,0.581937461,0.000097936,0.000194629,-1.034741795,0.599729337
3.057500,0.585990370,0.000100045,0.000197774,-1.038733553,0.599742031
3.060000,0.589918485,0.000102118,0.000200846,-1.042601954,0.599753735
3.062500,0.593719359,0.000104151,0.000203841,-1.046344479,0.599764467
3.065000,0.597390631,0.000106142,0.000206758,-1.049958728,0.599774238
3.067500,0.600930028,0.000108089,0.000209593,-1.053442418,0.599783064
3.070000,0.604335365,0.000109987,0.000212346,-1.056793379,0.599790956
3.072500,0.607604543,0.000111835,0.000215012,-1.060009549,0.599797926
3.075000,0.610735552,0.000113629,0.000217591,-1.063088979,0.599803985
3.077500,0.613726471,0.000115367,0.000220079,-1.066029823,0.599809143
3.080000,0.616575468,0.000117046,0.000222476,-1.068830341,0.599813410
3.082500,0.619280799,0.000118663,0.000224778,-1.071488893,0.599816794
3.085000,0.621840814,0.000120216,0.000226984,-1.074003941,0.599819304
3.087500,0.624253950,0.000121702,0.000229091,-1.076374044,0.599820947
3.090000,0.626518739,0.000123119,0.000231097,-1.078597857,0.599821729
3.092500,0.628633802,0.000124464,0.000233002,-1.080674131,0.599821657
3.095000,0.630597853,0.000125736,0.000234802,-1.082601708,0.599820735
3.097500,0.632409701,0.000126931,0.000236496,-1.084379525,0.599818969
3.100000,0.634068246,0.000128048,0.000238082,-1.086006606,0.599816363
3.102500,0.635572483,0.000129086,0.000239559,-1.087482066,0.599812919
3.105000,0.636921502,0.000130041,0.000240925,-1.088805107,0.599808641
3.107500,0.638114485,0.000130913,0.000242178,-1.089975019,0.599803531
3.110000,0.639098583,0.000131588,0.000243139,-1.090929892,0.599462757
3.112500,0.639994645,0.000132223,0.000244034,-1.091809890,0.599454056
3.115000,0.640619696,0.000132702,0.000244750,-1.092421784,0.600000000
3.117500,0.641259552,0.000133205,0.000245463,-1.093052997,0.599868178
3.120000,0.641696996,0.000133594,0.000246036,-1.093483010,0.599441816
3.122500,0.641874449,0.000133761,0.000246295,-1.093656132,0.599831148
3.125000,0.641937928,0.000133865,0.000246477,-1.093719265,0.600000000
3.127500,0.641937928,0.000133865,0.000246477,-1.093719265,0.600000000
3.130000,0.641937928,0.000133865,0.000246477,-1.093719265,0.600000000
3.132500,0.641539553,0.000133745,0.000246331,-1.093351366,0.599335042
3.135000,0.641033658,0.000133555,0.000246117,-1.092866092,0.599469449
3.137500,0.640371070,0.000133275,0.000245795,-1.092225067,0.599540591
3.140000,0.639558714,0.000132915,0.000245368,-1.091436997,0.599551591
3.142500,0.638598926,0.000132475,0.000244836,-1.090504821,0.599503564
3.145000,0.637492805,0.000131958,0.000244201,-1.089429811,0.599397042
3.147500,0.636241166,0.000131363,0.000243463,-1.088212808,0.599232399
3.150000,0.634415690,0.000130502,0.000242443,-1.086399803,0.599143933
3.152500,0.633146037,0.000129902,0.000241676,-1.085178931,0.598965816
3.155000,0.631052239,0.000128898,0.000240446,-1.083111647,0.598759443
3.157500,0.629108650,0.000127974,0.000239300,-1.081204393,0.598601335
3.160000,0.627049170,0.000126989,0.000238058,-1.079188958,0.598388484
3.162500,0.624853806,0.000125931,0.000236709,-1.077041416,0.598112627
3.165000,0.622522140,0.000124801,0.000235252,-1.074760736,0.597773715
3.167500,0.620055427,0.000123599,0.000233688,-1.072348083,0.597372416
3.170000,0.617455147,0.000122327,0.000232018,-1.069804924,0.596909465
3.172500,0.614722890,0.000120988,0.000230242,-1.067132849,0.596385606
3.175000,0.611860338,0.000119583,0.000228363,-1.064333564,0.595801590
3.177500,0.608869272,0.000118114,0.000226381,-1.061408889,0.595158176
3.180000,0.605751562,0.000116583,0.000224297,-1.058360756,0.594456128
3.182500,0.602509173,0.000114993,0.000222113,-1.055191216,0.593696220
3.185000,0.599144162,0.000113345,0.000219831,-1.051902437,0.592879235
3.187500,0.595658677,0.000111642,0.000217452,-1.048496707,0.592005966
3.190000,0.592054956,0.000109887,0.000214978,-1.044976438,0.591077219
3.192500,0.588335328,0.000108081,0.000212410,-1.041344162,0.590093816
3.195000,0.584502208,0.000106228,0.000209752,-1.037602540,0.589056590
3.197500,0.580558103,0.000104331,0.000207004,-1.033754358,0.587966393
3.200000,0.576505603,0.000102391,0.000204169,-1.029802533,0.586824096
3.202500,0.572347387,0.000100411,0.000201250,-1.025750112,0.585630589
3.205000,0.568086219,0.000098395,0.000198248,-1.021600277,0.584386786
3.207500,0.563724948,0.000096345,0.000195166,-1.017356343,0.583093625
3.210000,0.559266507,0.000094263,0.000192006,-1.013021763,0.581752071
3.212500,0.554713911,0.000092154,0.000188771,-1.008600130,0.580363118
3.215000,0.550070259,0.000090019,0.000185464,-1.004095178,0.578927793
3.217500,0.545338730,0.000087861,0.000182086,-0.999510781,0.577447154
3.220000,0.540522586,0.000085684,0.000178643,-0.994850961,0.575922302
3.222500,0.535625167,0.000083489,0.000175135,-0.990119884,0.574354372
3.225000,0.530649893,0.000081281,0.000171566,-0.985321864,0.572744548
3.227500,0.525600261,0.000079062,0.000167939,-0.980461366,0.571094057
3.230000,0.520479848,0.000076834,0.000164257,-0.975543005,0.569404176
3.232500,0.515292304,0.000074600,0.000160523,-0.970571548,0.567676238
3.235000,0.510041359,0.000072363,0.000156740,-0.965551915,0.565911628
3.237500,0.504730815,0.000070126,0.000152912,-0.960489183,0.564111798
3.240000,0.499364547,0.000067891,0.000149042,-0.955388581,0.562278258
3.242500,0.493561469,0.000065421,0.000144744,-0.949811019,0.560452705
3.245000,0.488410295,0.000063342,0.000141005,-0.945007782,0.558698916
3.247500,0.482539415,0.000060907,0.000136653,-0.939415521,0.556813157
3.250000,0.476940740,0.000058624,0.000132477,-0.934158900,0.555037716
3.252500,0.471316690,0.000056365,0.000128285,-0.928906347,0.553232087
3.255000,0.465663843,0.000054125,0.000124076,-0.923653093,0.551394317
3.257500,0.459986325,0.000051909,0.000119856,-0.918405123,0.549526629
3.260000,0.454288531,0.000049717,0.000115626,-0.913168916,0.547631455
3.262500,0.448574930,0.000047552,0.000111392,-0.907951118,0.545711318
3.265000,0.442850054,0.000045415,0.000107156,-0.902758531,0.543768841
3.267500,0.437118496,0.000043308,0.000102923,-0.897598116,0.541806748
3.270000,0.431384910,0.000041233,0.000098696,-0.892476984,0.539827866
3.272500,0.425654011,0.000039191,0.000094480,-0.887402401,0.537835136
3.275000,0.419930568,0.000037183,0.000090277,-0.882381782,0.535831612
3.277500,0.414219407,0.000035211,0.000086092,-0.877422691,0.533820465
3.280000,0.408525408,0.000033276,0.000081928,-0.872532841,0.531804991
3.282500,0.402853505,0.000031379,0.000077790,-0.867720087,0.529788613
3.285000,0.397208682,0.000029521,0.000073680,-0.862992435,0.527774881
3.287500,0.391595977,0.000027702,0.000069603,-0.858358036,0.525767480
3.290000,0.386020481,0.000025924,0.000065562,-0.853825188,0.523770233
3.292500,0.380487337,0.000024187,0.000061561,-0.849402345,0.521787100
3.295000,0.375001747,0.000022491,0.000057604,-0.845098118,0.519822187
3.297500,0.369568975,0.000020838,0.000053694,-0.840921289,0.517879748
3.300000,0.364194352,0.000019227,0.000049835,-0.836880824,0.515964193
3.302500,0.358883289,0.000017659,0.000046031,-0.832985896,0.514080090
3.305000,0.353641293,0.000016133,0.000042285,-0.829245917,0.512232182
3.307500,0.348473986,0.000014651,0.000038602,-0.825670578,0.510425398
3.310000,0.343387134,0.000013213,0.000034984,-0.822269917,0.508664873
3.312500,0.338386696,0.000011817,0.000031436,-0.819054406,0.506955981
3.315000,0.333478883,0.000010465,0.000027962,-0.816035081,0.505304379
3.317500,0.328670254,0.000009157,0.000024565,-0.813223736,0.503716079
3.320000,0.323967861,0.000007893,0.000021251,-0.810633223,0.502197554
3.322500,0.319379484,0.000006672,0.000018025,-0.808277931,0.500755929
3.325000,0.314914040,0.000005497,0.000014891,-0.806174627,0.499399300
3.327500,0.310582374,0.000004366,0.000011856,-0.804344075,0.498137373
3.330000,0.306399084,0.000003283,0.000008930,-0.802814778,0.496982952
3.332500,0.302388741,0.000002252,0.000006129,-0.801635688,0.495957025
3.335000,0.298556905,0.000001271,0.000003455,-0.800817219,0.495065053
3.337500,0.294724628,0.000000297,0.000000792,-0.799993034,0.494161055
3.340000,0.290867021,-0.000000676,-0.000001875,-0.799110178,0.493224426
3.342500,0.286984505,-0.000001647,-0.000004546,-0.798166988,0.492255102
3.345000,0.283078442,-0.000002618,-0.000007221,-0.797163681,0.491253752
3.347500,0.279150272,-0.000003586,-0.000009899,-0.796100623,0.490221072
3.350000,0.275201471,-0.000004552,-0.000012579,-0.794978268,0.489157767
3.352500,0.271233557,-0.000005514,-0.000015261,-0.793797156,0.488064549
3.355000,0.267248083,-0.000006473,-0.000017943,-0.792557911,0.486942139
3.357500,0.263246640,-0.000007428,-0.000020625,-0.791261241,0.485791264
3.360000,0.259230856,-0.000008378,-0.000023306,-0.789907940,0.484612662
3.362500,0.255202393,-0.000009322,-0.000025985,-0.788498883,0.483407081
3.365000,0.251162945,-0.000010261,-0.000028661,-0.787035029,0.482175280
3.367500,0.247114240,-0.000011193,-0.000031334,-0.785517417,0.480918028
3.370000,0.243058040,-0.000012118,-0.000034002,-0.783947170,0.479636108
3.372500,0.238996133,-0.000013036,-0.000036664,-0.782325489,0.478330315
3.375000,0.234930340,-0.000013946,-0.000039320,-0.780653656,0.477001459
3.377500,0.230862509,-0.000014847,-0.000041967,-0.778933029,0.475650364
3.380000,0.226794515,-0.000015739,-0.000044607,-0.777165045,0.474277870
3.382500,0.222728258,-0.000016622,-0.000047236,-0.775351217,0.472884833
3.385000,0.218665666,-0.000017494,-0.000049855,-0.773493131,0.471472126
3.387500,0.214608687,-0.000018356,-0.000052461,-0.771592450,0.470040640
3.390000,0.210559294,-0.000019207,-0.000055055,-0.769650907,0.468591286
3.392500,0.206519478,-0.000020046,-0.000057635,-0.767670305,0.467124992
3.395000,0.202491254,-0.000020873,-0.000060200,-0.765652516,0.465642710
3.397500,0.198476652,-0.000021688,-0.000062748,-0.763599483,0.464145410
3.400000,0.194477720,-0.000022491,-0.000065279,-0.761513210,0.462634087
3.402500,0.190496522,-0.000023280,-0.000067792,-0.759395768,0.461109755
3.405000,0.186535137,-0.000024056,-0.000070285,-0.757249289,0.459573455
3.407500,0.182595656,-0.000024817,-0.000072758,-0.755075964,0.458026250
3.410000,0.178680182,-0.000025565,-0.000075208,-0.752878043,0.456469229
3.412500,0.174790827,-0.000026298,-0.000077636,-0.750657830,0.454903506
3.415000,0.170929712,-0.000027017,-0.000080039,-0.748417685,0.453330219
3.417500,0.167098967,-0.000027720,-0.000082417,-0.746160015,0.451750536
3.420000,0.163300723,-0.000028409,-0.000084769,-0.743887277,0.450165649
3.422500,0.159537118,-0.000029081,-0.000087093,-0.741601973,0.448576777
3.425000,0.155810292,-0.000029738,-0.000089389,-0.739306648,0.446985169
3.427500,0.152122382,-0.000030380,-0.000091655,-0.737003885,0.445392098
3.430000,0.148475528,-0.000031005,-0.000093890,-0.734696306,0.443798868
3.432500,0.144871864,-0.000031614,-0.000096092,-0.732386563,0.442206806
3.435000,0.141313518,-0.000032207,-0.000098262,-0.730077341,0.440617271
3.437500,0.137802614,-0.000032784,-0.000100397,-0.727771349,0.439031645
3.440000,0.134341265,-0.000033344,-0.000102497,-0.725471322,0.437451339
3.442500,0.130931575,-0.000033888,-0.000104561,-0.723180012,0.435877789
3.445000,0.127575632,-0.000034416,-0.000106587,-0.720900187,0.434312456
3.447500,0.124275514,-0.000034927,-0.000108574,-0.718634627,0.432756824
3.450000,0.121033277,-0.000035422,-0.000110522,-0.716386120,0.431212404
3.452500,0.117850961,-0.000035900,-0.000112429,-0.714157457,0.429680723
3.455000,0.114730586,-0.000036362,-0.000114294,-0.711951427,0.428163334
3.457500,0.111674146,-0.000036808,-0.000116116,-0.709770818,0.426661805
3.460000,0.108683611,-0.000037237,-0.000117895,-0.707618404,0.425177724
3.462500,0.105760923,-0.000037651,-0.000119629,-0.705496948,0.423712690
3.465000,0.102907996,-0.000038048,-0.000121317,-0.703409194,0.422268319
