triton-droids/embedded/trajectory_generation/ik_standing_leg_swing_fast_short.csv
t,pL_tx,pL_ty,pL_tz,pR_tx,pR_ty,pR_tz,ik_err_L,ik_err_R,ik_ok_L,ik_ok_R,left_hip1_joint,left_hip2_joint,left_thigh_joint,left_knee_joint,left_ankle_joint,right_hip1_joint,right_hip2_joint,right_thigh_joint,right_knee_joint,right_ankle_joint
0.000000,-0.000420000,-0.056584518,0.034888271,-0.310851000,-0.056584518,0.034888271,0.000000000e+00,0.000000000e+00,1,1,0.300000000,0.000000000,0.000000000,-0.800000000,0.500000000,0.300000000,0.000000000,0.000000000,-0.800000000,0.500000000
0.002500,-0.000420000,-0.056584518,0.034888418,-0.310851000,-0.056584518,0.034888271,1.468309893e-07,0.000000000e+00,1,1,0.300000000,0.000000000,0.000000000,-0.800000000,0.500000000,0.300000000,0.000000000,0.000000000,-0.800000000,0.500000000
0.005000,-0.000420000,-0.056584518,0.034889293,-0.310851000,-0.056584518,0.034888271,1.022079548e-06,0.000000000e+00,1,1,0.300000000,0.000000000,0.000000000,-0.800000000,0.500000000,0.300000000,0.000000000,0.000000000,-0.800000000,0.500000000
0.007500,-0.000420000,-0.056584518,0.034891449,-0.310851000,-0.056584518,0.034888271,3.178179915e-06,0.000000000e+00,1,1,0.300000000,0.000000000,0.000000000,-0.800000000,0.500000000,0.300000000,0.000000000,0.000000000,-0.800000000,0.500000000
0.010000,-0.000420000,-0.056584518,0.034895375,-0.310851000,-0.056584518,0.034888271,7.103958011e-06,0.000000000e+00,1,1,0.300000000,0.000000000,0.000000000,-0.800000000,0.500000000,0.300000000,0.000000000,0.000000000,-0.800000000,0.500000000
0.012500,-0.000420000,-0.056584518,0.034901521,-0.310851000,-0.056584518,0.034888271,1.324942233e-05,0.000000000e+00,1,1,0.300000000,0.000000000,0.000000000,-0.800000000,0.500000000,0.300000000,0.000000000,0.000000000,-0.800000000,0.500000000
0.015000,-0.000420000,-0.056584518,0.034910306,-0.310851000,-0.056584518,0.034888271,2.203473774e-05,0.000000000e+00,1,1,0.300000000,0.000000000,0.000000000,-0.800000000,0.500000000,0.300000000,0.000000000,0.000000000,-0.800000000,0.500000000
0.017500,-0.000420000,-0.056584518,0.034922126,-0.310851000,-0.056584518,0.034888271,3.385455457e-05,0.000000000e+00,1,1,0.300000000,0.000000000,0.000000000,-0.800000000,0.500000000,0.300000000,0.000000000,0.000000000,-0.800000000,0.500000000
0.020000,-0.000420000,-0.056584518,0.034937352,-0.310851000,-0.056584518,0.034888271,4.908031107e-05,0.000000000e+00,1,1,0.300000000,0.000000000,0.000000000,-0.800000000,0.500000000,0.300000000,0.000000000,0.000000000,-0.800000000,0.500000000
0.022500,-0.000420000,-0.056584518,0.034956333,-0.310851000,-0.056584518,0.034888271,6.806148502e-05,0.000000000e+00,1,1,0.300000000,0.000000000,0.000000000,-0.800000000,0.500000000,0.300000000,0.000000000,0.000000000,-0.800000000,0.500000000
0.025000,-0.000420000,-0.056584518,0.034979398,-0.310851000,-0.056584518,0.034888271,9.112624380e-05,0.000000000e+00,1,1,0.300000000,0.000000000,0.000000000,-0.800000000,0.500000000,0.300000000,0.000000000,0.000000000,-0.800000000,0.500000000
0.027500,-0.000420000,-0.056584518,0.035006853,-0.310851000,-0.056584518,0.034888271,5.091824221e-05,0.000000000e+00,1,1,0.300318351,-0.000000071,0.000000206,-0.800650084,0.500263097,0.300000000,0.000000000,0.000000000,-0.800000000,0.500000000
0.030000,-0.000420000,-0.056584518,0.035038985,-0.310851000,-0.056584518,0.034888271,8.304999188e-05,0.000000000e+00,1,1,0.300318351,-0.000000071,0.000000206,-0.800650084,0.500263097,0.300000000,0.000000000,0.000000000,-0.800000000,0.500000000
0.032500,-0.000420000,-0.056584518,0.035076060,-0.310851000,-0.056584518,0.034888271,5.161756875e-05,0.000000000e+00,1,1,0.300640931,-0.000000145,0.000000414,-0.801307905,0.500529190,0.300000000,0.000000000,0.000000000,-0.800000000,0.500000000
0.035000,-0.000420000,-0.056584518,0.035118320,-0.310851000,-0.056584518,0.034888271,9.387632652e-05,0.000000000e+00,1,1,0.300640931,-0.000000145,0.000000414,-0.801307905,0.500529190,0.300000000,0.000000000,0.000000000,-0.800000000,0.500000000
0.037500,-0.000420000,-0.056584518,0.035165988,-0.310851000,-0.056584518,0.034888271,6.084380072e-05,0.000000000e+00,1,1,0.301020756,-0.000000233,0.000000659,-0.802082241,0.500842155,0.300000000,0.000000000,0.000000000,-0.800000000,0.500000000
0.040000,-0.000420000,-0.056584518,0.035219266,-0.310851000,-0.056584518,0.034888271,4.911964732e-05,0.000000000e+00,1,1,0.301326763,-0.000000305,0.000000856,-0.802705522,0.501093856,0.300000000,0.000000000,0.000000000,-0.800000000,0.500000000
0.042500,-0.000420000,-0.056584518,0.035278330,-0.310851000,-0.056584518,0.034888271,4.660562819e-05,0.000000000e+00,1,1,0.301616474,-0.000000374,0.000001042,-0.803295599,0.501331938,0.300000000,0.000000000,0.000000000,-0.800000000,0.500000000
0.045000,-0.000420000,-0.056584518,0.035343338,-0.310851000,-0.056584518,0.034888271,4.810848476e-05,0.000000000e+00,1,1,0.301915002,-0.000000445,0.000001234,-0.803903741,0.501577089,0.300000000,0.000000000,0.000000000,-0.800000000,0.500000000
0.047500,-0.000420000,-0.056584518,0.035414424,-0.310851000,-0.056584518,0.034888271,5.139241530e-05,0.000000000e+00,1,1,0.302233466,-0.000000521,0.000001439,-0.804552583,0.501838411,0.300000000,0.000000000,0.000000000,-0.800000000,0.500000000
0.050000,-0.000420000,-0.056584518,0.035491698,-0.310851000,-0.056584518,0.034888271,5.548906957e-05,0.000000000e+00,1,1,0.302576911,-0.000000602,0.000001661,-0.805252360,0.502119982,0.300000000,0.000000000,0.000000000,-0.800000000,0.500000000
0.052500,-0.000420000,-0.056584518,0.035575247,-0.310851000,-0.056584518,0.034888271,5.997334588e-05,0.000000000e+00,1,1,0.302947702,-0.000000690,0.000001899,-0.806007860,0.502423671,0.300000000,0.000000000,0.000000000,-0.800000000,0.500000000
0.055000,-0.000420000,-0.056584518,0.035665137,-0.310851000,-0.056584518,0.034888271,6.465295110e-05,0.000000000e+00,1,1,0.303346988,-0.000000785,0.000002156,-0.806821404,0.502750340,0.300000000,0.000000000,0.000000000,-0.800000000,0.500000000
0.057500,-0.000420000,-0.056584518,0.035761409,-0.310851000,-0.056584518,0.034888271,6.943533125e-05,0.000000000e+00,1,1,0.303775329,-0.000000887,0.000002432,-0.807694119,0.503100363,0.300000000,0.000000000,0.000000000,-0.800000000,0.500000000
0.060000,-0.000420000,-0.056584518,0.035864081,-0.310851000,-0.056584518,0.034888271,7.427064670e-05,0.000000000e+00,1,1,0.304232968,-0.000000996,0.000002727,-0.808626488,0.503473847,0.300000000,0.000000000,0.000000000,-0.800000000,0.500000000
0.062500,-0.000420000,-0.056584518,0.035973147,-0.310851000,-0.056584518,0.034888271,7.912735042e-05,0.000000000e+00,1,1,0.304719944,-0.000001113,0.000003040,-0.809618583,0.503870727,0.300000000,0.000000000,0.000000000,-0.800000000,0.500000000
0.065000,-0.000420000,-0.056584518,0.036088579,-0.310851000,-0.056584518,0.034888271,8.398174375e-05,0.000000000e+00,1,1,0.305236146,-0.000001237,0.000003373,-0.810670168,0.504290808,0.300000000,0.000000000,0.000000000,-0.800000000,0.500000000
0.067500,-0.000420000,-0.056584518,0.036210324,-0.310851000,-0.056584518,0.034888271,8.881352473e-05,0.000000000e+00,1,1,0.305781331,-0.000001369,0.000003724,-0.811780742,0.504733785,0.300000000,0.000000000,0.000000000,-0.800000000,0.500000000
0.070000,-0.000420000,-0.056584518,0.036338306,-0.310851000,-0.056584518,0.034888271,9.360390496e-05,0.000000000e+00,1,1,0.306355140,-0.000001508,0.000004093,-0.812949562,0.505199248,0.300000000,0.000000000,0.000000000,-0.800000000,0.500000000
0.072500,-0.000420000,-0.056584518,0.036472427,-0.310851000,-0.056584518,0.034888271,9.833482815e-05,0.000000000e+00,1,1,0.306957096,-0.000001655,0.000004481,-0.814175651,0.505686694,0.300000000,0.000000000,0.000000000,-0.800000000,0.500000000
0.075000,-0.000420000,-0.056584518,0.036612565,-0.310851000,-0.056584518,0.034888271,4.506639845e-05,0.000000000e+00,1,1,0.307856505,-0.000001879,0.000005058,-0.816005754,0.506412312,0.300000000,0.000000000,0.000000000,-0.800000000,0.500000000
0.077500,-0.000420000,-0.056584518,0.036758576,-0.310851000,-0.056584518,0.034888271,8.279175470e-05,0.000000000e+00,1,1,0.308358678,-0.000002002,0.000005381,-0.817028708,0.506816971,0.300000000,0.000000000,0.000000000,-0.800000000,0.500000000
0.080000,-0.000420000,-0.056584518,0.036910294,-0.310851000,-0.056584518,0.034888271,4.454294350e-05,0.000000000e+00,1,1,0.309239286,-0.000002222,0.000005947,-0.818820994,0.507524278,0.300000000,0.000000000,0.000000000,-0.800000000,0.500000000
0.082500,-0.000420000,-0.056584518,0.037067530,-0.310851000,-0.056584518,0.034888271,8.750060673e-05,0.000000000e+00,1,1,0.309767647,-0.000002351,0.000006288,-0.819897379,0.507948226,0.300000000,0.000000000,0.000000000,-0.800000000,0.500000000
0.085000,-0.000420000,-0.056584518,0.037230075,-0.310851000,-0.056584518,0.034888271,4.759351771e-05,0.000000000e+00,1,1,0.310703350,-0.000002587,0.000006890,-0.821801711,0.508696352,0.300000000,0.000000000,0.000000000,-0.800000000,0.500000000
0.087500,-0.000420000,-0.056584518,0.037397697,-0.310851000,-0.056584518,0.034888271,9.338147477e-05,0.000000000e+00,1,1,0.311264958,-0.000002726,0.000007252,-0.822945707,0.509144885,0.300000000,0.000000000,0.000000000,-0.800000000,0.500000000
0.090000,-0.000420000,-0.056584518,0.037570146,-0.310851000,-0.056584518,0.034888271,5.069565779e-05,0.000000000e+00,1,1,0.312256258,-0.000002977,0.000007890,-0.824962918,0.509933538,0.300000000,0.000000000,0.000000000,-0.800000000,0.500000000
0.092500,-0.000420000,-0.056584518,0.037747151,-0.310851000,-0.056584518,0.034888271,9.885707781e-05,0.000000000e+00,1,1,0.312848317,-0.000003125,0.000008272,-0.826168773,0.510404027,0.300000000,0.000000000,0.000000000,-0.800000000,0.500000000
0.095000,-0.000420000,-0.056584518,0.037928422,-0.310851000,-0.056584518,0.034888271,5.353048228e-05,0.000000000e+00,1,1,0.313889118,-0.000003392,0.000008941,-0.828286389,0.511227670,0.300000000,0.000000000,0.000000000,-0.800000000,0.500000000
0.097500,-0.000420000,-0.056584518,0.038113650,-0.310851000,-0.056584518,0.034888271,4.611480070e-05,0.000000000e+00,1,1,0.314772452,-0.000003620,0.000009510,-0.830083315,0.511923471,0.300000000,0.000000000,0.000000000,-0.800000000,0.500000000
0.100000,-0.000420000,-0.056584518,0.038302509,-0.310851000,-0.056584518,0.034888271,4.554777146e-05,0.000000000e+00,1,1,0.315639396,-0.000003844,0.000010068,-0.831847085,0.512604159,0.300000000,0.000000000,0.000000000,-0.800000000,0.500000000
0.102500,-0.000420000,-0.056584518,0.038494656,-0.310851000,-0.056584518,0.034888271,4.616677423e-05,0.000000000e+00,1,1,0.316514424,-0.000004070,0.000010632,-0.833627263,0.513289066,0.300000000,0.000000000,0.000000000,-0.800000000,0.500000000
0.105000,-0.000420000,-0.056584518,0.038689732,-0.310851000,-0.056584518,0.034888271,4.693690749e-05,0.000000000e+00,1,1,0.317400624,-0.000004301,0.000011203,-0.835430029,0.513980528,0.300000000,0.000000000,0.000000000,-0.800000000,0.500000000
0.107500,-0.000420000,-0.056584518,0.038887362,-0.310851000,-0.056584518,0.034888271,4.766675560e-05,0.000000000e+00,1,1,0.318297124,-0.000004536,0.000011781,-0.837253577,0.514677762,0.300000000,0.000000000,0.000000000,-0.800000000,0.500000000
0.110000,-0.000420000,-0.056584518,0.039087158,-0.310851000,-0.056584518,0.034888271,4.831874482e-05,0.000000000e+00,1,1,0.319202287,-0.000004774,0.000012365,-0.839094558,0.515379400,0.300000000,0.000000000,0.000000000,-0.800000000,0.500000000
0.112500,-0.000420000,-0.056584518,0.039288718,-0.310851000,-0.056584518,0.034888271,4.888350188e-05,0.000000000e+00,1,1,0.320114294,-0.000005015,0.000012953,-0.840949267,0.516083947,0.300000000,0.000000000,0.000000000,-0.800000000,0.500000000
0.115000,-0.000420000,-0.056584518,0.039491628,-0.310851000,-0.056584518,0.034888271,4.935697759e-05,0.000000000e+00,1,1,0.321031263,-0.000005259,0.000013544,-0.842813865,0.516789874,0.300000000,0.000000000,0.000000000,-0.800000000,0.500000000
0.117500,-0.000420000,-0.056584518,0.039695464,-0.310851000,-0.056584518,0.034888271,4.973628811e-05,0.000000000e+00,1,1,0.321951268,-0.000005505,0.000014138,-0.844684428,0.517495636,0.300000000,0.000000000,0.000000000,-0.800000000,0.500000000
0.120000,-0.000420000,-0.056584518,0.039899789,-0.310851000,-0.056584518,0.034888271,5.001896349e-05,0.000000000e+00,1,1,0.322872349,-0.000005753,0.000014732,-0.846556964,0.518199677,0.300000000,0.000000000,0.000000000,-0.800000000,0.500000000
0.122500,-0.000420000,-0.056584518,0.040104161,-0.310851000,-0.056584518,0.034888271,5.020281592e-05,0.000000000e+00,1,1,0.323792520,-0.000006002,0.000015326,-0.848427429,0.518900440,0.300000000,0.000000000,0.000000000,-0.800000000,0.500000000
0.125000,-0.000420000,-0.056584518,0.040308126,-0.310851000,-0.056584518,0.034888271,5.028592009e-05,0.000000000e+00,1,1,0.324709772,-0.000006252,0.000015918,-0.850291734,0.519596370,0.300000000,0.000000000,0.000000000,-0.800000000,0.500000000
0.127500,-0.000420000,-0.056584518,0.040511227,-0.310851000,-0.056584518,0.034888271,5.026661357e-05,0.000000000e+00,1,1,0.325622079,-0.000006501,0.000016508,-0.852145758,0.520285915,0.300000000,0.000000000,0.000000000,-0.800000000,0.500000000
0.130000,-0.000420000,-0.056584518,0.040712999,-0.310851000,-0.056584518,0.034888271,5.014350021e-05,0.000000000e+00,1,1,0.326527406,-0.000006750,0.000017093,-0.853985358,0.520967536,0.300000000,0.000000000,0.000000000,-0.800000000,0.500000000
0.132500,-0.000420000,-0.056584518,0.040912975,-0.310851000,-0.056584518,0.034888271,4.991545355e-05,0.000000000e+00,1,1,0.327423710,-0.000006998,0.000017672,-0.855806380,0.521639706,0.300000000,0.000000000,0.000000000,-0.800000000,0.500000000
0.135000,-0.000420000,-0.056584518,0.041110683,-0.310851000,-0.056584518,0.034888271,4.958161992e-05,0.000000000e+00,1,1,0.328308948,-0.000007244,0.000018244,-0.857604671,0.522300915,0.300000000,0.000000000,0.000000000,-0.800000000,0.500000000
0.137500,-0.000420000,-0.056584518,0.041305650,-0.310851000,-0.056584518,0.034888271,4.914142086e-05,0.000000000e+00,1,1,0.329181080,-0.000007488,0.000018808,-0.859376088,0.522949677,0.300000000,0.000000000,0.000000000,-0.800000000,0.500000000
0.140000,-0.000420000,-0.056584518,0.041497404,-0.310851000,-0.056584518,0.034888271,4.859455485e-05,0.000000000e+00,1,1,0.330038079,-0.000007729,0.000019363,-0.861116508,0.523584528,0.300000000,0.000000000,0.000000000,-0.800000000,0.500000000
0.142500,-0.000420000,-0.056584518,0.041685473,-0.310851000,-0.056584518,0.034888271,4.794099868e-05,0.000000000e+00,1,1,0.330877928,-0.000007966,0.000019907,-0.862821838,0.524204034,0.300000000,0.000000000,0.000000000,-0.800000000,0.500000000
0.145000,-0.000420000,-0.056584518,0.041869386,-0.310851000,-0.056584518,0.034888271,4.718100804e-05,0.000000000e+00,1,1,0.331698634,-0.000008199,0.000020438,-0.864488027,0.524806791,0.300000000,0.000000000,0.000000000,-0.800000000,0.500000000
0.147500,-0.000420000,-0.056584518,0.042048676,-0.310851000,-0.056584518,0.034888271,4.631511787e-05,0.000000000e+00,1,1,0.332498224,-0.000008428,0.000020957,-0.866111075,0.525391429,0.300000000,0.000000000,0.000000000,-0.800000000,0.500000000
0.150000,-0.000420000,-0.056584518,0.042222883,-0.310851000,-0.056584518,0.034888271,9.754649952e-05,0.000000000e+00,1,1,0.333042059,-0.000008580,0.000021309,-0.867216479,0.525792097,0.300000000,0.000000000,0.000000000,-0.800000000,0.500000000
0.152500,-0.000420000,-0.056584518,0.042391550,-0.310851000,-0.056584518,0.034888271,5.367900299e-05,0.000000000e+00,1,1,0.333982526,-0.000008852,0.000021918,-0.869125323,0.526479177,0.300000000,0.000000000,0.000000000,-0.800000000,0.500000000
0.155000,-0.000420000,-0.056584518,0.042554230,-0.310851000,-0.056584518,0.034888271,9.590284654e-05,0.000000000e+00,1,1,0.334514034,-0.000009003,0.000022262,-0.870205092,0.526868046,0.300000000,0.000000000,0.000000000,-0.800000000,0.500000000
0.157500,-0.000420000,-0.056584518,0.042710483,-0.310851000,-0.056584518,0.034888271,5.132727524e-05,0.000000000e+00,1,1,0.335400847,-0.000009262,0.000022837,-0.872004177,0.527510419,0.300000000,0.000000000,0.000000000,-0.800000000,0.500000000
0.160000,-0.000420000,-0.056584518,0.042859879,-0.310851000,-0.056584518,0.034888271,8.938217036e-05,0.000000000e+00,1,1,0.335891120,-0.000009403,0.000023155,-0.872999782,0.527866069,0.300000000,0.000000000,0.000000000,-0.800000000,0.500000000
0.162500,-0.000420000,-0.056584518,0.043001999,-0.310851000,-0.056584518,0.034888271,4.777462560e-05,0.000000000e+00,1,1,0.336700976,-0.000009642,0.000023680,-0.874642028,0.528446997,0.300000000,0.000000000,0.000000000,-0.800000000,0.500000000
0.165000,-0.000420000,-0.056584518,0.043136439,-0.310851000,-0.056584518,0.034888271,8.163496562e-05,0.000000000e+00,1,1,0.337143109,-0.000009770,0.000023967,-0.875539502,0.528764711,0.300000000,0.000000000,0.000000000,-0.800000000,0.500000000
0.167500,-0.000420000,-0.056584518,0.043262806,-0.310851000,-0.056584518,0.034888271,9.262182134e-05,0.000000000e+00,1,1,0.337649573,-0.000009918,0.000024296,-0.876567778,0.529129827,0.300000000,0.000000000,0.000000000,-0.800000000,0.500000000
0.170000,-0.000420000,-0.056584518,0.043380723,-0.310851000,-0.056584518,0.034888271,9.374146302e-05,0.000000000e+00,1,1,0.338161906,-0.000010068,0.000024628,-0.877607674,0.529498453,0.300000000,0.000000000,0.000000000,-0.800000000,0.500000000
0.172500,-0.000420000,-0.056584518,0.043489829,-0.310851000,-0.056584518,0.034888271,9.052098586e-05,0.000000000e+00,1,1,0.338654402,-0.000010213,0.000024948,-0.878606952,0.529851440,0.300000000,0.000000000,0.000000000,-0.800000000,0.500000000
0.175000,-0.000420000,-0.056584518,0.043589779,-0.310851000,-0.056584518,0.034888271,8.531181488e-05,0.000000000e+00,1,1,0.339115338,-0.000010350,0.000025247,-0.879541852,0.530180166,0.300000000,0.000000000,0.000000000,-0.800000000,0.500000000
0.177500,-0.000420000,-0.056584518,0.043680249,-0.310851000,-0.056584518,0.034888271,7.911866912e-05,0.000000000e+00,1,1,0.339538974,-0.000010477,0.000025522,-0.880400772,0.530480500,0.300000000,0.000000000,0.000000000,-0.800000000,0.500000000
0.180000,-0.000420000,-0.056584518,0.043760933,-0.310851000,-0.056584518,0.034888271,7.237557753e-05,0.000000000e+00,1,1,0.339922160,-0.000010592,0.000025771,-0.881177352,0.530750244,0.300000000,0.000000000,0.000000000,-0.800000000,0.500000000
0.182500,-0.000420000,-0.056584518,0.043831544,-0.310851000,-0.056584518,0.034888271,6.527500413e-05,0.000000000e+00,1,1,0.340262895,-0.000010695,0.000025993,-0.881867550,0.530988050,0.300000000,0.000000000,0.000000000,-0.800000000,0.500000000
0.185000,-0.000420000,-0.056584518,0.043891820,-0.310851000,-0.056584518,0.034888271,5.790741274e-05,0.000000000e+00,1,1,0.340559711,-0.000010785,0.000026187,-0.882468403,0.531192961,0.300000000,0.000000000,0.000000000,-0.800000000,0.500000000
0.187500,-0.000420000,-0.056584518,0.043941518,-0.310851000,-0.056584518,0.034888271,5.032044774e-05,0.000000000e+00,1,1,0.340811419,-0.000010862,0.000026352,-0.882977511,0.531364219,0.300000000,0.000000000,0.000000000,-0.800000000,0.500000000
0.190000,-0.000420000,-0.056584518,0.043980422,-0.310851000,-0.056584518,0.034888271,8.921278735e-05,0.000000000e+00,1,1,0.340811419,-0.000010862,0.000026352,-0.882977511,0.531364219,0.300000000,0.000000000,0.000000000,-0.800000000,0.500000000
0.192500,-0.000420000,-0.056584518,0.044008336,-0.310851000,-0.056584518,0.034888271,5.438538909e-05,0.000000000e+00,1,1,0.341086563,-0.000010945,0.000026532,-0.883534555,0.531552691,0.300000000,0.000000000,0.000000000,-0.800000000,0.500000000
0.195000,-0.000420000,-0.056584518,0.044025093,-0.310851000,-0.056584518,0.034888271,7.113722764e-05,0.000000000e+00,1,1,0.341086563,-0.000010945,0.000026532,-0.883534555,0.531552691,0.300000000,0.000000000,0.000000000,-0.800000000,0.500000000
0.197500,-0.000420000,-0.056584518,0.044030551,-0.310851000,-0.056584518,0.034888271,7.659355592e-05,0.000000000e+00,1,1,0.341086563,-0.000010945,0.000026532,-0.883534555,0.531552691,0.300000000,0.000000000,0.000000000,-0.800000000,0.500000000
0.200000,-0.000420000,-0.056584518,0.044024593,-0.310851000,-0.056584518,0.034888271,7.063699792e-05,0.000000000e+00,1,1,0.341086563,-0.000010945,0.000026532,-0.883534555,0.531552691,0.300000000,0.000000000,0.000000000,-0.800000000,0.500000000
0.202500,-0.000420000,-0.056584518,0.044007131,-0.310851000,-0.056584518,0.034888271,5.318091274e-05,0.000000000e+00,1,1,0.341086563,-0.000010945,0.000026532,-0.883534555,0.531552691,0.300000000,0.000000000,0.000000000,-0.800000000,0.500000000
0.205000,-0.000420000,-0.056584518,0.043978105,-0.310851000,-0.056584518,0.034888271,2.418300886e-05,0.000000000e+00,1,1,0.341086563,-0.000010945,0.000026532,-0.883534555,0.531552691,0.300000000,0.000000000,0.000000000,-0.800000000,0.500000000
0.207500,-0.000420000,-0.056584518,0.043937482,-0.310851000,-0.056584518,0.034888271,1.656876897e-05,0.000000000e+00,1,1,0.341086563,-0.000010945,0.000026532,-0.883534555,0.531552691,0.300000000,0.000000000,0.000000000,-0.800000000,0.500000000
0.210000,-0.000420000,-0.056584518,0.043885259,-0.310851000,-0.056584518,0.034888271,6.873295127e-05,0.000000000e+00,1,1,0.341086563,-0.000010945,0.000026532,-0.883534555,0.531552691,0.300000000,0.000000000,0.000000000,-0.800000000,0.500000000
0.212500,-0.000420000,-0.056584518,0.043821464,-0.310851000,-0.056584518,0.034888271,5.162009460e-05,0.000000000e+00,1,1,0.340739705,-0.000010851,0.000026310,-0.882824229,0.531280728,0.300000000,0.000000000,0.000000000,-0.800000000,0.500000000
0.215000,-0.000420000,-0.056584518,0.043746153,-0.310851000,-0.056584518,0.034888271,4.928631703e-05,0.000000000e+00,1,1,0.340405691,-0.000010756,0.000026098,-0.882141873,0.531019004,0.300000000,0.000000000,0.000000000,-0.800000000,0.500000000
0.217500,-0.000420000,-0.056584518,0.043659412,-0.310851000,-0.056584518,0.034888271,5.319372800e-05,0.000000000e+00,1,1,0.340048497,-0.000010653,0.000025871,-0.881413005,0.530740544,0.300000000,0.000000000,0.000000000,-0.800000000,0.500000000
0.220000,-0.000420000,-0.056584518,0.043561358,-0.310851000,-0.056584518,0.034888271,5.970817127e-05,0.000000000e+00,1,1,0.339652984,-0.000010539,0.000025620,-0.880606451,0.530434003,0.300000000,0.000000000,0.000000000,-0.800000000,0.500000000
0.222500,-0.000420000,-0.056584518,0.043452140,-0.310851000,-0.056584518,0.034888271,6.727515111e-05,0.000000000e+00,1,1,0.339212992,-0.000010412,0.000025340,-0.879709574,0.530094728,0.300000000,0.000000000,0.000000000,-0.800000000,0.500000000
0.225000,-0.000420000,-0.056584518,0.043331935,-0.310851000,-0.056584518,0.034888271,7.522216706e-05,0.000000000e+00,1,1,0.338726262,-0.000010271,0.000025030,-0.878717750,0.529720959,0.300000000,0.000000000,0.000000000,-0.800000000,0.500000000
0.227500,-0.000420000,-0.056584518,0.043200954,-0.310851000,-0.056584518,0.034888271,8.325083093e-05,0.000000000e+00,1,1,0.338192263,-0.000010117,0.000024690,-0.877629900,0.529312206,0.300000000,0.000000000,0.000000000,-0.800000000,0.500000000
0.230000,-0.000420000,-0.056584518,0.043059435,-0.310851000,-0.056584518,0.034888271,9.122146720e-05,0.000000000e+00,1,1,0.337611277,-0.000009949,0.000024319,-0.876446596,0.528868570,0.300000000,0.000000000,0.000000000,-0.800000000,0.500000000
0.232500,-0.000420000,-0.056584518,0.042907651,-0.310851000,-0.056584518,0.034888271,9.906175003e-05,0.000000000e+00,1,1,0.336984002,-0.000009769,0.000023918,-0.875169261,0.528390448,0.300000000,0.000000000,0.000000000,-0.800000000,0.500000000
0.235000,-0.000420000,-0.056584518,0.042745903,-0.310851000,-0.056584518,0.034888271,4.122088159e-05,0.000000000e+00,1,1,0.336025131,-0.000009489,0.000023308,-0.873218036,0.527655600,0.300000000,0.000000000,0.000000000,-0.800000000,0.500000000
0.237500,-0.000420000,-0.056584518,0.042574522,-0.310851000,-0.056584518,0.034888271,8.632222498e-05,0.000000000e+00,1,1,0.335473199,-0.000009332,0.000022955,-0.872093863,0.527233616,0.300000000,0.000000000,0.000000000,-0.800000000,0.500000000
0.240000,-0.000420000,-0.056584518,0.042393872,-0.310851000,-0.056584518,0.034888271,4.260615103e-05,0.000000000e+00,1,1,0.334490183,-0.000009050,0.000022328,-0.870093242,0.526480919,0.300000000,0.000000000,0.000000000,-0.800000000,0.500000000
0.242500,-0.000420000,-0.056584518,0.042204344,-0.310851000,-0.056584518,0.034888271,9.484477875e-05,0.000000000e+00,1,1,0.333887923,-0.000008880,0.000021942,-0.868866642,0.526021002,0.300000000,0.000000000,0.000000000,-0.800000000,0.500000000
0.245000,-0.000420000,-0.056584518,0.042006360,-0.310851000,-0.056584518,0.034888271,4.759108350e-05,0.000000000e+00,1,1,0.332809138,-0.000008573,0.000021252,-0.866671561,0.525196306,0.300000000,0.000000000,0.000000000,-0.800000000,0.500000000
0.247500,-0.000420000,-0.056584518,0.041800371,-0.310851000,-0.056584518,0.034888271,4.064502251e-05,0.000000000e+00,1,1,0.331870526,-0.000008307,0.000020652,-0.864761641,0.524477106,0.300000000,0.000000000,0.000000000,-0.800000000,0.500000000
0.250000,-0.000420000,-0.056584518,0.041586855,-0.310851000,-0.056584518,0.034888271,4.091796133e-05,0.000000000e+00,1,1,0.330928681,-0.000008042,0.000020049,-0.862844927,0.523755319,0.300000000,0.000000000,0.000000000,-0.800000000,0.500000000
0.252500,-0.000420000,-0.056584518,0.041366322,-0.310851000,-0.056584518,0.034888271,4.241491861e-05,0.000000000e+00,1,1,0.329959098,-0.000007770,0.000019428,-0.860871843,0.523012332,0.300000000,0.000000000,0.000000000,-0.800000000,0.500000000
0.255000,-0.000420000,-0.056584518,0.041139305,-0.310851000,-0.056584518,0.034888271,4.404491921e-05,0.000000000e+00,1,1,0.328959092,-0.000007492,0.000018786,-0.858837019,0.522245926,0.300000000,0.000000000,0.000000000,-0.800000000,0.500000000
0.257500,-0.000420000,-0.056584518,0.040906366,-0.310851000,-0.056584518,0.034888271,4.560493053e-05,0.000000000e+00,1,1,0.327930071,-0.000007207,0.000018125,-0.856743330,0.521456956,0.300000000,0.000000000,0.000000000,-0.800000000,0.500000000
0.260000,-0.000420000,-0.056584518,0.040668094,-0.310851000,-0.056584518,0.034888271,4.705286372e-05,0.000000000e+00,1,1,0.326874298,-0.000006916,0.000017447,-0.854595367,0.520646920,0.300000000,0.000000000,0.000000000,-0.800000000,0.500000000
0.262500,-0.000420000,-0.056584518,0.040425100,-0.310851000,-0.056584518,0.034888271,4.837588111e-05,0.000000000e+00,1,1,0.325794298,-0.000006620,0.000016753,-0.852398253,0.519817528,0.300000000,0.000000000,0.000000000,-0.800000000,0.500000000
0.265000,-0.000420000,-0.056584518,0.040178025,-0.310851000,-0.056584518,0.034888271,4.956652610e-05,0.000000000e+00,1,1,0.324692752,-0.000006320,0.000016045,-0.850157423,0.518970615,0.300000000,0.000000000,0.000000000,-0.800000000,0.500000000
0.267500,-0.000420000,-0.056584518,0.039927529,-0.310851000,-0.056584518,0.034888271,5.061839662e-05,0.000000000e+00,1,1,0.323572476,-0.000006017,0.000015324,-0.847878589,0.518108135,0.300000000,0.000000000,0.000000000,-0.800000000,0.500000000
0.270000,-0.000420000,-0.056584518,0.039674298,-0.310851000,-0.056584518,0.034888271,5.152536311e-05,0.000000000e+00,1,1,0.322436415,-0.000005711,0.000014593,-0.845567723,0.517232159,0.300000000,0.000000000,0.000000000,-0.800000000,0.500000000
0.272500,-0.000420000,-0.056584518,0.039419039,-0.310851000,-0.056584518,0.034888271,5.228142817e-05,0.000000000e+00,1,1,0.321287645,-0.000005403,0.000013853,-0.843231064,0.516344874,0.300000000,0.000000000,0.000000000,-0.800000000,0.500000000
0.275000,-0.000420000,-0.056584518,0.039162482,-0.310851000,-0.056584518,0.034888271,5.288070246e-05,0.000000000e+00,1,1,0.320129365,-0.000005095,0.000013107,-0.840875103,0.515448591,0.300000000,0.000000000,0.000000000,-0.800000000,0.500000000
0.277500,-0.000420000,-0.056584518,0.038905375,-0.310851000,-0.056584518,0.034888271,5.331739937e-05,0.000000000e+00,1,1,0.318964902,-0.000004787,0.000012356,-0.838506592,0.514545742,0.300000000,0.000000000,0.000000000,-0.800000000,0.500000000
0.280000,-0.000420000,-0.056584518,0.038648490,-0.310851000,-0.056584518,0.034888271,5.358583128e-05,0.000000000e+00,1,1,0.317797705,-0.000004480,0.000011604,-0.836132533,0.513638885,0.300000000,0.000000000,0.000000000,-0.800000000,0.500000000
0.282500,-0.000420000,-0.056584518,0.038392615,-0.310851000,-0.056584518,0.034888271,5.368040367e-05,0.000000000e+00,1,1,0.316631345,-0.000004176,0.000010851,-0.833760176,0.512730704,0.300000000,0.000000000,0.000000000,-0.800000000,0.500000000
0.285000,-0.000420000,-0.056584518,0.038138557,-0.310851000,-0.056584518,0.034888271,5.359560542e-05,0.000000000e+00,1,1,0.315469514,-0.000003874,0.000010102,-0.831397020,0.511824010,0.300000000,0.000000000,0.000000000,-0.800000000,0.500000000
0.287500,-0.000420000,-0.056584518,0.037887144,-0.310851000,-0.056584518,0.034888271,5.332599444e-05,0.000000000e+00,1,1,0.314316022,-0.000003577,0.000009358,-0.829050805,0.510921745,0.300000000,0.000000000,0.000000000,-0.800000000,0.500000000
0.290000,-0.000420000,-0.056584518,0.037639217,-0.310851000,-0.056584518,0.034888271,5.286617681e-05,0.000000000e+00,1,1,0.313174797,-0.000003285,0.000008621,-0.826729512,0.510026980,0.300000000,0.000000000,0.000000000,-0.800000000,0.500000000
0.292500,-0.000420000,-0.056584518,0.037395639,-0.310851000,-0.056584518,0.034888271,5.221077823e-05,0.000000000e+00,1,1,0.312049880,-0.000002999,0.000007895,-0.824441361,0.509142919,0.300000000,0.000000000,0.000000000,-0.800000000,0.500000000
0.295000,-0.000420000,-0.056584518,0.037157286,-0.310851000,-0.056584518,0.034888271,5.135440429e-05,0.000000000e+00,1,1,0.310945433,-0.000002719,0.000007182,-0.822194809,0.508272899,0.300000000,0.000000000,0.000000000,-0.800000000,0.500000000
0.297500,-0.000420000,-0.056584518,0.036925055,-0.310851000,-0.056584518,0.034888271,5.029158681e-05,0.000000000e+00,1,1,0.309865729,-0.000002448,0.000006484,-0.819998552,0.507420391,0.300000000,0.000000000,0.000000000,-0.800000000,0.500000000
0.300000,-0.000420000,-0.056584518,0.036699860,-0.310851000,-0.056584518,0.034888271,4.901671026e-05,0.000000000e+00,1,1,0.308815160,-0.000002185,0.000005806,-0.817861529,0.506589002,0.300000000,0.000000000,0.000000000,-0.800000000,0.500000000
0.302500,-0.000420000,-0.056584518,0.036482632,-0.310851000,-0.056584518,0.034888271,4.752391193e-05,0.000000000e+00,1,1,0.307798240,-0.000001933,0.000005149,-0.815792926,0.505782479,0.300000000,0.000000000,0.000000000,-0.800000000,0.500000000
0.305000,-0.000420000,-0.056584518,0.036274328,-0.310851000,-0.056584518,0.034888271,4.580694370e-05,0.000000000e+00,1,1,0.306819610,-0.000001691,0.000004516,-0.813802192,0.505004713,0.300000000,0.000000000,0.000000000,-0.800000000,0.500000000
0.307500,-0.000420000,-0.056584518,0.036075923,-0.310851000,-0.056584518,0.034888271,4.385897933e-05,0.000000000e+00,1,1,0.305884045,-0.000001461,0.000003912,-0.811899058,0.504259745,0.300000000,0.000000000,0.000000000,-0.800000000,0.500000000
0.310000,-0.000420000,-0.056584518,0.035888425,-0.310851000,-0.056584518,0.034888271,9.859625845e-05,0.000000000e+00,1,1,0.305264110,-0.000001313,0.000003510,-0.810636448,0.503762733,0.300000000,0.000000000,0.000000000,-0.800000000,0.500000000
0.312500,-0.000420000,-0.056584518,0.035712873,-0.310851000,-0.056584518,0.034888271,4.971397322e-05,0.000000000e+00,1,1,0.304212557,-0.000001056,0.000002831,-0.808497397,0.502920303,0.300000000,0.000000000,0.000000000,-0.800000000,0.500000000
0.315000,-0.000420000,-0.056584518,0.035550350,-0.310851000,-0.056584518,0.034888271,9.063505915e-05,0.000000000e+00,1,1,0.303642447,-0.000000920,0.000002463,-0.807336646,0.502461691,0.300000000,0.000000000,0.000000000,-0.800000000,0.500000000
0.317500,-0.000420000,-0.056584518,0.035401994,-0.310851000,-0.056584518,0.034888271,4.354192245e-05,0.000000000e+00,1,1,0.302723226,-0.000000697,0.000001869,-0.805467202,0.501723504,0.300000000,0.000000000,0.000000000,-0.800000000,0.500000000
0.320000,-0.000420000,-0.056584518,0.035269021,-0.310851000,-0.056584518,0.034888271,7.550212065e-05,0.000000000e+00,1,1,0.302247968,-0.000000584,0.000001561,-0.804499749,0.501340548,0.300000000,0.000000000,0.000000000,-0.800000000,0.500000000
0.322500,-0.000420000,-0.056584518,0.035152756,-0.310851000,-0.056584518,0.034888271,8.213242422e-05,0.000000000e+00,1,1,0.301731682,-0.000000461,0.000001228,-0.803448695,0.500923413,0.300000000,0.000000000,0.000000000,-0.800000000,0.500000000
0.325000,-0.000420000,-0.056584518,0.035054694,-0.310851000,-0.056584518,0.034888271,7.723421564e-05,0.000000000e+00,1,1,0.301246077,-0.000000346,0.000000914,-0.802460440,0.500530895,0.300000000,0.000000000,0.000000000,-0.800000000,0.500000000
0.327500,-0.000420000,-0.056584518,0.034976605,-0.310851000,-0.056584518,0.034888271,6.660983765e-05,0.000000000e+00,1,1,0.300826966,-0.000000245,0.000000643,-0.801607897,0.500192504,0.300000000,0.000000000,0.000000000,-0.800000000,0.500000000
0.330000,-0.000420000,-0.056584518,0.034920797,-0.310851000,-0.056584518,0.034888271,5.252061592e-05,0.000000000e+00,1,1,0.300496107,-0.000000166,0.000000429,-0.800935323,0.499926313,0.300000000,0.000000000,0.000000000,-0.800000000,0.500000000
0.332500,-0.000420000,-0.056584518,0.034890975,-0.310851000,-0.056584518,0.034888271,8.234063936e-05,0.000000000e+00,1,1,0.300496107,-0.000000166,0.000000429,-0.800935323,0.499926313,0.300000000,0.000000000,0.000000000,-0.800000000,0.500000000
0.335000,-0.000420000,-0.056584518,0.034888271,-0.310851000,-0.056584518,0.034897755,8.504395182e-05,9.484150618e-06,1,1,0.300496107,-0.000000166,0.000000429,-0.800935323,0.499926313,0.300000000,0.000000000,0.000000000,-0.800000000,0.500000000
0.337500,-0.000420000,-0.056584518,0.034888271,-0.310851000,-0.056584518,0.034937971,8.504395182e-05,4.969934264e-05,1,1,0.300496107,-0.000000166,0.000000429,-0.800935323,0.499926313,0.300000000,0.000000000,0.000000000,-0.800000000,0.500000000
0.340000,-0.000420000,-0.056584518,0.034888271,-0.310851000,-0.056584518,0.035004860,8.504395182e-05,5.006309368e-05,1,1,0.300496107,-0.000000166,0.000000429,-0.800935323,0.499926313,0.300313002,0.000000069,0.000000203,-0.800639161,0.500258676
0.342500,-0.000420000,-0.056584518,0.034888271,-0.310851000,-0.056584518,0.035096397,8.504395182e-05,6.083140979e-05,1,1,0.300496107,-0.000000166,0.000000429,-0.800935323,0.499926313,0.300693199,0.000000156,0.000000448,-0.801414652,0.500572353
0.345000,-0.000420000,-0.056584518,0.034888271,-0.310851000,-0.056584518,0.035211422,8.504395182e-05,7.556614220e-05,1,1,0.300496107,-0.000000166,0.000000429,-0.800935323,0.499926313,0.301165029,0.000000265,0.000000753,-0.802376700,0.500961114
0.347500,-0.000420000,-0.056584518,0.034888271,-0.310851000,-0.056584518,0.035349133,8.504395182e-05,9.165797157e-05,1,1,0.300496107,-0.000000166,0.000000429,-0.800935323,0.499926313,0.301736654,0.000000398,0.000001121,-0.803542023,0.501431417
0.350000,-0.000420000,-0.056584518,0.034888271,-0.310851000,-0.056584518,0.035508907,8.504395182e-05,4.667780660e-05,1,1,0.300496107,-0.000000166,0.000000429,-0.800935323,0.499926313,0.302698555,0.000000629,0.000001739,-0.805500892,0.502220431
0.352500,-0.000420000,-0.056584518,0.034888271,-0.310851000,-0.056584518,0.035690217,8.504395182e-05,9.810570964e-05,1,1,0.300496107,-0.000000166,0.000000429,-0.800935323,0.499926313,0.303306988,0.000000772,0.000002132,-0.806741185,0.502718806
0.355000,-0.000420000,-0.056584518,0.034888271,-0.310851000,-0.056584518,0.035892590,8.504395182e-05,5.592589060e-05,1,1,0.300496107,-0.000000166,0.000000429,-0.800935323,0.499926313,0.304451639,0.000001048,0.000002868,-0.809072397,0.503653397
0.357500,-0.000420000,-0.056584518,0.034888271,-0.310851000,-0.056584518,0.036115579,8.504395182e-05,5.212606704e-05,1,1,0.300496107,-0.000000166,0.000000429,-0.800935323,0.499926313,0.305510715,0.000001305,0.000003549,-0.811229176,0.504515122
0.360000,-0.000420000,-0.056584518,0.034888271,-0.310851000,-0.056584518,0.036358745,8.504395182e-05,5.528282352e-05,1,1,0.300496107,-0.000000166,0.000000429,-0.800935323,0.499926313,0.306628803,0.000001577,0.000004268,-0.813506352,0.505422000
0.362500,-0.000420000,-0.056584518,0.034888271,-0.310851000,-0.056584518,0.036621645,8.504395182e-05,5.963741966e-05,1,1,0.300496107,-0.000000166,0.000000429,-0.800935323,0.499926313,0.307830320,0.000001871,0.000005041,-0.815953354,0.506393197
0.365000,-0.000420000,-0.056584518,0.034888271,-0.310851000,-0.056584518,0.036903829,8.504395182e-05,6.413215527e-05,1,1,0.300496107,-0.000000166,0.000000429,-0.800935323,0.499926313,0.309117515,0.000002188,0.000005870,-0.818574609,0.507429752
0.367500,-0.000420000,-0.056584518,0.034888271,-0.310851000,-0.056584518,0.037204829,8.504395182e-05,6.856964789e-05,1,1,0.300496107,-0.000000166,0.000000429,-0.800935323,0.499926313,0.310488487,0.000002529,0.000006752,-0.821366167,0.508529314
0.370000,-0.000420000,-0.056584518,0.034888271,-0.310851000,-0.056584518,0.037524157,8.504395182e-05,7.290937596e-05,1,1,0.300496107,-0.000000166,0.000000429,-0.800935323,0.499926313,0.311940490,0.000002893,0.000007687,-0.824322375,0.509688834
0.372500,-0.000420000,-0.056584518,0.034888271,-0.310851000,-0.056584518,0.037861303,8.504395182e-05,7.713906567e-05,1,1,0.300496107,-0.000000166,0.000000429,-0.800935323,0.499926313,0.313470535,0.000003281,0.000008671,-0.827437089,0.510905058
0.375000,-0.000420000,-0.056584518,0.034888271,-0.310851000,-0.056584518,0.038215730,8.504395182e-05,8.125130753e-05,1,1,0.300496107,-0.000000166,0.000000429,-0.800935323,0.499926313,0.315075496,0.000003691,0.000009705,-0.830703883,0.512174623
0.377500,-0.000420000,-0.056584518,0.034888271,-0.310851000,-0.056584518,0.038586877,8.504395182e-05,8.523939635e-05,1,1,0.300496107,-0.000000166,0.000000429,-0.800935323,0.499926313,0.316752129,0.000004123,0.000010784,-0.834116097,0.513494078
0.380000,-0.000420000,-0.056584518,0.034888271,-0.310851000,-0.056584518,0.038974153,8.504395182e-05,8.909666089e-05,1,1,0.300496107,-0.000000166,0.000000429,-0.800935323,0.499926313,0.318497079,0.000004578,0.000011907,-0.837666842,0.514859899
0.382500,-0.000420000,-0.056584518,0.034888271,-0.310851000,-0.056584518,0.039376940,8.504395182e-05,9.281641203e-05,1,1,0.300496107,-0.000000166,0.000000429,-0.800935323,0.499926313,0.320306883,0.000005055,0.000013073,-0.841349010,0.516268501
0.385000,-0.000420000,-0.056584518,0.034888271,-0.310851000,-0.056584518,0.039794593,8.504395182e-05,9.639198998e-05,1,1,0.300496107,-0.000000166,0.000000429,-0.800935323,0.499926313,0.322177975,0.000005554,0.000014278,-0.845155285,0.517716247
0.387500,-0.000420000,-0.056584518,0.034888271,-0.310851000,-0.056584518,0.040226436,8.504395182e-05,9.981681921e-05,1,1,0.300496107,-0.000000166,0.000000429,-0.800935323,0.499926313,0.324106690,0.000006073,0.000015520,-0.849078155,0.519199462
0.390000,-0.000420000,-0.056584518,0.034888271,-0.310851000,-0.056584518,0.040671764,8.504395182e-05,4.702661327e-05,1,1,0.300496107,-0.000000166,0.000000429,-0.800935323,0.499926313,0.326342733,0.000006691,0.000016959,-0.853621792,0.520900326
0.392500,-0.000420000,-0.056584518,0.034888271,-0.310851000,-0.056584518,0.041129849,8.504395182e-05,9.607646327e-05,1,1,0.300496107,-0.000000166,0.000000429,-0.800935323,0.499926313,0.328169036,0.000007190,0.000018138,-0.857336377,0.522284578
0.395000,-0.000420000,-0.056584518,0.034888271,-0.310851000,-0.056584518,0.041599929,8.504395182e-05,4.922655882e-05,1,1,0.300496107,-0.000000166,0.000000429,-0.800935323,0.499926313,0.330471231,0.000007839,0.000019621,-0.862013277,0.524010567
0.397500,-0.000420000,-0.056584518,0.034888271,-0.310851000,-0.056584518,0.042081221,8.504395182e-05,4.679893099e-05,1,1,0.300496107,-0.000000166,0.000000429,-0.800935323,0.499926313,0.332616398,0.000008448,0.000021006,-0.866371010,0.525603423
0.400000,-0.000420000,-0.056584518,0.034888271,-0.310851000,-0.056584518,0.042572913,8.504395182e-05,4.771230760e-05,1,1,0.300496107,-0.000000166,0.000000429,-0.800935323,0.499926313,0.334784008,0.000009070,0.000022407,-0.870773685,0.527200174
0.402500,-0.000420000,-0.056584518,0.034888271,-0.310851000,-0.056584518,0.043074170,8.504395182e-05,4.881650761e-05,1,1,0.300496107,-0.000000166,0.000000429,-0.800935323,0.499926313,0.336984091,0.000009708,0.000023829,-0.875241357,0.528807834
0.405000,-0.000420000,-0.056584518,0.034888271,-0.310851000,-0.056584518,0.043584131,8.504395182e-05,4.986827854e-05,1,1,0.300496107,-0.000000166,0.000000429,-0.800935323,0.499926313,0.339213603,0.000010364,0.000025272,-0.879767751,0.530423574
0.407500,-0.000420000,-0.056584518,0.034888271,-0.310851000,-0.056584518,0.044101915,8.504395182e-05,5.084706247e-05,1,1,0.300496107,-0.000000166,0.000000429,-0.800935323,0.499926313,0.341468465,0.000011035,0.000026731,-0.884344530,0.532043877
0.410000,-0.000420000,-0.056584518,0.034888271,-0.310851000,-0.056584518,0.044626618,8.504395182e-05,5.174946132e-05,1,1,0.300496107,-0.000000166,0.000000429,-0.800935323,0.499926313,0.343744497,0.000011721,0.000028205,-0.888963158,0.533665236
0.412500,-0.000420000,-0.056584518,0.034888271,-0.310851000,-0.056584518,0.045157318,8.504395182e-05,5.257352498e-05,1,1,0.300496107,-0.000000166,0.000000429,-0.800935323,0.499926313,0.346037496,0.000012421,0.000029691,-0.893615058,0.535284216
0.415000,-0.000420000,-0.056584518,0.034888271,-0.310851000,-0.056584518,0.045693073,8.504395182e-05,5.331755445e-05,1,1,0.300496107,-0.000000166,0.000000429,-0.800935323,0.499926313,0.348343249,0.000013133,0.000031186,-0.898291640,0.536897470
0.417500,-0.000420000,-0.056584518,0.034888271,-0.310851000,-0.056584518,0.046232924,8.504395182e-05,5.398001310e-05,1,1,0.300496107,-0.000000166,0.000000429,-0.800935323,0.499926313,0.350657540,0.000013857,0.000032689,-0.902984314,0.538501739
0.420000,-0.000420000,-0.056584518,0.034888271,-0.310851000,-0.056584518,0.046775899,8.504395182e-05,5.455952152e-05,1,1,0.300496107,-0.000000166,0.000000429,-0.800935323,0.499926313,0.352976160,0.000014592,0.000034195,-0.907684509,0.540093865
0.422500,-0.000420000,-0.056584518,0.034888271,-0.310851000,-0.056584518,0.047321011,8.504395182e-05,5.505485867e-05,1,1,0.300496107,-0.000000166,0.000000429,-0.800935323,0.499926313,0.355294914,0.000015336,0.000035702,-0.912383689,0.541670789
0.425000,-0.000420000,-0.056584518,0.034888271,-0.310851000,-0.056584518,0.047867260,8.504395182e-05,5.546496292e-05,1,1,0.300496107,-0.000000166,0.000000429,-0.800935323,0.499926313,0.357609625,0.000016089,0.000037209,-0.917073362,0.543229563
0.427500,-0.000420000,-0.056584518,0.034888271,-0.310851000,-0.056584518,0.048413639,8.504395182e-05,5.578893291e-05,1,1,0.300496107,-0.000000166,0.000000429,-0.800935323,0.499926313,0.359916144,0.000016847,0.000038711,-0.921745097,0.544767345
0.430000,-0.000420000,-0.056584518,0.034888271,-0.310851000,-0.056584518,0.048959130,8.504395182e-05,5.602602793e-05,1,1,0.300496107,-0.000000166,0.000000429,-0.800935323,0.499926313,0.362210354,0.000017611,0.000040207,-0.926390536,0.546281409
0.432500,-0.000420000,-0.056584518,0.034888271,-0.310851000,-0.056584518,0.049502710,8.504395182e-05,5.617566826e-05,1,1,0.300496107,-0.000000166,0.000000429,-0.800935323,0.499926313,0.364488178,0.000018379,0.000041694,-0.931001409,0.547769142
0.435000,-0.000420000,-0.056584518,0.034888271,-0.310851000,-0.056584518,0.050043353,8.504395182e-05,5.623743517e-05,1,1,0.300496107,-0.000000166,0.000000429,-0.800935323,0.499926313,0.366745585,0.000019150,0.000043170,-0.935569542,0.549228048
0.437500,-0.000420000,-0.056584518,0.034888271,-0.310851000,-0.056584518,0.050580027,8.504395182e-05,5.621107066e-05,1,1,0.300496107,-0.000000166,0.000000429,-0.800935323,0.499926313,0.368978592,0.000019921,0.000044631,-0.940086869,0.550655750
0.440000,-0.000420000,-0.056584518,0.034888271,-0.310851000,-0.056584518,0.051111704,8.504395182e-05,5.609647702e-05,1,1,0.300496107,-0.000000166,0.000000429,-0.800935323,0.499926313,0.371183277,0.000020691,0.000046076,-0.944545447,0.552049983
0.442500,-0.000420000,-0.056584518,0.034888271,-0.310851000,-0.056584518,0.051637355,8.504395182e-05,5.589371626e-05,1,1,0.300496107,-0.000000166,0.000000429,-0.800935323,0.499926313,0.373355774,0.000021459,0.000047502,-0.948937460,0.553408603
0.445000,-0.000420000,-0.056584518,0.034888271,-0.310851000,-0.056584518,0.052155954,8.504395182e-05,5.560300938e-05,1,1,0.300496107,-0.000000166,0.000000429,-0.800935323,0.499926313,0.375492286,0.000022223,0.000048906,-0.953255233,0.554729580
0.447500,-0.000420000,-0.056584518,0.034888271,-0.310851000,-0.056584518,0.052666483,8.504395182e-05,5.522473525e-05,1,1,0.300496107,-0.000000166,0.000000429,-0.800935323,0.499926313,0.377589086,0.000022981,0.000050287,-0.957491239,0.556010998
0.450000,-0.000420000,-0.056584518,0.034888271,-0.310851000,-0.056584518,0.053167931,8.504395182e-05,5.475942978e-05,1,1,0.300496107,-0.000000166,0.000000429,-0.800935323,0.499926313,0.379642523,0.000023732,0.000051641,-0.961638108,0.557251055
0.452500,-0.000420000,-0.056584518,0.034888271,-0.310851000,-0.056584518,0.053659296,8.504395182e-05,5.420778452e-05,1,1,0.300496107,-0.000000166,0.000000429,-0.800935323,0.499926313,0.381649022,0.000024474,0.000052967,-0.965688636,0.558448057
0.455000,-0.000420000,-0.056584518,0.034888271,-0.310851000,-0.056584518,0.054139589,8.504395182e-05,5.357064511e-05,1,1,0.300496107,-0.000000166,0.000000429,-0.800935323,0.499926313,0.383605096,0.000025205,0.000054262,-0.969635794,0.559600422
0.457500,-0.000420000,-0.056584518,0.034888271,-0.310851000,-0.056584518,0.054607834,8.504395182e-05,5.284901003e-05,1,1,0.300496107,-0.000000166,0.000000429,-0.800935323,0.499926313,0.385507340,0.000025924,0.000055524,-0.973472731,0.560706669
0.460000,-0.000420000,-0.056584518,0.034888271,-0.310851000,-0.056584518,0.055063071,8.504395182e-05,5.204402867e-05,1,1,0.300496107,-0.000000166,0.000000429,-0.800935323,0.499926313,0.387352443,0.000026628,0.000056751,-0.977192785,0.561765423
0.462500,-0.000420000,-0.056584518,0.034888271,-0.310851000,-0.056584518,0.055504361,8.504395182e-05,9.988943052e-05,1,1,0.300496107,-0.000000166,0.000000429,-0.800935323,0.499926313,0.388933149,0.000027227,0.000057796,-0.980385941,0.562697020
0.465000,-0.000420000,-0.056584518,0.034888271,-0.310851000,-0.056584518,0.055930781,8.504395182e-05,5.378261272e-05,1,1,0.300496107,-0.000000166,0.000000429,-0.800935323,0.499926313,0.390834529,0.000027969,0.000059060,-0.984217037,0.563773901
0.467500,-0.000420000,-0.056584518,0.034888271,-0.310851000,-0.056584518,0.056341433,8.504395182e-05,9.510849018e-05,1,1,0.300496107,-0.000000166,0.000000429,-0.800935323,0.499926313,0.392311610,0.000028540,0.000060040,-0.987198216,0.564623691
0.470000,-0.000420000,-0.056584518,0.034888271,-0.310851000,-0.056584518,0.056735442,8.504395182e-05,9.958316274e-05,1,1,0.300496107,-0.000000166,0.000000429,-0.800935323,0.499926313,0.393865320,0.000029147,0.000061068,-0.990333478,0.565516997
0.472500,-0.000420000,-0.056584518,0.034888271,-0.310851000,-0.056584518,0.057111959,8.504395182e-05,9.743055437e-05,1,1,0.300496107,-0.000000166,0.000000429,-0.800935323,0.499926313,0.395372913,0.000029743,0.000062067,-0.993374098,0.566373877
0.475000,-0.000420000,-0.056584518,0.034888271,-0.310851000,-0.056584518,0.057470164,8.504395182e-05,9.396670922e-05,1,1,0.300496107,-0.000000166,0.000000429,-0.800935323,0.499926313,0.396810556,0.000030316,0.000063023,-0.996272072,0.567179581
0.477500,-0.000420000,-0.056584518,0.034888271,-0.310851000,-0.056584518,0.057809267,8.504395182e-05,9.012992108e-05,1,1,0.300496107,-0.000000166,0.000000429,-0.800935323,0.499926313,0.398171944,0.000030863,0.000063931,-0.999014757,0.567930821
0.480000,-0.000420000,-0.056584518,0.034888271,-0.310851000,-0.056584518,0.058128508,8.504395182e-05,8.609014350e-05,1,1,0.300496107,-0.000000166,0.000000429,-0.800935323,0.499926313,0.399453949,0.000031384,0.000064789,-1.001595890,0.568626376
0.482500,-0.000420000,-0.056584518,0.034888271,-0.310851000,-0.056584518,0.058427164,8.504395182e-05,8.188275948e-05,1,1,0.300496107,-0.000000166,0.000000429,-0.800935323,0.499926313,0.400654100,0.000031875,0.000065595,-1.004010524,0.569265442
0.485000,-0.000420000,-0.056584518,0.034888271,-0.310851000,-0.056584518,0.058704543,8.504395182e-05,7.751981937e-05,1,1,0.300496107,-0.000000166,0.000000429,-0.800935323,0.499926313,0.401770139,0.000032336,0.000066348,-1.006254143,0.569847345
0.487500,-0.000420000,-0.056584518,0.034888271,-0.310851000,-0.056584518,0.058959993,8.504395182e-05,7.300955628e-05,1,1,0.300496107,-0.000000166,0.000000429,-0.800935323,0.499926313,0.402799945,0.000032766,0.000067048,-1.008322509,0.570371488
0.490000,-0.000420000,-0.056584518,0.034888271,-0.310851000,-0.056584518,0.059192901,8.504395182e-05,6.835980521e-05,1,1,0.300496107,-0.000000166,0.000000429,-0.800935323,0.499926313,0.403741524,0.000033162,0.000067691,-1.010211640,0.570837339
0.492500,-0.000420000,-0.056584518,0.034888271,-0.310851000,-0.056584518,0.059402693,8.504395182e-05,6.357860053e-05,1,1,0.300496107,-0.000000166,0.000000429,-0.800935323,0.499926313,0.404593007,0.000033524,0.000068277,-1.011917813,0.571244427
0.495000,-0.000420000,-0.056584518,0.034888271,-0.310851000,-0.056584518,0.059588837,8.504395182e-05,5.867428105e-05,1,1,0.300496107,-0.000000166,0.000000429,-0.800935323,0.499926313,0.405352652,0.000033851,0.000068805,-1.013437562,0.571592338
0.497500,-0.000420000,-0.056584518,0.034888271,-0.310851000,-0.056584518,0.059750845,8.504395182e-05,5.365551454e-05,1,1,0.300496107,-0.000000166,0.000000429,-0.800935323,0.499926313,0.406018848,0.000034141,0.000069274,-1.014767683,0.571880717
0.500000,-0.000420000,-0.056584518,0.034888271,-0.310851000,-0.056584518,0.059888271,8.504395182e-05,9.054272225e-05,1,1,0.300496107,-0.000000166,0.000000429,-0.800935323,0.499926313,0.406416620,0.000034311,0.000069550,-1.015564652,0.572065740
0.502500,-0.000420000,-0.056584518,0.034888271,-0.310851000,-0.056584518,0.060000720,8.504395182e-05,9.556571952e-05,1,1,0.300496107,-0.000000166,0.000000429,-0.800935323,0.499926313,0.406840818,0.000034492,0.000069843,-1.016415029,0.572267068
0.505000,-0.000420000,-0.056584518,0.034888271,-0.310851000,-0.056584518,0.060087839,8.504395182e-05,8.710030197e-05,1,1,0.300496107,-0.000000166,0.000000429,-0.800935323,0.499926313,0.407219483,0.000034656,0.000070106,-1.017172597,0.572439375
0.507500,-0.000420000,-0.056584518,0.034888271,-0.310851000,-0.056584518,0.060149325,8.504395182e-05,7.286062437e-05,1,1,0.300496107,-0.000000166,0.000000429,-0.800935323,0.499926313,0.407521853,0.000034791,0.000070320,-1.017775064,0.572563554
0.510000,-0.000420000,-0.056584518,0.034888271,-0.310851000,-0.056584518,0.060184927,8.504395182e-05,5.609501286e-05,1,1,0.300496107,-0.000000166,0.000000429,-0.800935323,0.499926313,0.407734529,0.000034889,0.000070478,-1.018195391,0.572631488
0.512500,-0.000420000,-0.056584518,0.034888271,-0.310851000,-0.056584518,0.060194441,8.504395182e-05,6.559584279e-05,1,1,0.300496107,-0.000000166,0.000000429,-0.800935323,0.499926313,0.407734529,0.000034889,0.000070478,-1.018195391,0.572631488
0.515000,-0.000420000,-0.056584518,0.034888271,-0.310851000,-0.056584518,0.060177714,8.504395182e-05,4.889504167e-05,1,1,0.300496107,-0.000000166,0.000000429,-0.800935323,0.499926313,0.407734529,0.000034889,0.000070478,-1.018195391,0.572631488
0.517500,-0.000420000,-0.056584518,0.034888271,-0.310851000,-0.056584518,0.060134648,8.504395182e-05,6.529636921e-06,1,1,0.300496107,-0.000000166,0.000000429,-0.800935323,0.499926313,0.407734529,0.000034889,0.000070478,-1.018195391,0.572631488
0.520000,-0.000420000,-0.056584518,0.034888271,-0.310851000,-0.056584518,0.060065195,8.504395182e-05,6.380200190e-05,1,1,0.300496107,-0.000000166,0.000000429,-0.800935323,0.499926313,0.407734529,0.000034889,0.000070478,-1.018195391,0.572631488
0.522500,-0.000420000,-0.056584518,0.034888271,-0.310851000,-0.056584518,0.059969361,8.504395182e-05,5.628344946e-05,1,1,0.300496107,-0.000000166,0.000000429,-0.800935323,0.499926313,0.407350701,0.000034752,0.000070253,-1.017403207,0.572325498
0.525000,-0.000420000,-0.056584518,0.034888271,-0.310851000,-0.056584518,0.059847206,8.504395182e-05,6.419892405e-05,1,1,0.300496107,-0.000000166,0.000000429,-0.800935323,0.499926313,0.406923616,0.000034593,0.000070002,-1.016525103,0.571993979
0.527500,-0.000420000,-0.056584518,0.034888271,-0.310851000,-0.056584518,0.059698843,8.504395182e-05,7.854838755e-05,1,1,0.300496107,-0.000000166,0.000000429,-0.800935323,0.499926313,0.406419584,0.000034403,0.000069702,-1.015491629,0.571615544
0.530000,-0.000420000,-0.056584518,0.034888271,-0.310851000,-0.056584518,0.059524442,8.504395182e-05,9.554041410e-05,1,1,0.300496107,-0.000000166,0.000000429,-0.800935323,0.499926313,0.405824622,0.000034175,0.000069343,-1.014274086,0.571181308
0.532500,-0.000420000,-0.056584518,0.034888271,-0.310851000,-0.056584518,0.059324225,8.504395182e-05,3.722627417e-05,1,1,0.300496107,-0.000000166,0.000000429,-0.800935323,0.499926313,0.404847563,0.000033801,0.000068762,-1.012274150,0.570451482
0.535000,-0.000420000,-0.056584518,0.034888271,-0.310851000,-0.056584518,0.059098471,8.504395182e-05,9.989816978e-05,1,1,0.300496107,-0.000000166,0.000000429,-0.800935323,0.499926313,0.404228291,0.000033564,0.000068386,-1.011007965,0.570005499
0.537500,-0.000420000,-0.056584518,0.034888271,-0.310851000,-0.056584518,0.058847511,8.504395182e-05,4.714384441e-05,1,1,0.300496107,-0.000000166,0.000000429,-0.800935323,0.499926313,0.403072079,0.000033120,0.000067686,-1.008645820,0.569170154
0.540000,-0.000420000,-0.056584518,0.034888271,-0.310851000,-0.056584518,0.058571732,8.504395182e-05,4.237471958e-05,1,1,0.300496107,-0.000000166,0.000000429,-0.800935323,0.499926313,0.402002275,0.000032711,0.000067038,-1.006459885,0.568394086
0.542500,-0.000420000,-0.056584518,0.034888271,-0.310851000,-0.056584518,0.058271577,8.504395182e-05,4.597645691e-05,1,1,0.300496107,-0.000000166,0.000000429,-0.800935323,0.499926313,0.400867389,0.000032278,0.000066346,-1.004142493,0.567581168
0.545000,-0.000420000,-0.056584518,0.034888271,-0.310851000,-0.056584518,0.057947542,8.504395182e-05,5.098318262e-05,1,1,0.300496107,-0.000000166,0.000000429,-0.800935323,0.499926313,0.399641616,0.000031811,0.000065593,-1.001641602,0.566714829
0.547500,-0.000420000,-0.056584518,0.034888271,-0.310851000,-0.056584518,0.057600174,8.504395182e-05,5.616101397e-05,1,1,0.300496107,-0.000000166,0.000000429,-0.800935323,0.499926313,0.398321591,0.000031308,0.000064777,-0.998950512,0.565792621
0.550000,-0.000420000,-0.056584518,0.034888271,-0.310851000,-0.056584518,0.057230078,8.504395182e-05,6.128350584e-05,1,1,0.300496107,-0.000000166,0.000000429,-0.800935323,0.499926313,0.396908073,0.000030770,0.000063899,-0.996070804,0.564814647
0.552500,-0.000420000,-0.056584518,0.034888271,-0.310851000,-0.056584518,0.056837907,8.504395182e-05,6.630161296e-05,1,1,0.300496107,-0.000000166,0.000000429,-0.800935323,0.499926313,0.395402701,0.000030199,0.000062960,-0.993005819,0.563781512
0.555000,-0.000420000,-0.056584518,0.034888271,-0.310851000,-0.056584518,0.056424370,8.504395182e-05,7.119764372e-05,1,1,0.300496107,-0.000000166,0.000000429,-0.800935323,0.499926313,0.393807417,0.000029596,0.000061960,-0.989759507,0.562693967
0.557500,-0.000420000,-0.056584518,0.034888271,-0.310851000,-0.056584518,0.055990224,8.504395182e-05,7.595953648e-05,1,1,0.300496107,-0.000000166,0.000000429,-0.800935323,0.499926313,0.392124376,0.000028963,0.000060902,-0.986336233,0.561552849
0.560000,-0.000420000,-0.056584518,0.034888271,-0.310851000,-0.056584518,0.055536277,8.504395182e-05,8.057632652e-05,1,1,0.300496107,-0.000000166,0.000000429,-0.800935323,0.499926313,0.390355918,0.000028300,0.000059786,-0.982740744,0.560359073
0.562500,-0.000420000,-0.056584518,0.034888271,-0.310851000,-0.056584518,0.055063386,8.504395182e-05,8.503735000e-05,1,1,0.300496107,-0.000000166,0.000000429,-0.800935323,0.499926313,0.388504579,0.000027610,0.000058615,-0.978978168,0.559113636
0.565000,-0.000420000,-0.056584518,0.034888271,-0.310851000,-0.056584518,0.054572458,8.504395182e-05,8.933210883e-05,1,1,0.300496107,-0.000000166,0.000000429,-0.800935323,0.499926313,0.386573086,0.000026895,0.000057389,-0.975054021,0.557817624
0.567500,-0.000420000,-0.056584518,0.034888271,-0.310851000,-0.056584518,0.054064443,8.504395182e-05,9.345025284e-05,1,1,0.300496107,-0.000000166,0.000000429,-0.800935323,0.499926313,0.384564363,0.000026156,0.000056111,-0.970974211,0.556472218
0.570000,-0.000420000,-0.056584518,0.034888271,-0.310851000,-0.056584518,0.053540340,8.504395182e-05,9.738158298e-05,1,1,0.300496107,-0.000000166,0.000000429,-0.800935323,0.499926313,0.382481531,0.000025396,0.000054782,-0.966745041,0.555078701
0.572500,-0.000420000,-0.056584518,0.034888271,-0.310851000,-0.056584518,0.053001190,8.504395182e-05,3.427415912e-05,1,1,0.300496107,-0.000000166,0.000000429,-0.800935323,0.499926313,0.380057199,0.000024512,0.000053235,-0.961826259,0.553455512
0.575000,-0.000420000,-0.056584518,0.034888271,-0.310851000,-0.056584518,0.052448080,8.504395182e-05,9.275082683e-05,1,1,0.300496107,-0.000000166,0.000000429,-0.800935323,0.499926313,0.378058815,0.000023798,0.000051952,-0.957768604,0.552118012
0.577500,-0.000420000,-0.056584518,0.034888271,-0.310851000,-0.056584518,0.051882134,8.504395182e-05,3.670026917e-05,1,1,0.300496107,-0.000000166,0.000000429,-0.800935323,0.499926313,0.375530834,0.000022893,0.000050329,-0.952641628,0.550429028
0.580000,-0.000420000,-0.056584518,0.034888271,-0.310851000,-0.056584518,0.051304519,8.504395182e-05,9.833584714e-05,1,1,0.300496107,-0.000000166,0.000000429,-0.800935323,0.499926313,0.373425963,0.000022155,0.000048973,-0.948369430,0.549018719
0.582500,-0.000420000,-0.056584518,0.034888271,-0.310851000,-0.056584518,0.050716440,8.504395182e-05,3.961183999e-05,1,1,0.300496107,-0.000000166,0.000000429,-0.800935323,0.499926313,0.370770521,0.000021221,0.000047261,-0.942986462,0.547244147
0.585000,-0.000420000,-0.056584518,0.034888271,-0.310851000,-0.056584518,0.050119136,8.504395182e-05,3.631946986e-05,1,1,0.300496107,-0.000000166,0.000000429,-0.800935323,0.499926313,0.368291632,0.000020361,0.000045657,-0.937961369,0.545588257
0.587500,-0.000420000,-0.056584518,0.034888271,-0.310851000,-0.056584518,0.049513883,8.504395182e-05,3.711492486e-05,1,1,0.300496107,-0.000000166,0.000000429,-0.800935323,0.499926313,0.365783750,0.000019501,0.000044030,-0.932878074,0.543911077
0.590000,-0.000420000,-0.056584518,0.034888271,-0.310851000,-0.056584518,0.048901990,8.504395182e-05,3.813453623e-05,1,1,0.300496107,-0.000000166,0.000000429,-0.800935323,0.499926313,0.363235701,0.000018636,0.000042375,-0.927714163,0.542204017
0.592500,-0.000420000,-0.056584518,0.034888271,-0.310851000,-0.056584518,0.048284796,8.504395182e-05,3.908384687e-05,1,1,0.300496107,-0.000000166,0.000000429,-0.800935323,0.499926313,0.360651346,0.000017769,0.000040693,-0.922477406,0.540468684
0.595000,-0.000420000,-0.056584518,0.034888271,-0.310851000,-0.056584518,0.047663670,8.504395182e-05,3.993724591e-05,1,1,0.300496107,-0.000000166,0.000000429,-0.800935323,0.499926313,0.358035898,0.000016901,0.000038988,-0.917178277,0.538707646
0.597500,-0.000420000,-0.056584518,0.034888271,-0.310851000,-0.056584518,0.047040008,8.504395182e-05,4.068943260e-05,1,1,0.300496107,-0.000000166,0.000000429,-0.800935323,0.499926313,0.355394876,0.000016035,0.000037265,-0.911827867,0.536923740
0.600000,-0.000420000,-0.056584518,0.034888271,-0.310851000,-0.056584518,0.046415234,8.504395182e-05,4.133665446e-05,1,1,0.300496107,-0.000000166,0.000000429,-0.800935323,0.499926313,0.352734030,0.000015173,0.000035527,-0.906437729,0.535120030
0.602500,-0.000420000,-0.056584518,0.034888271,-0.310851000,-0.056584518,0.045790793,8.504395182e-05,4.187528331e-05,1,1,0.300496107,-0.000000166,0.000000429,-0.800935323,0.499926313,0.350059330,0.000014318,0.000033777,-0.901019871,0.533299814
0.605000,-0.000420000,-0.056584518,0.034888271,-0.310851000,-0.056584518,0.045168152,8.504395182e-05,4.230170287e-05,1,1,0.300496107,-0.000000166,0.000000429,-0.800935323,0.499926313,0.347376966,0.000013471,0.000032021,-0.895586746,0.531466637
0.607500,-0.000420000,-0.056584518,0.034888271,-0.310851000,-0.056584518,0.044548802,8.504395182e-05,4.261229461e-05,1,1,0.300496107,-0.000000166,0.000000429,-0.800935323,0.499926313,0.344693351,0.000012634,0.000030263,-0.890151259,0.529624303
0.610000,-0.000420000,-0.056584518,0.034888271,-0.310851000,-0.056584518,0.043934248,8.504395182e-05,4.280343083e-05,1,1,0.300496107,-0.000000166,0.000000429,-0.800935323,0.499926313,0.342015112,0.000011810,0.000028506,-0.884726761,0.527776889
0.612500,-0.000420000,-0.056584518,0.034888271,-0.310851000,-0.056584518,0.043326015,8.504395182e-05,4.287146760e-05,1,1,0.300496107,-0.000000166,0.000000429,-0.800935323,0.499926313,0.339349093,0.000011000,0.000026757,-0.879327042,0.525928751
0.615000,-0.000420000,-0.056584518,0.034888271,-0.310851000,-0.056584518,0.042725642,8.504395182e-05,4.281273683e-05,1,1,0.300496107,-0.000000166,0.000000429,-0.800935323,0.499926313,0.336702348,0.000010207,0.000025018,-0.873966333,0.524084540
0.617500,-0.000420000,-0.056584518,0.034888271,-0.310851000,-0.056584518,0.042134685,8.504395182e-05,4.262353666e-05,1,1,0.300496107,-0.000000166,0.000000429,-0.800935323,0.499926313,0.334082141,0.000009433,0.000023296,-0.868659295,0.522249207
0.620000,-0.000420000,-0.056584518,0.034888271,-0.310851000,-0.056584518,0.041554710,8.504395182e-05,4.230012030e-05,1,1,0.300496107,-0.000000166,0.000000429,-0.800935323,0.499926313,0.331495942,0.000008679,0.000021595,-0.863421015,0.520428015
0.622500,-0.000420000,-0.056584518,0.034888271,-0.310851000,-0.056584518,0.040987296,8.504395182e-05,4.183868182e-05,1,1,0.300496107,-0.000000166,0.000000429,-0.800935323,0.499926313,0.328951418,0.000007946,0.000019921,-0.858266997,0.518626542
0.625000,-0.000420000,-0.056584518,0.034888271,-0.310851000,-0.056584518,0.040434036,8.504395182e-05,4.123533815e-05,1,1,0.300496107,-0.000000166,0.000000429,-0.800935323,0.499926313,0.326456435,0.000007238,0.000018278,-0.853213158,0.516850693
0.627500,-0.000420000,-0.056584518,0.034888271,-0.310851000,-0.056584518,0.039896532,8.504395182e-05,4.048610573e-05,1,1,0.300496107,-0.000000166,0.000000429,-0.800935323,0.499926313,0.324019052,0.000006555,0.000016672,-0.848275818,0.515106696
0.630000,-0.000420000,-0.056584518,0.034888271,-0.310851000,-0.056584518,0.039376401,8.504395182e-05,9.861462622e-05,1,1,0.300496107,-0.000000166,0.000000429,-0.800935323,0.499926313,0.321923107,0.000005984,0.000015297,-0.844023493,0.513573143
0.632500,-0.000420000,-0.056584518,0.034888271,-0.310851000,-0.056584518,0.038875272,8.504395182e-05,4.314283324e-05,1,1,0.300496107,-0.000000166,0.000000429,-0.800935323,0.499926313,0.319378794,0.000005285,0.000013624,-0.838869524,0.511724248
0.635000,-0.000420000,-0.056584518,0.034888271,-0.310851000,-0.056584518,0.038394790,8.504395182e-05,9.283124623e-05,1,1,0.300496107,-0.000000166,0.000000429,-0.800935323,0.499926313,0.317404989,0.000004760,0.000012327,-0.834865084,0.510265642
0.637500,-0.000420000,-0.056584518,0.034888271,-0.310851000,-0.056584518,0.037936618,8.504395182e-05,9.831439418e-05,1,1,0.300496107,-0.000000166,0.000000429,-0.800935323,0.499926313,0.315322340,0.000004210,0.000010962,-0.830639972,0.508713472
0.640000,-0.000420000,-0.056584518,0.034888271,-0.310851000,-0.056584518,0.037502446,8.504395182e-05,9.537010922e-05,1,1,0.300496107,-0.000000166,0.000000429,-0.800935323,0.499926313,0.313302073,0.000003680,0.000009637,-0.826541874,0.507201053
0.642500,-0.000420000,-0.056584518,0.034888271,-0.310851000,-0.056584518,0.037093992,8.504395182e-05,9.053420261e-05,1,1,0.300496107,-0.000000166,0.000000429,-0.800935323,0.499926313,0.311383377,0.000003183,0.000008379,-0.822650065,0.505759845
0.645000,-0.000420000,-0.056584518,0.034888271,-0.310851000,-0.056584518,0.036713020,8.504395182e-05,8.499342679e-05,1,1,0.300496107,-0.000000166,0.000000429,-0.800935323,0.499926313,0.309581251,0.000002720,0.000007195,-0.818994955,0.504402748
0.647500,-0.000420000,-0.056584518,0.034888271,-0.310851000,-0.056584518,0.036361349,8.504395182e-05,7.895204092e-05,1,1,0.300496107,-0.000000166,0.000000429,-0.800935323,0.499926313,0.307906476,0.000002293,0.000006094,-0.815598492,0.503139522
0.650000,-0.000420000,-0.056584518,0.034888271,-0.310851000,-0.056584518,0.036040880,8.504395182e-05,7.243008532e-05,1,1,0.300496107,-0.000000166,0.000000429,-0.800935323,0.499926313,0.306369381,0.000001905,0.000005082,-0.812481750,0.501979698
0.652500,-0.000420000,-0.056584518,0.034888271,-0.310851000,-0.056584518,0.035753630,8.504395182e-05,6.540757740e-05,1,1,0.300496107,-0.000000166,0.000000429,-0.800935323,0.499926313,0.304980660,0.000001556,0.000004166,-0.809666554,0.500933184
0.655000,-0.000420000,-0.056584518,0.034888271,-0.310851000,-0.056584518,0.035501790,8.504395182e-05,5.784722946e-05,1,1,0.300496107,-0.000000166,0.000000429,-0.800935323,0.499926313,0.303751710,0.000001249,0.000003352,-0.807176177,0.500010516
0.657500,-0.000420000,-0.056584518,0.034888271,-0.310851000,-0.056584518,0.035287813,8.504395182e-05,4.969161707e-05,1,1,0.300496107,-0.000000166,0.000000429,-0.800935323,0.499926313,0.302695034,0.000000985,0.000002651,-0.805036152,0.499223154
0.660000,-0.000420000,-0.056584518,0.034888271,-0.310851000,-0.056584518,0.035114591,8.504395182e-05,9.552310330e-05,1,1,0.300496107,-0.000000166,0.000000429,-0.800935323,0.499926313,0.302089719,0.000000838,0.000002250,-0.803808238,0.498764750
0.662500,-0.000420000,-0.056584518,0.034888271,-0.310851000,-0.056584518,0.034985829,8.504395182e-05,9.620919980e-05,1,1,0.300496107,-0.000000166,0.000000429,-0.800935323,0.499926313,0.301480248,0.000000690,0.000001846,-0.802572158,0.498301816
0.665000,-0.000420000,-0.056584518,0.034888271,-0.310851000,-0.056584518,0.034907098,8.504395182e-05,7.507627671e-05,1,1,0.300496107,-0.000000166,0.000000429,-0.800935323,0.499926313,0.301002677,0.000000572,0.000001529,-0.801605376,0.497945844
0.667500,-0.000420000,-0.056584518,0.034893699,-0.310851000,-0.056584518,0.034888271,7.961700944e-05,9.390147130e-05,1,1,0.300496107,-0.000000166,0.000000429,-0.800935323,0.499926313,0.301002677,0.000000572,0.000001529,-0.801605376,0.497945844
0.670000,-0.000420000,-0.056584518,0.034954308,-0.310851000,-0.056584518,0.034888271,1.901977268e-05,9.390147130e-05,1,1,0.300496107,-0.000000166,0.000000429,-0.800935323,0.499926313,0.301002677,0.000000572,0.000001529,-0.801605376,0.497945844
0.672500,-0.000420000,-0.056584518,0.035069659,-0.310851000,-0.056584518,0.034888271,9.635011561e-05,9.390147130e-05,1,1,0.300496107,-0.000000166,0.000000429,-0.800935323,0.499926313,0.301002677,0.000000572,0.000001529,-0.801605376,0.497945844
0.675000,-0.000420000,-0.056584518,0.035233917,-0.310851000,-0.056584518,0.034888271,4.815818408e-05,9.390147130e-05,1,1,0.301491512,-0.000000385,0.000001072,-0.802970052,0.500758480,0.301002677,0.000000572,0.000001529,-0.801605376,0.497945844
0.677500,-0.000420000,-0.056584518,0.035443895,-0.310851000,-0.056584518,0.034888271,4.785794079e-05,9.390147130e-05,1,1,0.302477040,-0.000000616,0.000001704,-0.804980143,0.501578648,0.301002677,0.000000572,0.000001529,-0.801605376,0.497945844
0.680000,-0.000420000,-0.056584518,0.035697364,-0.310851000,-0.056584518,0.034888271,5.594748238e-05,9.390147130e-05,1,1,0.303625101,-0.000000888,0.000002441,-0.807320892,0.502529057,0.301002677,0.000000572,0.000001529,-0.801605376,0.497945844
0.682500,-0.000420000,-0.056584518,0.035992572,-0.310851000,-0.056584518,0.034888271,6.526234856e-05,9.390147130e-05,1,1,0.304959665,-0.000001207,0.000003297,-0.810041307,0.503628007,0.301002677,0.000000572,0.000001529,-0.801605376,0.497945844
0.685000,-0.000420000,-0.056584518,0.036328029,-0.310851000,-0.056584518,0.034888271,7.453238401e-05,9.390147130e-05,1,1,0.306478172,-0.000001574,0.000004272,-0.813136047,0.504871663,0.301002677,0.000000572,0.000001529,-0.801605376,0.497945844
0.687500,-0.000420000,-0.056584518,0.036702395,-0.310851000,-0.056584518,0.034888271,8.354958904e-05,9.390147130e-05,1,1,0.308173663,-0.000001987,0.000005361,-0.816590799,0.506252428,0.301002677,0.000000572,0.000001529,-0.801605376,0.497945844
0.690000,-0.000420000,-0.056584518,0.037114421,-0.310851000,-0.056584518,0.034888271,9.228951469e-05,9.390147130e-05,1,1,0.310038633,-0.000002448,0.000006559,-0.820390155,0.507762148,0.301002677,0.000000572,0.000001529,-0.801605376,0.497945844
0.692500,-0.000420000,-0.056584518,0.037562902,-0.310851000,-0.056584518,0.034888271,4.458358020e-05,9.390147130e-05,1,1,0.312324852,-0.000003027,0.000008024,-0.825044398,0.509601412,0.301002677,0.000000572,0.000001529,-0.801605376,0.497945844
0.695000,-0.000420000,-0.056584518,0.038046662,-0.310851000,-0.056584518,0.034888271,9.874101005e-05,9.390147130e-05,1,1,0.314294073,-0.000003521,0.000009291,-0.829056198,0.511174588,0.301002677,0.000000572,0.000001529,-0.801605376,0.497945844
0.697500,-0.000420000,-0.056584518,0.038564526,-0.310851000,-0.056584518,0.034888271,5.115039941e-05,9.390147130e-05,1,1,0.316876660,-0.000004191,0.000010948,-0.834312233,0.513221733,0.301002677,0.000000572,0.000001529,-0.801605376,0.497945844
0.700000,-0.000420000,-0.056584518,0.039115311,-0.310851000,-0.056584518,0.034888271,5.037972652e-05,9.390147130e-05,1,1,0.319382556,-0.000004847,0.000012557,-0.839412334,0.515191344,0.301002677,0.000000572,0.000001529,-0.801605376,0.497945844
0.702500,-0.000420000,-0.056584518,0.039697820,-0.310851000,-0.056584518,0.034888271,5.314436624e-05,9.390147130e-05,1,1,0.322003278,-0.000005543,0.000014242,-0.844745213,0.517233382,0.301002677,0.000000572,0.000001529,-0.801605376,0.497945844
0.705000,-0.000420000,-0.056584518,0.040310832,-0.310851000,-0.056584518,0.034888271,5.608904989e-05,9.390147130e-05,1,1,0.324746826,-0.000006282,0.000016007,-0.850326667,0.519351713,0.301002677,0.000000572,0.000001529,-0.801605376,0.497945844
0.707500,-0.000420000,-0.056584518,0.040953100,-0.310851000,-0.056584518,0.034888271,5.895110819e-05,9.390147130e-05,1,1,0.327606898,-0.000007066,0.000017847,-0.856143667,0.521539043,0.301002677,0.000000572,0.000001529,-0.801605376,0.497945844
0.710000,-0.000420000,-0.056584518,0.041623346,-0.310851000,-0.056584518,0.034888271,6.170698134e-05,9.390147130e-05,1,1,0.330576043,-0.000007893,0.000019758,-0.862180885,0.523787302,0.301002677,0.000000572,0.000001529,-0.801605376,0.497945844
0.712500,-0.000420000,-0.056584518,0.042320260,-0.310851000,-0.056584518,0.034888271,6.435158690e-05,9.390147130e-05,1,1,0.333646687,-0.000008763,0.000021735,-0.868422762,0.526088465,0.301002677,0.000000572,0.000001529,-0.801605376,0.497945844
0.715000,-0.000420000,-0.056584518,0.043042498,-0.310851000,-0.056584518,0.034888271,6.688134437e-05,9.390147130e-05,1,1,0.336811227,-0.000009676,0.000023774,-0.874853681,0.528434645,0.301002677,0.000000572,0.000001529,-0.801605376,0.497945844
0.717500,-0.000420000,-0.056584518,0.043788684,-0.310851000,-0.056584518,0.034888271,6.929290636e-05,9.390147130e-05,1,1,0.340062043,-0.000010630,0.000025870,-0.881458006,0.530818123,0.301002677,0.000000572,0.000001529,-0.801605376,0.497945844
0.720000,-0.000420000,-0.056584518,0.044557405,-0.310851000,-0.056584518,0.034888271,7.158308895e-05,9.390147130e-05,1,1,0.343391515,-0.000011625,0.000028017,-0.888220111,0.533231371,0.301002677,0.000000572,0.000001529,-0.801605376,0.497945844
0.722500,-0.000420000,-0.056584518,0.045347218,-0.310851000,-0.056584518,0.034888271,7.374888655e-05,9.390147130e-05,1,1,0.346792035,-0.000012660,0.000030212,-0.895124408,0.535667079,0.301002677,0.000000572,0.000001529,-0.801605376,0.497945844
0.725000,-0.000420000,-0.056584518,0.046156644,-0.310851000,-0.056584518,0.034888271,7.578748770e-05,9.390147130e-05,1,1,0.350256019,-0.000013734,0.000032450,-0.902155368,0.538118173,0.301002677,0.000000572,0.000001529,-0.801605376,0.497945844
0.727500,-0.000420000,-0.056584518,0.046984174,-0.310851000,-0.056584518,0.034888271,7.769628599e-05,9.390147130e-05,1,1,0.353775922,-0.000014846,0.000034725,-0.909297557,0.540577829,0.301002677,0.000000572,0.000001529,-0.801605376,0.497945844
0.730000,-0.000420000,-0.056584518,0.047828269,-0.310851000,-0.056584518,0.034888271,7.947288783e-05,9.390147130e-05,1,1,0.357344250,-0.000015994,0.000037034,-0.916535655,0.543039494,0.301002677,0.000000572,0.000001529,-0.801605376,0.497945844
0.732500,-0.000420000,-0.056584518,0.048687360,-0.310851000,-0.056584518,0.034888271,8.111511727e-05,9.390147130e-05,1,1,0.360953568,-0.000017178,0.000039371,-0.923854480,0.545496890,0.301002677,0.000000572,0.000001529,-0.801605376,0.497945844
0.735000,-0.000420000,-0.056584518,0.049559852,-0.310851000,-0.056584518,0.034888271,8.262101869e-05,9.390147130e-05,1,1,0.364596518,-0.000018395,0.000041732,-0.931239016,0.547944029,0.301002677,0.000000572,0.000001529,-0.801605376,0.497945844
0.737500,-0.000420000,-0.056584518,0.050444125,-0.310851000,-0.056584518,0.034888271,8.398885842e-05,9.390147130e-05,1,1,0.368265822,-0.000019643,0.000044113,-0.938674427,0.550375216,0.301002677,0.000000572,0.000001529,-0.801605376,0.497945844
0.740000,-0.000420000,-0.056584518,0.051338535,-0.310851000,-0.056584518,0.034888271,8.521712501e-05,9.390147130e-05,1,1,0.371954296,-0.000020922,0.000046508,-0.946146081,0.552785052,0.301002677,0.000000572,0.000001529,-0.801605376,0.497945844
0.742500,-0.000420000,-0.056584518,0.052241419,-0.310851000,-0.056584518,0.034888271,8.630452906e-05,9.390147130e-05,1,1,0.375654859,-0.000022229,0.000048915,-0.953639563,0.555168440,0.301002677,0.000000572,0.000001529,-0.801605376,0.497945844
0.745000,-0.000420000,-0.056584518,0.053151095,-0.310851000,-0.056584518,0.034888271,8.725000184e-05,9.390147130e-05,1,1,0.379360537,-0.000023562,0.000051328,-0.961140698,0.557520579,0.301002677,0.000000572,0.000001529,-0.801605376,0.497945844
0.747500,-0.000420000,-0.056584518,0.054065867,-0.310851000,-0.056584518,0.034888271,8.805269502e-05,9.390147130e-05,1,1,0.383064475,-0.000024919,0.000053743,-0.968635556,0.559836966,0.301002677,0.000000572,0.000001529,-0.801605376,0.497945844
0.750000,-0.000420000,-0.056584518,0.054984024,-0.310851000,-0.056584518,0.034888271,8.871197875e-05,9.390147130e-05,1,1,0.386759940,-0.000026298,0.000056156,-0.976110472,0.562113390,0.301002677,0.000000572,0.000001529,-0.801605376,0.497945844
0.752500,-0.000420000,-0.056584518,0.055903846,-0.310851000,-0.056584518,0.034888271,8.922744075e-05,9.390147130e-05,1,1,0.390440327,-0.000027696,0.000058563,-0.983552055,0.564345928,0.301002677,0.000000572,0.000001529,-0.801605376,0.497945844
0.755000,-0.000420000,-0.056584518,0.056823605,-0.310851000,-0.056584518,0.034888271,8.959888470e-05,9.390147130e-05,1,1,0.394099167,-0.000029110,0.000060959,-0.990947195,0.566530937,0.301002677,0.000000572,0.000001529,-0.801605376,0.497945844
0.757500,-0.000420000,-0.056584518,0.057741570,-0.310851000,-0.056584518,0.034888271,8.982632915e-05,9.390147130e-05,1,1,0.397730127,-0.000030539,0.000063342,-0.998283075,0.568665048,0.301002677,0.000000572,0.000001529,-0.801605376,0.497945844
0.760000,-0.000420000,-0.056584518,0.058656006,-0.310851000,-0.056584518,0.034888271,8.991000604e-05,9.390147130e-05,1,1,0.401327019,-0.000031980,0.000065706,-1.005547178,0.570745156,0.301002677,0.000000572,0.000001529,-0.801605376,0.497945844
0.762500,-0.000420000,-0.056584518,0.059565182,-0.310851000,-0.056584518,0.034888271,8.985035954e-05,9.390147130e-05,1,1,0.404883799,-0.000033429,0.000068049,-1.012727292,0.572768414,0.301002677,0.000000572,0.000001529,-0.801605376,0.497945844
0.765000,-0.000420000,-0.056584518,0.060467369,-0.310851000,-0.056584518,0.034888271,8.964804486e-05,9.390147130e-05,1,1,0.408394571,-0.000034884,0.000070367,-1.019811517,0.574732219,0.301002677,0.000000572,0.000001529,-0.801605376,0.497945844
0.767500,-0.000420000,-0.056584518,0.061360847,-0.310851000,-0.056584518,0.034888271,8.930392684e-05,9.390147130e-05,1,1,0.411853592,-0.000036341,0.000072655,-1.026788268,0.576634204,0.301002677,0.000000572,0.000001529,-0.801605376,0.497945844
0.770000,-0.000420000,-0.056584518,0.062243907,-0.310851000,-0.056584518,0.034888271,8.881907882e-05,9.390147130e-05,1,1,0.415255271,-0.000037798,0.000074911,-1.033646281,0.578472228,0.301002677,0.000000572,0.000001529,-0.801605376,0.497945844
0.772500,-0.000420000,-0.056584518,0.063114852,-0.310851000,-0.056584518,0.034888271,8.819478134e-05,9.390147130e-05,1,1,0.418594174,-0.000039251,0.000077131,-1.040374615,0.580244366,0.301002677,0.000000572,0.000001529,-0.801605376,0.497945844
0.775000,-0.000420000,-0.056584518,0.063972003,-0.310851000,-0.056584518,0.034888271,8.743252054e-05,9.390147130e-05,1,1,0.421865021,-0.000040698,0.000079312,-1.046962655,0.581948895,0.301002677,0.000000572,0.000001529,-0.801605376,0.497945844
0.777500,-0.000420000,-0.056584518,0.064813700,-0.310851000,-0.056584518,0.034888271,8.653398698e-05,9.390147130e-05,1,1,0.425062694,-0.000042135,0.000081450,-1.053400114,0.583584287,0.301002677,0.000000572,0.000001529,-0.801605376,0.497945844
0.780000,-0.000420000,-0.056584518,0.065638307,-0.310851000,-0.056584518,0.034888271,8.550107361e-05,9.390147130e-05,1,1,0.428182230,-0.000043558,0.000083542,-1.059677036,0.585149194,0.301002677,0.000000572,0.000001529,-0.801605376,0.497945844
0.782500,-0.000420000,-0.056584518,0.066444214,-0.310851000,-0.056584518,0.034888271,8.433587426e-05,9.390147130e-05,1,1,0.431218830,-0.000044965,0.000085585,-1.065783797,0.586642444,0.301002677,0.000000572,0.000001529,-0.801605376,0.497945844
0.785000,-0.000420000,-0.056584518,0.067229839,-0.310851000,-0.056584518,0.034888271,8.304068158e-05,9.390147130e-05,1,1,0.434167854,-0.000046351,0.000087577,-1.071711107,0.588063021,0.301002677,0.000000572,0.000001529,-0.801605376,0.497945844
0.787500,-0.000420000,-0.056584518,0.067993634,-0.310851000,-0.056584518,0.034888271,8.161798481e-05,9.390147130e-05,1,1,0.437024825,-0.000047714,0.000089514,-1.077450009,0.589410064,0.301002677,0.000000572,0.000001529,-0.801605376,0.497945844
0.790000,-0.000420000,-0.056584518,0.068734084,-0.310851000,-0.056584518,0.034888271,8.007046739e-05,9.390147130e-05,1,1,0.439785428,-0.000049050,0.000091393,-1.082991882,0.590682852,0.301002677,0.000000572,0.000001529,-0.801605376,0.497945844
0.792500,-0.000420000,-0.056584518,0.069449713,-0.310851000,-0.056584518,0.034888271,7.840100455e-05,9.390147130e-05,1,1,0.442445511,-0.000050356,0.000093211,-1.088328440,0.591880794,0.301002677,0.000000572,0.000001529,-0.801605376,0.497945844
0.795000,-0.000420000,-0.056584518,0.070139088,-0.310851000,-0.056584518,0.034888271,7.661266025e-05,9.390147130e-05,1,1,0.445001085,-0.000051628,0.000094967,-1.093451737,0.593003422,0.301002677,0.000000572,0.000001529,-0.801605376,0.497945844
0.797500,-0.000420000,-0.056584518,0.070800818,-0.310851000,-0.056584518,0.034888271,7.470868426e-05,9.390147130e-05,1,1,0.447448328,-0.000052864,0.000096657,-1.098354161,0.594050379,0.301002677,0.000000572,0.000001529,-0.801605376,0.497945844
0.800000,-0.000420000,-0.056584518,0.071433558,-0.310851000,-0.056584518,0.034888271,7.269250896e-05,9.390147130e-05,1,1,0.449783578,-0.000054059,0.000098279,-1.103028440,0.595021413,0.301002677,0.000000572,0.000001529,-0.801605376,0.497945844
0.802500,-0.000420000,-0.056584518,0.072036015,-0.310851000,-0.056584518,0.034888271,7.056774592e-05,9.390147130e-05,1,1,0.452003341,-0.000055210,0.000099830,-1.107467642,0.595916366,0.301002677,0.000000572,0.000001529,-0.801605376,0.497945844
0.805000,-0.000420000,-0.056584518,0.072606947,-0.310851000,-0.056584518,0.034888271,6.833818240e-05,9.390147130e-05,1,1,0.454104290,-0.000056315,0.000101308,-1.111665172,0.596735169,0.301002677,0.000000572,0.000001529,-0.801605376,0.497945844
0.807500,-0.000420000,-0.056584518,0.073145167,-0.310851000,-0.056584518,0.034888271,6.600777774e-05,9.390147130e-05,1,1,0.456083260,-0.000057370,0.000102711,-1.115614777,0.597477830,0.301002677,0.000000572,0.000001529,-0.801605376,0.497945844
0.810000,-0.000420000,-0.056584518,0.073649543,-0.310851000,-0.056584518,0.034888271,6.358065982e-05,9.390147130e-05,1,1,0.457937256,-0.000058372,0.000104037,-1.119310546,0.598144430,0.301002677,0.000000572,0.000001529,-0.801605376,0.497945844
0.812500,-0.000420000,-0.056584518,0.074119008,-0.310851000,-0.056584518,0.034888271,6.106112154e-05,9.390147130e-05,1,1,0.459663450,-0.000059319,0.000105284,-1.122746907,0.598735115,0.301002677,0.000000572,0.000001529,-0.801605376,0.497945844
0.815000,-0.000420000,-0.056584518,0.074552552,-0.310851000,-0.056584518,0.034888271,5.845361776e-05,9.390147130e-05,1,1,0.461259180,-0.000060206,0.000106449,-1.125918634,0.599250088,0.301002677,0.000000572,0.000001529,-0.801605376,0.497945844
0.817500,-0.000420000,-0.056584518,0.074949233,-0.310851000,-0.056584518,0.034888271,9.903117904e-05,9.390147130e-05,1,1,0.462548770,-0.000060911,0.000107369,-1.128492312,0.599717802,0.301002677,0.000000572,0.000001529,-0.801605376,0.497945844
0.820000,-0.000420000,-0.056584518,0.075308173,-0.310851000,-0.056584518,0.034888271,5.974982148e-05,9.390147130e-05,1,1,0.464123799,-0.000061801,0.000108521,-1.131511402,0.599449493,0.301002677,0.000000572,0.000001529,-0.801605376,0.497945844
0.822500,-0.000420000,-0.056584518,0.075628563,-0.310851000,-0.056584518,0.034888271,8.625619773e-05,9.390147130e-05,1,1,0.465195977,-0.000062405,0.000109304,-1.133627767,0.599805600,0.301002677,0.000000572,0.000001529,-0.801605376,0.497945844
0.825000,-0.000420000,-0.056584518,0.075909666,-0.310851000,-0.056584518,0.034888271,9.318627562e-05,9.390147130e-05,1,1,0.466292043,-0.000063025,0.000110102,-1.135735381,0.599439696,0.301002677,0.000000572,0.000001529,-0.801605376,0.497945844
0.827500,-0.000420000,-0.056584518,0.076150815,-0.310851000,-0.056584518,0.034888271,7.846886694e-05,9.390147130e-05,1,1,0.467238487,-0.000063572,0.000110805,-1.137569478,0.599734091,0.301002677,0.000000572,0.000001529,-0.801605376,0.497945844
0.830000,-0.000420000,-0.056584518,0.076351419,-0.310851000,-0.056584518,0.034888271,6.914005894e-05,9.390147130e-05,1,1,0.468008094,-0.000064031,0.000111398,-1.139084539,0.599938558,0.301002677,0.000000572,0.000001529,-0.801605376,0.497945844
0.832500,-0.000420000,-0.056584518,0.076510960,-0.310851000,-0.056584518,0.034888271,7.025921914e-05,9.390147130e-05,1,1,0.468687595,-0.000064444,0.000111934,-1.140361456,0.599409141,0.301002677,0.000000572,0.000001529,-0.801605376,0.497945844
0.835000,-0.000420000,-0.056584518,0.076629001,-0.310851000,-0.056584518,0.034888271,9.253613152e-05,9.390147130e-05,1,1,0.469047549,-0.000064660,0.000112215,-1.141040017,0.599500292,0.301002677,0.000000572,0.000001529,-0.801605376,0.497945844
0.837500,-0.000420000,-0.056584518,0.076705178,-0.310851000,-0.056584518,0.034888271,8.494116021e-05,9.390147130e-05,1,1,0.469360868,-0.000064854,0.000112466,-1.141644292,0.599569824,0.301002677,0.000000572,0.000001529,-0.801605376,0.497945844
0.840000,-0.000420000,-0.056584518,0.076739210,-0.310851000,-0.056584518,0.034888271,6.438035340e-05,9.390147130e-05,1,1,0.469569466,-0.000064994,0.000112651,-1.142044212,0.599584116,0.301002677,0.000000572,0.000001529,-0.801605376,0.497945844
0.842500,-0.000420000,-0.056584518,0.076730895,-0.310851000,-0.056584518,0.034888271,5.609998823e-05,9.390147130e-05,1,1,0.469569466,-0.000064994,0.000112651,-1.142044212,0.599584116,0.301002677,0.000000572,0.000001529,-0.801605376,0.497945844
0.845000,-0.000420000,-0.056584518,0.076680112,-0.310851000,-0.056584518,0.034888271,7.458175910e-06,9.390147130e-05,1,1,0.469569466,-0.000064994,0.000112651,-1.142044212,0.599584116,0.301002677,0.000000572,0.000001529,-0.801605376,0.497945844
0.847500,-0.000420000,-0.056584518,0.076586823,-0.310851000,-0.056584518,0.034888271,8.841173774e-05,9.390147130e-05,1,1,0.469569466,-0.000064994,0.000112651,-1.142044212,0.599584116,0.301002677,0.000000572,0.000001529,-0.801605376,0.497945844
0.850000,-0.000420000,-0.056584518,0.076451071,-0.310851000,-0.056584518,0.034888271,7.827999078e-05,9.390147130e-05,1,1,0.469082329,-0.000064782,0.000112398,-1.141034813,0.599221506,0.301002677,0.000000572,0.000001529,-0.801605376,0.497945844
0.852500,-0.000420000,-0.056584518,0.076272985,-0.310851000,-0.056584518,0.034888271,9.169501359e-05,9.390147130e-05,1,1,0.468527385,-0.000064531,0.000112103,-1.139891529,0.598824570,0.301002677,0.000000572,0.000001529,-0.801605376,0.497945844
0.855000,-0.000420000,-0.056584518,0.076052773,-0.310851000,-0.056584518,0.034888271,3.308717405e-05,9.390147130e-05,1,1,0.467587440,-0.000064108,0.000111619,-1.137955475,0.598130290,0.301002677,0.000000572,0.000001529,-0.801605376,0.497945844
0.857500,-0.000420000,-0.056584518,0.075790729,-0.310851000,-0.056584518,0.034888271,3.028320412e-05,9.390147130e-05,1,1,0.466693483,-0.000063707,0.000111158,-1.136114453,0.597468395,0.301002677,0.000000572,0.000001529,-0.801605376,0.497945844
0.860000,-0.000420000,-0.056584518,0.075487231,-0.310851000,-0.056584518,0.034888271,3.702396818e-05,9.390147130e-05,1,1,0.465685831,-0.000063247,0.000110621,-1.134044151,0.596751583,0.301002677,0.000000572,0.000001529,-0.801605376,0.497945844
0.862500,-0.000420000,-0.056584518,0.075142738,-0.310851000,-0.056584518,0.034888271,4.537196701e-05,9.390147130e-05,1,1,0.464537349,-0.000062715,0.000109991,-1.131689921,0.595965083,0.301002677,0.000000572,0.000001529,-0.801605376,0.497945844
0.865000,-0.000420000,-0.056584518,0.074757795,-0.310851000,-0.056584518,0.034888271,5.393653246e-05,9.390147130e-05,1,1,0.463244134,-0.000062109,0.000109264,-1.129044053,0.595106715,0.301002677,0.000000572,0.000001529,-0.801605376,0.497945844
0.867500,-0.000420000,-0.056584518,0.074333026,-0.310851000,-0.056584518,0.034888271,6.246020707e-05,9.390147130e-05,1,1,0.461806491,-0.000061430,0.000108441,-1.126107288,0.594176497,0.301002677,0.000000572,0.000001529,-0.801605376,0.497945844
0.870000,-0.000420000,-0.056584518,0.073869141,-0.310851000,-0.056584518,0.034888271,7.088337465e-05,9.390147130e-05,1,1,0.460225626,-0.000060679,0.000107522,-1.122882162,0.593174840,0.301002677,0.000000572,0.000001529,-0.801605376,0.497945844
0.872500,-0.000420000,-0.056584518,0.073366927,-0.310851000,-0.056584518,0.034888271,7.918146720e-05,9.390147130e-05,1,1,0.458503076,-0.000059859,0.000106508,-1.119371867,0.592102239,0.301002677,0.000000572,0.000001529,-0.801605376,0.497945844
0.875000,-0.000420000,-0.056584518,0.072827254,-0.310851000,-0.056584518,0.034888271,8.733646740e-05,9.390147130e-05,1,1,0.456640606,-0.000058971,0.000105399,-1.115580055,0.590959223,0.301002677,0.000000572,0.000001529,-0.801605376,0.497945844
0.877500,-0.000420000,-0.056584518,0.072251070,-0.310851000,-0.056584518,0.034888271,9.533182985e-05,9.390147130e-05,1,1,0.454640201,-0.000058018,0.000104196,-1.111510810,0.589746346,0.301002677,0.000000572,0.000001529,-0.801605376,0.497945844
0.880000,-0.000420000,-0.056584518,0.071639403,-0.310851000,-0.056584518,0.034888271,2.931535058e-05,9.390147130e-05,1,1,0.452245333,-0.000056882,0.000102763,-1.106640690,0.588279300,0.301002677,0.000000572,0.000001529,-0.801605376,0.497945844
0.882500,-0.000420000,-0.056584518,0.070993355,-0.310851000,-0.056584518,0.034888271,9.793442500e-05,9.390147130e-05,1,1,0.450194504,-0.000055915,0.000101511,-1.102471800,0.587052063,0.301002677,0.000000572,0.000001529,-0.801605376,0.497945844
0.885000,-0.000420000,-0.056584518,0.070314104,-0.310851000,-0.056584518,0.034888271,3.496977128e-05,9.390147130e-05,1,1,0.447544123,-0.000054665,0.000099894,-1.097089965,0.585464629,0.301002677,0.000000572,0.000001529,-0.801605376,0.497945844
0.887500,-0.000420000,-0.056584518,0.069602904,-0.310851000,-0.056584518,0.034888271,3.305742201e-05,9.390147130e-05,1,1,0.444985007,-0.000053468,0.000098320,-1.091894731,0.583940242,0.301002677,0.000000572,0.000001529,-0.801605376,0.497945844
0.890000,-0.000420000,-0.056584518,0.068861078,-0.310851000,-0.056584518,0.034888271,3.548238315e-05,9.390147130e-05,1,1,0.442316631,-0.000052225,0.000096666,-1.086481061,0.582364610,0.301002677,0.000000572,0.000001529,-0.801605376,0.497945844
0.892500,-0.000420000,-0.056584518,0.068090020,-0.310851000,-0.056584518,0.034888271,3.814854700e-05,9.390147130e-05,1,1,0.439527440,-0.000050933,0.000094923,-1.080825881,0.580729968,0.301002677,0.000000572,0.000001529,-0.801605376,0.497945844
0.895000,-0.000420000,-0.056584518,0.067291194,-0.310851000,-0.056584518,0.034888271,4.075387361e-05,9.390147130e-05,1,1,0.436619992,-0.000049594,0.000093094,-1.074934371,0.579036417,0.301002677,0.000000572,0.000001529,-0.801605376,0.497945844
0.897500,-0.000420000,-0.056584518,0.066466127,-0.310851000,-0.056584518,0.034888271,4.327133631e-05,9.390147130e-05,1,1,0.433598116,-0.000048213,0.000091182,-1.068814233,0.577284690,0.301002677,0.000000572,0.000001529,-0.801605376,0.497945844
0.900000,-0.000420000,-0.056584518,0.065616411,-0.310851000,-0.056584518,0.034888271,4.569405115e-05,9.390147130e-05,1,1,0.430465977,-0.000046793,0.000089189,-1.062473827,0.575475637,0.301002677,0.000000572,0.000001529,-0.801605376,0.497945844
0.902500,-0.000420000,-0.056584518,0.064743701,-0.310851000,-0.056584518,0.034888271,4.801674205e-05,9.390147130e-05,1,1,0.427228008,-0.000045338,0.000087118,-1.055922046,0.573610192,0.301002677,0.000000572,0.000001529,-0.801605376,0.497945844
0.905000,-0.000420000,-0.056584518,0.063849709,-0.310851000,-0.056584518,0.034888271,5.023437238e-05,9.390147130e-05,1,1,0.423888918,-0.000043852,0.000084972,-1.049168322,0.571689386,0.301002677,0.000000572,0.000001529,-0.801605376,0.497945844
0.907500,-0.000420000,-0.056584518,0.062936203,-0.310851000,-0.056584518,0.034888271,5.234203145e-05,9.390147130e-05,1,1,0.420453691,-0.000042339,0.000082755,-1.042222633,0.569714361,0.301002677,0.000000572,0.000001529,-0.801605376,0.497945844
0.910000,-0.000420000,-0.056584518,0.062005008,-0.310851000,-0.056584518,0.034888271,5.433491436e-05,9.390147130e-05,1,1,0.416927599,-0.000040804,0.000080470,-1.035095521,0.567686382,0.301002677,0.000000572,0.000001529,-0.801605376,0.497945844
0.912500,-0.000420000,-0.056584518,0.061057998,-0.310851000,-0.056584518,0.034888271,5.620831046e-05,9.390147130e-05,1,1,0.413316202,-0.000039250,0.000078121,-1.027798104,0.565606858,0.301002677,0.000000572,0.000001529,-0.801605376,0.497945844
0.915000,-0.000420000,-0.056584518,0.060097096,-0.310851000,-0.056584518,0.034888271,5.795759312e-05,9.390147130e-05,1,1,0.409625361,-0.000037682,0.000075712,-1.020342093,0.563477355,0.301002677,0.000000572,0.000001529,-0.801605376,0.497945844
0.917500,-0.000420000,-0.056584518,0.059124270,-0.310851000,-0.056584518,0.034888271,5.957820925e-05,9.390147130e-05,1,1,0.405861241,-0.000036104,0.000073247,-1.012739802,0.561299621,0.301002677,0.000000572,0.000001529,-0.801605376,0.497945844
0.920000,-0.000420000,-0.056584518,0.058141531,-0.310851000,-0.056584518,0.034888271,6.106566895e-05,9.390147130e-05,1,1,0.402030320,-0.000034520,0.000070732,-1.005004165,0.559075601,0.301002677,0.000000572,0.000001529,-0.801605376,0.497945844
0.922500,-0.000420000,-0.056584518,0.057150931,-0.310851000,-0.056584518,0.034888271,6.241553463e-05,9.390147130e-05,1,1,0.398139392,-0.000032935,0.000068171,-0.997148753,0.556807464,0.301002677,0.000000572,0.000001529,-0.801605376,0.497945844
0.925000,-0.000420000,-0.056584518,0.056154559,-0.310851000,-0.056584518,0.034888271,6.362340852e-05,9.390147130e-05,1,1,0.394195580,-0.000031352,0.000065568,-0.989187787,0.554497623,0.301002677,0.000000572,0.000001529,-0.801605376,0.497945844
0.927500,-0.000420000,-0.056584518,0.055154536,-0.310851000,-0.056584518,0.034888271,6.468492054e-05,9.390147130e-05,1,1,0.390206336,-0.000029775,0.000062929,-0.981136152,0.552148761,0.301002677,0.000000572,0.000001529,-0.801605376,0.497945844
0.930000,-0.000420000,-0.056584518,0.054153016,-0.310851000,-0.056584518,0.034888271,6.559571416e-05,9.390147130e-05,1,1,0.386179452,-0.000028210,0.000060260,-0.973009409,0.549763859,0.301002677,0.000000572,0.000001529,-0.801605376,0.497945844
0.932500,-0.000420000,-0.056584518,0.053152181,-0.310851000,-0.056584518,0.034888271,6.635143200e-05,9.390147130e-05,1,1,0.382123062,-0.000026658,0.000057567,-0.964823814,0.547346221,0.301002677,0.000000572,0.000001529,-0.801605376,0.497945844
0.935000,-0.000420000,-0.056584518,0.052154237,-0.310851000,-0.056584518,0.034888271,6.694770006e-05,9.390147130e-05,1,1,0.378045649,-0.000025126,0.000054855,-0.956596325,0.544899504,0.301002677,0.000000572,0.000001529,-0.801605376,0.497945844
0.937500,-0.000420000,-0.056584518,0.051161414,-0.310851000,-0.056584518,0.034888271,6.738011118e-05,9.390147130e-05,1,1,0.373956049,-0.000023615,0.000052130,-0.948344617,0.542427747,0.301002677,0.000000572,0.000001529,-0.801605376,0.497945844
0.940000,-0.000420000,-0.056584518,0.050175960,-0.310851000,-0.056584518,0.034888271,6.764420811e-05,9.390147130e-05,1,1,0.369863455,-0.000022130,0.000049399,-0.940087088,0.539935400,0.301002677,0.000000572,0.000001529,-0.801605376,0.497945844
0.942500,-0.000420000,-0.056584518,0.049200142,-0.310851000,-0.056584518,0.034888271,6.773546438e-05,9.390147130e-05,1,1,0.365777418,-0.000020674,0.000046669,-0.931842868,0.537427356,0.301002677,0.000000572,0.000001529,-0.801605376,0.497945844
0.945000,-0.000420000,-0.056584518,0.048236240,-0.310851000,-0.056584518,0.034888271,6.764926654e-05,9.390147130e-05,1,1,0.361707852,-0.000019251,0.000043947,-0.923631829,0.534908980,0.301002677,0.000000572,0.000001529,-0.801605376,0.497945844
0.947500,-0.000420000,-0.056584518,0.047286548,-0.310851000,-0.056584518,0.034888271,6.738089314e-05,9.390147130e-05,1,1,0.357665029,-0.000017863,0.000041239,-0.915474584,0.532386138,0.301002677,0.000000572,0.000001529,-0.801605376,0.497945844
0.950000,-0.000420000,-0.056584518,0.046353370,-0.310851000,-0.056584518,0.034888271,6.692549434e-05,9.390147130e-05,1,1,0.353659584,-0.000016514,0.000038554,-0.907392488,0.529865228,0.301002677,0.000000572,0.000001529,-0.801605376,0.497945844
0.952500,-0.000420000,-0.056584518,0.045439016,-0.310851000,-0.056584518,0.034888271,6.627806960e-05,9.390147130e-05,1,1,0.349702507,-0.000015206,0.000035898,-0.899407642,0.527353205,0.301002677,0.000000572,0.000001529,-0.801605376,0.497945844
0.955000,-0.000420000,-0.056584518,0.044545808,-0.310851000,-0.056584518,0.034888271,6.543344319e-05,9.390147130e-05,1,1,0.345805146,-0.000013942,0.000033280,-0.891542882,0.524857609,0.301002677,0.000000572,0.000001529,-0.801605376,0.497945844
0.957500,-0.000420000,-0.056584518,0.043676070,-0.310851000,-0.056584518,0.034888271,6.438623688e-05,9.390147130e-05,1,1,0.341979194,-0.000012724,0.000030708,-0.883821778,0.522386586,0.301002677,0.000000572,0.000001529,-0.801605376,0.497945844
0.960000,-0.000420000,-0.056584518,0.042832136,-0.310851000,-0.056584518,0.034888271,6.313083764e-05,9.390147130e-05,1,1,0.338236691,-0.000011556,0.000028189,-0.876268625,0.519948905,0.301002677,0.000000572,0.000001529,-0.801605376,0.497945844
0.962500,-0.000420000,-0.056584518,0.042016344,-0.310851000,-0.056584518,0.034888271,6.166135838e-05,9.390147130e-05,1,1,0.334590016,-0.000010438,0.000025732,-0.868908430,0.517553982,0.301002677,0.000000572,0.000001529,-0.801605376,0.497945844
0.965000,-0.000420000,-0.056584518,0.041231043,-0.310851000,-0.056584518,0.034888271,5.997158705e-05,9.390147130e-05,1,1,0.331051875,-0.000009374,0.000023347,-0.861766907,0.515211881,0.301002677,0.000000572,0.000001529,-0.801605376,0.497945844
0.967500,-0.000420000,-0.056584518,0.040478590,-0.310851000,-0.056584518,0.034888271,5.805491816e-05,9.390147130e-05,1,1,0.327635307,-0.000008364,0.000021040,-0.854870470,0.512933333,0.301002677,0.000000572,0.000001529,-0.801605376,0.497945844
0.970000,-0.000420000,-0.056584518,0.039761361,-0.310851000,-0.056584518,0.034888271,5.590425790e-05,9.390147130e-05,1,1,0.324353673,-0.000007410,0.000018822,-0.848246227,0.510729731,0.301002677,0.000000572,0.000001529,-0.801605376,0.497945844
0.972500,-0.000420000,-0.056584518,0.039081752,-0.310851000,-0.056584518,0.034888271,5.351188741e-05,9.390147130e-05,1,1,0.321220665,-0.000006515,0.000016702,-0.841921995,0.508613137,0.301002677,0.000000572,0.000001529,-0.801605376,0.497945844
0.975000,-0.000420000,-0.056584518,0.038442195,-0.310851000,-0.056584518,0.034888271,5.086926280e-05,9.390147130e-05,1,1,0.318250317,-0.000005680,0.000014688,-0.835926326,0.506596283,0.301002677,0.000000572,0.000001529,-0.801605376,0.497945844
0.977500,-0.000420000,-0.056584518,0.037845165,-0.310851000,-0.056584518,0.034888271,4.796671364e-05,9.390147130e-05,1,1,0.315457034,-0.000004905,0.000012790,-0.830288562,0.504692569,0.301002677,0.000000572,0.000001529,-0.801605376,0.497945844
0.980000,-0.000420000,-0.056584518,0.037293207,-0.310851000,-0.056584518,0.034888271,4.479298090e-05,9.390147130e-05,1,1,0.312855645,-0.000004193,0.000011019,-0.825038947,0.502916085,0.301002677,0.000000572,0.000001529,-0.801605376,0.497945844
0.982500,-0.000420000,-0.056584518,0.036788963,-0.310851000,-0.056584518,0.034888271,9.913555490e-05,9.390147130e-05,1,1,0.310746634,-0.000003636,0.000009596,-0.820773354,0.501422002,0.301002677,0.000000572,0.000001529,-0.801605376,0.497945844
0.985000,-0.000420000,-0.056584518,0.036335219,-0.310851000,-0.056584518,0.034888271,4.213124947e-05,9.390147130e-05,1,1,0.308327729,-0.000002986,0.000007948,-0.815893484,0.499752611,0.301002677,0.000000572,0.000001529,-0.801605376,0.497945844
0.987500,-0.000420000,-0.056584518,0.035934976,-0.310851000,-0.056584518,0.034888271,8.042398069e-05,9.390147130e-05,1,1,0.306610798,-0.000002540,0.000006782,-0.812423915,0.498543272,0.301002677,0.000000572,0.000001529,-0.801605376,0.497945844
0.990000,-0.000420000,-0.056584518,0.035591563,-0.310851000,-0.056584518,0.034888271,7.737339818e-05,9.390147130e-05,1,1,0.304960308,-0.000002112,0.000005660,-0.809089827,0.497377619,0.301002677,0.000000572,0.000001529,-0.801605376,0.497945844
0.992500,-0.000420000,-0.056584518,0.035308850,-0.310851000,-0.056584518,0.034888271,6.592055727e-05,9.390147130e-05,1,1,0.303550202,-0.000001745,0.000004695,-0.806244666,0.496396759,0.301002677,0.000000572,0.000001529,-0.801605376,0.497945844
0.995000,-0.000420000,-0.056584518,0.035091665,-0.310851000,-0.056584518,0.034888271,5.195202990e-05,9.390147130e-05,1,1,0.302433262,-0.000001452,0.000003920,-0.803995576,0.495645728,0.301002677,0.000000572,0.000001529,-0.801605376,0.497945844
0.997500,-0.000420000,-0.056584518,0.034946857,-0.310851000,-0.056584518,0.034888271,8.440395305e-05,9.390147130e-05,1,1,0.301889682,-0.000001312,0.000003542,-0.802900323,0.495279593,0.301002677,0.000000572,0.000001529,-0.801605376,0.497945844
1.000000,-0.000420000,-0.056584518,0.034888271,-0.310851000,-0.056584518,0.034888271,6.136220570e-05,9.390147130e-05,1,1,0.301490134,-0.000001204,0.000003257,-0.802098909,0.495029420,0.301002677,0.000000572,0.000001529,-0.801605376,0.497945844
1.002500,-0.000420000,-0.056584518,0.034888271,-0.310851000,-0.056584518,0.034947004,6.136220570e-05,3.517941063e-05,1,1,0.301490134,-0.000001204,0.000003257,-0.802098909,0.495029420,0.301002677,0.000000572,0.000001529,-0.801605376,0.497945844
1.005000,-0.000420000,-0.056584518,0.034888271,-0.310851000,-0.056584518,0.035092687,6.136220570e-05,4.749709075e-05,1,1,0.301490134,-0.000001204,0.000003257,-0.802098909,0.495029420,0.301290918,0.000000626,0.000001707,-0.802201376,0.498217778
1.007500,-0.000420000,-0.056584518,0.034888271,-0.310851000,-0.056584518,0.035312029,6.136220570e-05,4.935111961e-05,1,1,0.301490134,-0.000001204,0.000003257,-0.802098909,0.495029420,0.302299547,0.000000850,0.000002338,-0.804268652,0.499112241
1.010000,-0.000420000,-0.056584518,0.034888271,-0.310851000,-0.056584518,0.035598667,6.136220570e-05,6.222119607e-05,1,1,0.301490134,-0.000001204,0.000003257,-0.802098909,0.495029420,0.303571113,0.000001144,0.000003137,-0.806869255,0.500216723
1.012500,-0.000420000,-0.056584518,0.034888271,-0.310851000,-0.056584518,0.035948225,6.136220570e-05,7.631162609e-05,1,1,0.301490134,-0.000001204,0.000003257,-0.802098909,0.495029420,0.305127985,0.000001510,0.000004119,-0.810050155,0.501547623
1.015000,-0.000420000,-0.056584518,0.034888271,-0.310851000,-0.056584518,0.036357254,6.136220570e-05,8.999026766e-05,1,1,0.301490134,-0.000001204,0.000003257,-0.802098909,0.495029420,0.306958839,0.000001948,0.000005278,-0.813788293,0.503092837
