triton-droids/embedded/trajectory_generation/ik_stepping_trajectory.csv
t,pL_tx,pL_ty,pL_tz,pR_tx,pR_ty,pR_tz,ik_err_L,ik_err_R,ik_ok_L,ik_ok_R,left_hip1_joint,left_hip2_joint,left_thigh_joint,left_knee_joint,left_ankle_joint,right_hip1_joint,right_hip2_joint,right_thigh_joint,right_knee_joint,right_ankle_joint
0.000000,-0.000420000,-0.056584518,0.034888271,-0.310851000,-0.056584518,0.034888271,0.000000000e+00,0.000000000e+00,1,1,0.300000000,0.000000000,0.000000000,-0.800000000,0.500000000,0.300000000,0.000000000,0.000000000,-0.800000000,0.500000000
0.002500,-0.000420000,-0.056576664,0.034888402,-0.310851000,-0.056592371,0.034888271,7.854609408e-06,7.853516548e-06,1,1,0.300000000,0.000000000,0.000000000,-0.800000000,0.500000000,0.300000000,0.000000000,0.000000000,-0.800000000,0.500000000
0.005000,-0.000420000,-0.056553109,0.034889184,-0.310851000,-0.056615926,0.034888271,3.142172930e-05,3.140848556e-05,1,1,0.300000000,0.000000000,0.000000000,-0.800000000,0.500000000,0.300000000,0.000000000,0.000000000,-0.800000000,0.500000000
0.007500,-0.000420000,-0.056513870,0.034891109,-0.310851000,-0.056655166,0.034888271,7.070512172e-05,7.064816810e-05,1,1,0.300000000,0.000000000,0.000000000,-0.800000000,0.500000000,0.300000000,0.000000000,0.000000000,-0.800000000,0.500000000
0.010000,-0.000420000,-0.056458973,0.034894616,-0.310851000,-0.056710062,0.034888271,3.196627699e-05,3.176535963e-05,1,1,0.300201475,-0.000000045,0.000000130,-0.800064710,0.500065408,0.299818518,-0.000000041,-0.000000117,-0.799976235,0.499951150
0.012500,-0.000420000,-0.056388459,0.034900111,-0.310851000,-0.056780577,0.034888271,2.623605395e-05,2.590685336e-05,1,1,0.300376682,-0.000000086,0.000000243,-0.800140006,0.500127832,0.299667083,-0.000000077,-0.000000215,-0.799949454,0.499908362
0.015000,-0.000420000,-0.056302377,0.034907975,-0.310851000,-0.056866659,0.034888271,2.886543464e-05,2.836994088e-05,1,1,0.300575101,-0.000000132,0.000000371,-0.800235906,0.500201623,0.299501083,-0.000000115,-0.000000322,-0.799919692,0.499861340
0.017500,-0.000420000,-0.056200788,0.034918568,-0.310851000,-0.056968247,0.034888271,3.363965950e-05,3.292514433e-05,1,1,0.300811325,-0.000000187,0.000000523,-0.800359363,0.500292173,0.299308598,-0.000000160,-0.000000446,-0.799885451,0.499806895
0.020000,-0.000420000,-0.056083766,0.034932233,-0.310851000,-0.057085270,0.034888271,3.898389776e-05,3.799416737e-05,1,1,0.301090428,-0.000000252,0.000000703,-0.800515142,0.500402038,0.299086460,-0.000000212,-0.000000589,-0.799845830,0.499744032
0.022500,-0.000420000,-0.055951392,0.034949298,-0.310851000,-0.057217643,0.034888271,4.449561945e-05,4.317420232e-05,1,1,0.301414795,-0.000000327,0.000000912,-0.800706903,0.500532828,0.298833879,-0.000000271,-0.000000751,-0.799800396,0.499672443
0.025000,-0.000420000,-0.055803762,0.034970072,-0.310851000,-0.057365273,0.034888271,5.007009667e-05,4.836021138e-05,1,1,0.301785984,-0.000000413,0.000001152,-0.800937765,0.500685800,0.298550732,-0.000000337,-0.000000933,-0.799748932,0.499592036
0.027500,-0.000420000,-0.055640981,0.034994853,-0.310851000,-0.057528055,0.034888271,5.567848713e-05,5.352273027e-05,1,1,0.302205249,-0.000000511,0.000001422,-0.801210543,0.500862048,0.298237092,-0.000000410,-0.000001135,-0.799691308,0.499502790
0.030000,-0.000420000,-0.055463164,0.035023922,-0.310851000,-0.057705871,0.034888271,6.131123414e-05,5.865153198e-05,1,1,0.302673689,-0.000000620,0.000001724,-0.801527835,0.501062563,0.297893102,-0.000000490,-0.000001357,-0.799627420,0.499404708
0.032500,-0.000420000,-0.055270439,0.035057546,-0.310851000,-0.057898597,0.034888271,6.696354476e-05,6.374131334e-05,1,1,0.303192286,-0.000000742,0.000002058,-0.801892063,0.501288252,0.297518934,-0.000000578,-0.000001597,-0.799557168,0.499297801
0.035000,-0.000420000,-0.055062942,0.035095980,-0.310851000,-0.058106093,0.034888271,7.263163797e-05,6.878804905e-05,1,1,0.303761920,-0.000000875,0.000002425,-0.802305480,0.501539945,0.297114783,-0.000000672,-0.000001857,-0.799480452,0.499182084
0.037500,-0.000420000,-0.054840823,0.035139461,-0.310851000,-0.058328212,0.034888271,7.831176977e-05,7.378806052e-05,1,1,0.304383375,-0.000001021,0.000002826,-0.802770177,0.501818396,0.296680859,-0.000000773,-0.000002136,-0.799397168,0.499057576
0.040000,-0.000420000,-0.054604240,0.035188215,-0.310851000,-0.058564795,0.034888271,8.399998167e-05,7.873777785e-05,1,1,0.305057337,-0.000001179,0.000003260,-0.803288081,0.502124280,0.296217394,-0.000000881,-0.000002434,-0.799307206,0.498924298
0.042500,-0.000420000,-0.054353363,0.035242451,-0.310851000,-0.058815672,0.034888271,8.969204069e-05,8.363367958e-05,1,1,0.305784396,-0.000001351,0.000003729,-0.803860958,0.502458198,0.295724632,-0.000000996,-0.000002751,-0.799210452,0.498782274
0.045000,-0.000420000,-0.054088371,0.035302364,-0.310851000,-0.059080664,0.034888271,9.538343096e-05,8.847227845e-05,1,1,0.306565043,-0.000001535,0.000004233,-0.804490409,0.502820673,0.295202836,-0.000001118,-0.000003086,-0.799106788,0.498631529
0.047500,-0.000420000,-0.053809454,0.035368134,-0.310851000,-0.059359581,0.034888271,2.808855778e-05,9.325011868e-05,1,1,0.307643897,-0.000001800,0.000004925,-0.805417144,0.503337564,0.294652287,-0.000001246,-0.000003440,-0.798996092,0.498472093
0.050000,-0.000420000,-0.053516813,0.035439929,-0.310851000,-0.059652222,0.034888271,8.721237143e-05,9.796377663e-05,1,1,0.308361165,-0.000001967,0.000005389,-0.806006346,0.503673153,0.294073283,-0.000001381,-0.000003812,-0.798878241,0.498303998
0.052500,-0.000420000,-0.053210658,0.035517897,-0.310851000,-0.059958378,0.034888271,3.007122226e-05,2.642229347e-05,1,1,0.309515507,-0.000002248,0.000006132,-0.807020462,0.504231721,0.293298938,-0.000001564,-0.000004308,-0.798693540,0.498071294
0.055000,-0.000420000,-0.052891209,0.035602174,-0.310851000,-0.060277827,0.034888271,9.589120845e-05,8.781351505e-05,1,1,0.310314521,-0.000002435,0.000006649,-0.807698385,0.504611104,0.292784326,-0.000001683,-0.000004639,-0.798596240,0.497924057
0.057500,-0.000420000,-0.052558696,0.035692880,-0.310851000,-0.060610339,0.034888271,3.336158369e-05,2.752962876e-05,1,1,0.311599976,-0.000002750,0.000007477,-0.808862506,0.505241879,0.291982328,-0.000001871,-0.000005153,-0.798410977,0.497684795
0.060000,-0.000420000,-0.052213360,0.035790120,-0.310851000,-0.060955675,0.034888271,3.008960381e-05,9.470543268e-05,1,1,0.312744362,-0.000003028,0.000008215,-0.809903422,0.505803833,0.291426915,-0.000001999,-0.000005510,-0.798304614,0.497525486
0.062500,-0.000420000,-0.051855450,0.035893982,-0.310851000,-0.061313585,0.034888271,3.113659323e-05,2.970363398e-05,1,1,0.313925594,-0.000003316,0.000008977,-0.810986050,0.506385453,0.290561153,-0.000002202,-0.000006065,-0.798100441,0.497265975
0.065000,-0.000420000,-0.051485225,0.036004539,-0.310851000,-0.061683810,0.034888271,3.253099190e-05,2.633124986e-05,1,1,0.315159114,-0.000003616,0.000009774,-0.812129718,0.506995735,0.289799449,-0.000002379,-0.000006553,-0.797925824,0.497039106
0.067500,-0.000420000,-0.051102954,0.036121848,-0.310851000,-0.062066082,0.034888271,3.395651910e-05,2.693267622e-05,1,1,0.316445975,-0.000003931,0.000010606,-0.813336598,0.507635400,0.289022222,-0.000002560,-0.000007051,-0.797749383,0.496808111
0.070000,-0.000420000,-0.050708914,0.036245950,-0.310851000,-0.062460122,0.034888271,3.538458750e-05,2.778229366e-05,1,1,0.317785802,-0.000004261,0.000011471,-0.814606792,0.508304237,0.288220545,-0.000002746,-0.000007565,-0.797565562,0.496569308
0.072500,-0.000420000,-0.050303391,0.036376872,-0.310851000,-0.062865644,0.034888271,3.681087509e-05,2.863302859e-05,1,1,0.319177993,-0.000004605,0.000012372,-0.815940031,0.509001867,0.287394097,-0.000002937,-0.000008094,-0.797373531,0.496322380
0.075000,-0.000420000,-0.049886683,0.036514621,-0.310851000,-0.063282353,0.034888271,3.823320656e-05,2.946753590e-05,1,1,0.320621840,-0.000004963,0.000013305,-0.817335863,0.509727827,0.286543293,-0.000003134,-0.000008639,-0.797173094,0.496067364
0.077500,-0.000420000,-0.049459092,0.036659192,-0.310851000,-0.063709944,0.034888271,3.964957085e-05,3.028405444e-05,1,1,0.322116539,-0.000005336,0.000014273,-0.818793669,0.510481579,0.285668629,-0.000003337,-0.000009199,-0.796964140,0.495804338
0.080000,-0.000420000,-0.049020932,0.036810562,-0.310851000,-0.064148104,0.034888271,4.105793877e-05,3.108193111e-05,1,1,0.323661194,-0.000005723,0.000015273,-0.820312676,0.511262511,0.284770627,-0.000003544,-0.000009774,-0.796746570,0.495533393
0.082500,-0.000420000,-0.048572524,0.036968691,-0.310851000,-0.064596512,0.034888271,4.245625171e-05,3.186060403e-05,1,1,0.325254819,-0.000006125,0.000016305,-0.821891954,0.512069944,0.283849828,-0.000003757,-0.000010363,-0.796520296,0.495254625
0.085000,-0.000420000,-0.048114197,0.037133526,-0.310851000,-0.065054838,0.034888271,4.384242690e-05,3.261952748e-05,1,1,0.326896337,-0.000006541,0.000017368,-0.823530422,0.512903128,0.282906792,-0.000003974,-0.000010966,-0.796285237,0.494968137
0.087500,-0.000420000,-0.047646290,0.037304996,-0.310851000,-0.065522746,0.034888271,4.521436446e-05,3.335816598e-05,1,1,0.328584583,-0.000006971,0.000018463,-0.825226849,0.513761251,0.281942098,-0.000004196,-0.000011583,-0.796041324,0.494674038
0.090000,-0.000420000,-0.047169147,0.037483014,-0.310851000,-0.065999888,0.034888271,4.656995435e-05,3.407599403e-05,1,1,0.330318308,-0.000007415,0.000019587,-0.826979860,0.514643437,0.280956346,-0.000004423,-0.000012212,-0.795788494,0.494372447
0.092500,-0.000420000,-0.046683123,0.037667480,-0.310851000,-0.066485913,0.034888271,4.790708313e-05,3.477249613e-05,1,1,0.332096178,-0.000007874,0.000020741,-0.828787941,0.515548749,0.279950154,-0.000004654,-0.000012855,-0.795526699,0.494063488
0.095000,-0.000420000,-0.046188577,0.037858275,-0.310851000,-0.066980459,0.034888271,4.922364082e-05,3.544716698e-05,1,1,0.333916778,-0.000008346,0.000021923,-0.830649439,0.516476196,0.278924158,-0.000004890,-0.000013510,-0.795255900,0.493747292
0.097500,-0.000420000,-0.045685877,0.038055267,-0.310851000,-0.067483158,0.034888271,5.051752714e-05,3.609951166e-05,1,1,0.335778613,-0.000008832,0.000023133,-0.832562569,0.517424733,0.277879017,-0.000005129,-0.000014177,-0.794976072,0.493424000
0.100000,-0.000420000,-0.045175399,0.038258309,-0.310851000,-0.067993636,0.034888271,5.178665780e-05,3.672904560e-05,1,1,0.337680112,-0.000009332,0.000024369,-0.834525422,0.518393263,0.276815407,-0.000005373,-0.000014855,-0.794687203,0.493093759
0.102500,-0.000420000,-0.044657525,0.038467238,-0.310851000,-0.068511510,0.034888271,5.302897017e-05,3.733529494e-05,1,1,0.339619630,-0.000009844,0.000025630,-0.836535963,0.519380643,0.275734023,-0.000005620,-0.000015545,-0.794389295,0.492756727
0.105000,-0.000420000,-0.044132643,0.038681876,-0.310851000,-0.069036392,0.034888271,5.424242928e-05,3.791779654e-05,1,1,0.341595448,-0.000010370,0.000026917,-0.838592041,0.520385688,0.274635581,-0.000005870,-0.000016245,-0.794082364,0.492413067
0.107500,-0.000420000,-0.043601149,0.038902032,-0.310851000,-0.069567886,0.034888271,5.542503266e-05,3.847609806e-05,1,1,0.343605780,-0.000010909,0.000028226,-0.840691396,0.521407172,0.273520815,-0.000006124,-0.000016955,-0.793766443,0.492062954
0.110000,-0.000420000,-0.043063444,0.039127501,-0.310851000,-0.070105591,0.034888271,5.657481570e-05,3.900975830e-05,1,1,0.345648773,-0.000011460,0.000029558,-0.842831659,0.522443831,0.272390479,-0.000006381,-0.000017674,-0.793441580,0.491706569
0.112500,-0.000420000,-0.042519935,0.039358063,-0.310851000,-0.070649100,0.034888271,5.768985598e-05,3.951834709e-05,1,1,0.347722510,-0.000012023,0.000030911,-0.845010361,0.523494371,0.271245346,-0.000006641,-0.000018403,-0.793107840,0.491344105
0.115000,-0.000420000,-0.041971036,0.039593485,-0.310851000,-0.071197999,0.034888271,5.876827786e-05,4.000144559e-05,1,1,0.349825016,-0.000012599,0.000032284,-0.847224938,0.524557467,0.270086207,-0.000006904,-0.000019140,-0.792765305,0.490975762
0.117500,-0.000420000,-0.041417166,0.039833521,-0.310851000,-0.071751869,0.034888271,5.980825635e-05,4.045864637e-05,1,1,0.351954256,-0.000013185,0.000033675,-0.849472740,0.525631769,0.268913873,-0.000007170,-0.000019886,-0.792414078,0.490601750
0.120000,-0.000420000,-0.040858749,0.040077913,-0.310851000,-0.072310286,0.034888271,6.080802087e-05,4.088955357e-05,1,1,0.354108142,-0.000013783,0.000035084,-0.851751029,0.526715903,0.267729174,-0.000007437,-0.000020638,-0.792054276,0.490222290
0.122500,-0.000420000,-0.040296215,0.040326389,-0.310851000,-0.072872821,0.034888271,6.176585854e-05,4.129378304e-05,1,1,0.356284533,-0.000014392,0.000036509,-0.854056996,0.527808479,0.266532957,-0.000007707,-0.000021398,-0.791686039,0.489837609
0.125000,-0.000420000,-0.039729997,0.040578668,-0.310851000,-0.073439038,0.034888271,6.268011721e-05,4.167096248e-05,1,1,0.358481243,-0.000015010,0.000037948,-0.856387757,0.528908090,0.265326088,-0.000007979,-0.000022164,-0.791309523,0.489447947
0.127500,-0.000420000,-0.039160535,0.040834453,-0.310851000,-0.074008500,0.034888271,6.354920830e-05,4.202073169e-05,1,1,0.360696038,-0.000015638,0.000039401,-0.858740364,0.530013317,0.264109453,-0.000008252,-0.000022935,-0.790924908,0.489053554
0.130000,-0.000420000,-0.038588273,0.041093442,-0.310851000,-0.074580762,0.034888271,6.437160922e-05,4.234274255e-05,1,1,0.362926644,-0.000016276,0.000040865,-0.861111812,0.531122734,0.262883952,-0.000008527,-0.000023712,-0.790532391,0.488654688
0.132500,-0.000420000,-0.038013658,0.041355317,-0.310851000,-0.075155377,0.034888271,6.514586549e-05,4.263665945e-05,1,1,0.365170749,-0.000016922,0.000042340,-0.863499043,0.532234908,0.261650505,-0.000008803,-0.000024494,-0.790132191,0.488251619
0.135000,-0.000420000,-0.037437142,0.041619753,-0.310851000,-0.075731894,0.034888271,6.587059265e-05,4.290215934e-05,1,1,0.367426005,-0.000017576,0.000043824,-0.865898951,0.533348405,0.260410049,-0.000009080,-0.000025279,-0.789724549,0.487844625
0.137500,-0.000420000,-0.036859180,0.041886415,-0.310851000,-0.076309856,0.034888271,6.654447794e-05,4.313893193e-05,1,1,0.369690032,-0.000018238,0.000045315,-0.868308391,0.534461789,0.259163537,-0.000009358,-0.000026068,-0.789309726,0.487433995
0.140000,-0.000420000,-0.036280230,0.042154959,-0.310851000,-0.076888805,0.034888271,6.716628170e-05,4.334668003e-05,1,1,0.371960420,-0.000018906,0.000046812,-0.870724182,0.535573631,0.257911939,-0.000009637,-0.000026860,-0.788888004,0.487020030
0.142500,-0.000420000,-0.035700755,0.042425034,-0.310851000,-0.077468280,0.034888271,6.773483844e-05,4.352511969e-05,1,1,0.374234736,-0.000019580,0.000048313,-0.873143117,0.536682506,0.256656241,-0.000009915,-0.000027653,-0.788459688,0.486603038
0.145000,-0.000420000,-0.035121220,0.042696278,-0.310851000,-0.078047815,0.034888271,6.824905782e-05,4.367398061e-05,1,1,0.376510523,-0.000020260,0.000049818,-0.875561964,0.537786999,0.255397444,-0.000010194,-0.000028448,-0.788025105,0.486183338
0.147500,-0.000420000,-0.034542092,0.042968325,-0.310851000,-0.078626943,0.034888271,6.870792564e-05,4.379300626e-05,1,1,0.378785306,-0.000020945,0.000051323,-0.877977474,0.538885706,0.254136565,-0.000010473,-0.000029244,-0.787584603,0.485761261
0.150000,-0.000420000,-0.033963841,0.043240801,-0.310851000,-0.079205194,0.034888271,6.911050404e-05,4.388195435e-05,1,1,0.381056592,-0.000021634,0.000052828,-0.880386389,0.539977235,0.252874635,-0.000010751,-0.000030040,-0.787138550,0.485337147
0.152500,-0.000420000,-0.033386940,0.043513326,-0.310851000,-0.079782096,0.034888271,6.945593224e-05,4.394059719e-05,1,1,0.383321879,-0.000022325,0.000054332,-0.882785441,0.541060214,0.251612699,-0.000011029,-0.000030836,-0.786687339,0.484911343
0.155000,-0.000420000,-0.032811862,0.043785515,-0.310851000,-0.080357174,0.034888271,6.974342654e-05,4.396872202e-05,1,1,0.385578651,-0.000023020,0.000055831,-0.885171364,0.542133284,0.250351816,-0.000011305,-0.000031630,-0.786231382,0.484484211
0.157500,-0.000420000,-0.032239082,0.044056979,-0.310851000,-0.080929953,0.034888271,6.997228069e-05,4.396613147e-05,1,1,0.387824388,-0.000023715,0.000057326,-0.887540898,0.543195110,0.249093058,-0.000011581,-0.000032423,-0.785771114,0.484056118
0.160000,-0.000420000,-0.031669079,0.044327323,-0.310851000,-0.081499956,0.034888271,7.014186569e-05,4.393264409e-05,1,1,0.390056566,-0.000024412,0.000058814,-0.889890791,0.544244376,0.247837508,-0.000011855,-0.000033213,-0.785306990,0.483627443
0.162500,-0.000420000,-0.031102330,0.044596151,-0.310851000,-0.082066705,0.034888271,7.025162988e-05,4.386809483e-05,1,1,0.392272661,-0.000025108,0.000060293,-0.892217806,0.545279790,0.246586262,-0.000012128,-0.000034000,-0.784839487,0.483198574
0.165000,-0.000420000,-0.030539314,0.044863062,-0.310851000,-0.082629721,0.034888271,7.030109844e-05,4.377233567e-05,1,1,0.394470151,-0.000025804,0.000061762,-0.894518727,0.546300085,0.245340428,-0.000012399,-0.000034782,-0.784369101,0.482769908
0.167500,-0.000420000,-0.029980511,0.045127655,-0.310851000,-0.083188524,0.034888271,7.028987352e-05,4.364523626e-05,1,1,0.396646519,-0.000026497,0.000063220,-0.896790361,0.547304021,0.244101121,-0.000012668,-0.000035561,-0.783896349,0.482341849
0.170000,-0.000420000,-0.029426400,0.045389527,-0.310851000,-0.083742635,0.034888271,7.021763353e-05,4.348668462e-05,1,1,0.398799257,-0.000027188,0.000064664,-0.899029547,0.548290382,0.242869468,-0.000012934,-0.000036333,-0.783421766,0.481914813
0.172500,-0.000420000,-0.028877462,0.045648274,-0.310851000,-0.084291573,0.034888271,7.008413297e-05,4.329658802e-05,1,1,0.400925869,-0.000027875,0.000066093,-0.901233155,0.549257984,0.241646606,-0.000013198,-0.000037100,-0.782945910,0.481489223
0.175000,-0.000420000,-0.028334175,0.045903493,-0.310851000,-0.084834860,0.034888271,6.988920197e-05,4.307487385e-05,1,1,0.403023872,-0.000028557,0.000067505,-0.903398094,0.550205670,0.240433676,-0.000013459,-0.000037860,-0.782469352,0.481065507
0.177500,-0.000420000,-0.027797020,0.046154780,-0.310851000,-0.085372015,0.034888271,6.963274569e-05,4.282149053e-05,1,1,0.405090801,-0.000029233,0.000068899,-0.905521317,0.551132315,0.239231830,-0.000013717,-0.000038612,-0.781992684,0.480644106
0.180000,-0.000420000,-0.027266474,0.046401734,-0.310851000,-0.085902561,0.034888271,6.931474392e-05,4.253640878e-05,1,1,0.407124208,-0.000029903,0.000070274,-0.907599821,0.552036825,0.238042223,-0.000013971,-0.000039356,-0.781516514,0.480225465
0.182500,-0.000420000,-0.026743014,0.046643957,-0.310851000,-0.086426021,0.034888271,6.893525069e-05,4.221962275e-05,1,1,0.409121671,-0.000030564,0.000071626,-0.909630655,0.552918135,0.236866019,-0.000014223,-0.000040092,-0.781041467,0.479810035
0.185000,-0.000420000,-0.026227117,0.046881051,-0.310851000,-0.086941918,0.034888271,6.849439366e-05,4.187115148e-05,1,1,0.411080791,-0.000031217,0.000072956,-0.911610920,0.553775214,0.235704384,-0.000014470,-0.000040817,-0.780568182,0.479398277
0.187500,-0.000420000,-0.025719257,0.047112624,-0.310851000,-0.087449778,0.034888271,6.799237374e-05,4.149104045e-05,1,1,0.412999196,-0.000031861,0.000074261,-0.913537778,0.554607065,0.234558489,-0.000014713,-0.000041532,-0.780097313,0.478990655
0.190000,-0.000420000,-0.025219906,0.047338289,-0.310851000,-0.087949129,0.034888271,6.742946469e-05,4.107936339e-05,1,1,0.414874545,-0.000032493,0.000075539,-0.915408449,0.555412721,0.233429505,-0.000014953,-0.000042236,-0.779629527,0.478587640
0.192500,-0.000420000,-0.024729534,0.047557661,-0.310851000,-0.088439501,0.034888271,6.680601279e-05,4.063622422e-05,1,1,0.416704531,-0.000033114,0.000076790,-0.917220219,0.556191250,0.232318609,-0.000015187,-0.000042928,-0.779165504,0.478189707
0.195000,-0.000420000,-0.024248610,0.047770364,-0.310851000,-0.088920426,0.034888271,6.612243664e-05,4.016175946e-05,1,1,0.418486880,-0.000033722,0.000078011,-0.918970442,0.556941753,0.231226974,-0.000015417,-0.000043608,-0.778705936,0.477797338
0.197500,-0.000420000,-0.023777598,0.047976026,-0.310851000,-0.089391438,0.034888271,6.537922688e-05,3.965614065e-05,1,1,0.420219356,-0.000034316,0.000079201,-0.920656541,0.557663364,0.230155776,-0.000015642,-0.000044274,-0.778251522,0.477411015
0.200000,-0.000420000,-0.023316960,0.048174284,-0.310851000,-0.089852075,0.034888271,6.457694632e-05,3.911957746e-05,1,1,0.421899763,-0.000034895,0.000080358,-0.922276017,0.558355252,0.229106188,-0.000015862,-0.000044926,-0.777802973,0.477031228
0.202500,-0.000420000,-0.022867156,0.048364781,-0.310851000,-0.090301879,0.034888271,6.371623002e-05,3.855232105e-05,1,1,0.423525948,-0.000035459,0.000081482,-0.923826444,0.559016618,0.228079381,-0.000016077,-0.000045564,-0.777361006,0.476658466
0.205000,-0.000420000,-0.022428641,0.048547170,-0.310851000,-0.090740394,0.034888271,6.279778562e-05,3.795466795e-05,1,1,0.425095803,-0.000036005,0.000082570,-0.925305476,0.559646696,0.227076522,-0.000016286,-0.000046186,-0.776926346,0.476293222
0.207500,-0.000420000,-0.022001867,0.048721113,-0.310851000,-0.091167168,0.034888271,6.182239410e-05,3.732696469e-05,1,1,0.426607266,-0.000036534,0.000083621,-0.926710851,0.560244755,0.226098773,-0.000016489,-0.000046791,-0.776499721,0.475935990
0.210000,-0.000420000,-0.021587281,0.048886282,-0.310851000,-0.091581754,0.034888271,6.079091043e-05,3.666961301e-05,1,1,0.428058322,-0.000037044,0.000084633,-0.928040389,0.560810096,0.225147292,-0.000016687,-0.000047380,-0.776081864,0.475587265
0.212500,-0.000420000,-0.021185327,0.049042358,-0.310851000,-0.091983708,0.034888271,5.970426514e-05,3.598307613e-05,1,1,0.429447011,-0.000037534,0.000085606,-0.929292000,0.561342055,0.224223227,-0.000016878,-0.000047952,-0.775673509,0.475247543
0.215000,-0.000420000,-0.020796443,0.049189035,-0.310851000,-0.092372592,0.034888271,5.856346583e-05,3.526788587e-05,1,1,0.430771425,-0.000038003,0.000086537,-0.930463682,0.561839998,0.223327721,-0.000017062,-0.000048505,-0.775275392,0.474917318
0.217500,-0.000420000,-0.020421064,0.049326017,-0.310851000,-0.092747971,0.034888271,5.736959962e-05,3.452465142e-05,1,1,0.432029709,-0.000038451,0.000087426,-0.931553524,0.562303325,0.222461905,-0.000017240,-0.000049039,-0.774888248,0.474597082
0.220000,-0.000420000,-0.020059619,0.049453023,-0.310851000,-0.093109417,0.034888271,5.612383608e-05,3.375406932e-05,1,1,0.433220069,-0.000038876,0.000088271,-0.932559710,0.562731469,0.221626901,-0.000017412,-0.000049553,-0.774512807,0.474287327
0.222500,-0.000420000,-0.019712530,0.049569783,-0.310851000,-0.093456505,0.034888271,5.482743114e-05,3.295693574e-05,1,1,0.434340768,-0.000039278,0.000089071,-0.933480518,0.563123893,0.220823819,-0.000017576,-0.000050047,-0.774149800,0.473988541
0.225000,-0.000420000,-0.019380216,0.049676040,-0.310851000,-0.093788819,0.034888271,5.348173198e-05,9.697765741e-05,1,1,0.435390132,-0.000039655,0.000089824,-0.934314326,0.563480095,0.220223516,-0.000017697,-0.000050420,-0.773899643,0.473772356
0.227500,-0.000420000,-0.019063090,0.049771553,-0.310851000,-0.094105946,0.034888271,5.208818334e-05,3.552809874e-05,1,1,0.436366547,-0.000040008,0.000090530,-0.935059611,0.563799601,0.219331861,-0.000017881,-0.000050969,-0.773477024,0.473434948
0.230000,-0.000420000,-0.018761556,0.049856095,-0.310851000,-0.094407479,0.034888271,5.064833545e-05,9.004576507e-05,1,1,0.437268468,-0.000040335,0.000091187,-0.935714951,0.564081971,0.218775462,-0.000017993,-0.000051314,-0.773238248,0.473232197
0.232500,-0.000420000,-0.018476016,0.049929454,-0.310851000,-0.094693019,0.034888271,4.916385415e-05,3.341822592e-05,1,1,0.438094415,-0.000040635,0.000091794,-0.936279027,0.564326793,0.217965222,-0.000018159,-0.000051811,-0.772848401,0.472923182
0.235000,-0.000420000,-0.018206861,0.049991434,-0.310851000,-0.094962174,0.034888271,9.614663834e-05,8.142002351e-05,1,1,0.438676649,-0.000040835,0.000092212,-0.936628393,0.564501319,0.217466733,-0.000018259,-0.000052120,-0.772632185,0.472740476
0.237500,-0.000420000,-0.017954479,0.050041855,-0.310851000,-0.095214556,0.034888271,4.915233817e-05,9.014270829e-05,1,1,0.439494077,-0.000041132,0.000092814,-0.937109348,0.564725174,0.216906133,-0.000018373,-0.000052467,-0.772381409,0.472532956
0.240000,-0.000420000,-0.017719248,0.050080554,-0.310851000,-0.095449787,0.034888271,8.503460297e-05,8.817799910e-05,1,1,0.439962748,-0.000041295,0.000093158,-0.937324428,0.564843775,0.216355810,-0.000018484,-0.000052807,-0.772128007,0.472326987
0.242500,-0.000420000,-0.017501541,0.050107384,-0.310851000,-0.095667494,0.034888271,8.983248930e-05,8.334400561e-05,1,1,0.440452178,-0.000041463,0.000093515,-0.937507827,0.564959234,0.215837036,-0.000018590,-0.000053127,-0.771885041,0.472131411
0.245000,-0.000420000,-0.017301721,0.050122218,-0.310851000,-0.095867314,0.034888271,8.520602405e-05,7.767263650e-05,1,1,0.440888115,-0.000041613,0.000093837,-0.937616635,0.565045633,0.215356651,-0.000018687,-0.000053423,-0.771657783,0.471949397
0.247500,-0.000420000,-0.017120146,0.050124946,-0.310851000,-0.096048890,0.034888271,7.797317357e-05,7.170005159e-05,1,1,0.441249213,-0.000041737,0.000094110,-0.937635983,0.565094968,0.214917328,-0.000018777,-0.000053693,-0.771448513,0.471782257
0.250000,-0.000420000,-0.016957163,0.050115474,-0.310851000,-0.096211873,0.034888271,6.997140995e-05,6.557487537e-05,1,1,0.441528803,-0.000041831,0.000094329,-0.937560624,0.565104649,0.214520501,-0.000018857,-0.000053936,-0.771258404,0.471630688
0.252500,-0.000420000,-0.016813113,0.050093731,-0.310851000,-0.096355922,0.034888271,6.170508023e-05,5.934614662e-05,1,1,0.441724372,-0.000041896,0.000094493,-0.937388577,0.565073746,0.214167217,-0.000018928,-0.000054151,-0.771088223,0.471495174
0.255000,-0.000420000,-0.016688329,0.050059662,-0.310851000,-0.096480707,0.034888271,5.333024414e-05,5.304011189e-05,1,1,0.441834639,-0.000041931,0.000094601,-0.937119010,0.565001851,0.213858382,-0.000018990,-0.000054339,-0.770938576,0.471376120
0.257500,-0.000420000,-0.016583132,0.050013232,-0.310851000,-0.096585903,0.034888271,4.492255903e-05,4.668326766e-05,1,1,0.441858731,-0.000041935,0.000094651,-0.936751538,0.564888740,0.213594843,-0.000019043,-0.000054498,-0.770809999,0.471273894
0.260000,-0.000420000,-0.016497839,0.049954427,-0.310851000,-0.096671197,0.034888271,3.656376121e-05,4.031388154e-05,1,1,0.441795952,-0.000041907,0.000094644,-0.936286003,0.564734266,0.213377406,-0.000019086,-0.000054628,-0.770702981,0.471188842
0.262500,-0.000420000,-0.016432753,0.049883252,-0.310851000,-0.096736283,0.034888271,2.840603392e-05,3.399645760e-05,1,1,0.441645718,-0.000041849,0.000094579,-0.935722398,0.564538330,0.213206844,-0.000019119,-0.000054728,-0.770617977,0.471121291
0.265000,-0.000420000,-0.016388171,0.049799731,-0.310851000,-0.096780865,0.034888271,2.082042633e-05,7.588824532e-05,1,1,0.441407538,-0.000041759,0.000094456,-0.935060848,0.564300869,0.213206844,-0.000019119,-0.000054728,-0.770617977,0.471121291
0.267500,-0.000420000,-0.016364379,0.049703910,-0.310851000,-0.096804657,0.034888271,1.488662146e-05,9.920881523e-05,1,1,0.441081008,-0.000041638,0.000094274,-0.934301605,0.564021856,0.213206844,-0.000019119,-0.000054728,-0.770617977,0.471121291
0.270000,-0.000420000,-0.016361654,0.049595856,-0.310851000,-0.096807382,0.034888271,1.325530444e-05,3.372133535e-05,1,1,0.440665814,-0.000041486,0.000094032,-0.933445044,0.563701296,0.213039556,-0.000019151,-0.000054826,-0.770537422,0.471055832
0.272500,-0.000420000,-0.016380262,0.049475656,-0.310851000,-0.096788773,0.034888271,1.731156309e-05,1.999135459e-05,1,1,0.440161730,-0.000041302,0.000093732,-0.932491664,0.563339231,0.213039556,-0.000019151,-0.000054826,-0.770537422,0.471055832
0.275000,-0.000420000,-0.016420462,0.049343416,-0.310851000,-0.096748574,0.034888271,2.443305462e-05,3.421354577e-05,1,1,0.439568618,-0.000041087,0.000093372,-0.931442092,0.562935735,0.213039556,-0.000019151,-0.000054826,-0.770537422,0.471055832
0.277500,-0.000420000,-0.016482498,0.049199267,-0.310851000,-0.096686538,0.034888271,3.271726361e-05,9.328750056e-05,1,1,0.438886431,-0.000040841,0.000092952,-0.930297078,0.562490920,0.213039556,-0.000019151,-0.000054826,-0.770537422,0.471055832
0.280000,-0.000420000,-0.016566607,0.049043357,-0.310851000,-0.096602428,0.034888271,4.150110876e-05,4.315982538e-05,1,1,0.438115213,-0.000040565,0.000092473,-0.929057503,0.562004932,0.213334987,-0.000019092,-0.000054632,-0.770645814,0.471154786
0.282500,-0.000420000,-0.016673015,0.048875858,-0.310851000,-0.096496021,0.034888271,5.054207250e-05,3.609265781e-05,1,1,0.437255100,-0.000040258,0.000091934,-0.927724376,0.561477954,0.213596226,-0.000019037,-0.000054461,-0.770762472,0.471248246
0.285000,-0.000420000,-0.016801936,0.048696960,-0.310851000,-0.096367100,0.034888271,5.973349868e-05,3.967809652e-05,1,1,0.436306319,-0.000039921,0.000091336,-0.926298834,0.560910207,0.213886091,-0.000018976,-0.000054272,-0.770895660,0.471353376
0.287500,-0.000420000,-0.016953573,0.048506878,-0.310851000,-0.096215462,0.034888271,6.901982472e-05,4.610880883e-05,1,1,0.435269191,-0.000039554,0.000090678,-0.924782148,0.560301951,0.214222036,-0.000018905,-0.000054054,-0.771050120,0.471475666
0.290000,-0.000420000,-0.017128121,0.048305844,-0.310851000,-0.096040915,0.034888271,7.836765708e-05,5.339879655e-05,1,1,0.434144133,-0.000039158,0.000089961,-0.923175719,0.559653483,0.214609170,-0.000018823,-0.000053804,-0.771227931,0.471616931
0.292500,-0.000420000,-0.017325758,0.048094114,-0.310851000,-0.095843277,0.034888271,8.775437919e-05,6.101015925e-05,1,1,0.432931653,-0.000038733,0.000089185,-0.921481082,0.558965144,0.215049169,-0.000018731,-0.000053521,-0.771429890,0.471777797
0.295000,-0.000420000,-0.017546656,0.047871963,-0.310851000,-0.095622379,0.034888271,9.716310571e-05,6.878604892e-05,1,1,0.431632357,-0.000038280,0.000088351,-0.919699907,0.558237313,0.215542713,-0.000018627,-0.000053204,-0.771656240,0.471958492
0.297500,-0.000420000,-0.017790973,0.047639688,-0.310851000,-0.095378062,0.034888271,1.716885813e-05,7.667304175e-05,1,1,0.429834417,-0.000037641,0.000087208,-0.917240768,0.557228786,0.216090165,-0.000018513,-0.000052854,-0.771906988,0.472159100
0.300000,-0.000420000,-0.018058856,0.047397605,-0.310851000,-0.095110180,0.034888271,8.956120676e-05,8.464751322e-05,1,1,0.428652755,-0.000037242,0.000086442,-0.915697534,0.556586346,0.216691769,-0.000018387,-0.000052470,-0.772182024,0.472379639
0.302500,-0.000420000,-0.018350438,0.047146052,-0.310851000,-0.094818598,0.034888271,2.047351550e-05,9.269551857e-05,1,1,0.426747858,-0.000036579,0.000085218,-0.913189653,0.555545971,0.217347700,-0.000018250,-0.000052052,-0.772481169,0.472620091
0.305000,-0.000420000,-0.018665843,0.046885386,-0.310851000,-0.094503193,0.034888271,1.852037930e-05,2.436575354e-05,1,1,0.425053248,-0.000035999,0.000084125,-0.911006790,0.554633743,0.218259580,-0.000018053,-0.000051470,-0.772929525,0.472963261
0.307500,-0.000420000,-0.019005181,0.046615983,-0.310851000,-0.094163854,0.034888271,1.997606656e-05,8.919277711e-05,1,1,0.423302761,-0.000035405,0.000082990,-0.908788809,0.553702265,0.218881314,-0.000017924,-0.000051073,-0.773196982,0.473186490
0.310000,-0.000420000,-0.019368551,0.046338242,-0.310851000,-0.093800484,0.034888271,2.173256307e-05,2.694958042e-05,1,1,0.421473583,-0.000034789,0.000081800,-0.906501601,0.552737797,0.219880015,-0.000017711,-0.000050437,-0.773670048,0.473557622
0.312500,-0.000420000,-0.019756039,0.046052578,-0.310851000,-0.093412996,0.034888271,2.359539070e-05,2.472588783e-05,1,1,0.419564817,-0.000034149,0.000080554,-0.904144196,0.551739612,0.220784593,-0.000017519,-0.000049860,-0.774085558,0.473889929
0.315000,-0.000420000,-0.020167719,0.045759427,-0.310851000,-0.093001316,0.034888271,2.552858768e-05,2.598248883e-05,1,1,0.417577675,-0.000033486,0.000079254,-0.901719073,0.550708298,0.221731194,-0.000017318,-0.000049257,-0.774512397,0.474235592
0.317500,-0.000420000,-0.020603651,0.045459243,-0.310851000,-0.092565384,0.034888271,2.751324283e-05,2.748260533e-05,1,1,0.415513655,-0.000032801,0.000077901,-0.899229184,0.549644616,0.222730985,-0.000017107,-0.000048622,-0.774959623,0.474599878
0.320000,-0.000420000,-0.021063885,0.045152499,-0.310851000,-0.092105151,0.034888271,2.953534028e-05,2.903013033e-05,1,1,0.413374376,-0.000032096,0.000076495,-0.896677659,0.548549397,0.223784813,-0.000016883,-0.000047952,-0.775427868,0.474983155
0.322500,-0.000420000,-0.021548455,0.044839684,-0.310851000,-0.091620580,0.034888271,3.158378605e-05,3.060870485e-05,1,1,0.411161553,-0.000031372,0.000075038,-0.894067781,0.547423524,0.224892569,-0.000016649,-0.000047250,-0.775916677,0.475385242
0.325000,-0.000420000,-0.022057385,0.044521308,-0.310851000,-0.091111650,0.034888271,3.364958063e-05,3.221327758e-05,1,1,0.408877002,-0.000030628,0.000073531,-0.891402978,0.546267940,0.226054011,-0.000016402,-0.000046514,-0.776425428,0.475805877
0.327500,-0.000420000,-0.022590685,0.044197896,-0.310851000,-0.090578351,0.034888271,3.572527631e-05,3.383994367e-05,1,1,0.406522639,-0.000029868,0.000071976,-0.888686831,0.545083649,0.227268847,-0.000016144,-0.000045745,-0.776953442,0.476244771
0.330000,-0.000420000,-0.023148351,0.043869991,-0.310851000,-0.090020684,0.034888271,3.780458879e-05,3.548526338e-05,1,1,0.404100477,-0.000029091,0.000070374,-0.885923068,0.543871715,0.228536736,-0.000015874,-0.000044942,-0.777499990,0.476701605
0.332500,-0.000420000,-0.023730369,0.043538151,-0.310851000,-0.089438666,0.034888271,3.988211522e-05,3.714615157e-05,1,1,0.401612626,-0.000028299,0.000068726,-0.883115569,0.542633269,0.229857294,-0.000015593,-0.000044107,-0.778064301,0.477176038
0.335000,-0.000420000,-0.024336708,0.043202951,-0.310851000,-0.088832327,0.034888271,4.195312811e-05,3.881981299e-05,1,1,0.399061297,-0.000027493,0.000067035,-0.880268364,0.541369507,0.231230094,-0.000015300,-0.000043240,-0.778645560,0.477667706
0.337500,-0.000420000,-0.024967328,0.042864982,-0.310851000,-0.088201708,0.034888271,4.401342368e-05,4.050369193e-05,1,1,0.396448794,-0.000026674,0.000065301,-0.877385636,0.540081696,0.232654662,-0.000014995,-0.000042340,-0.779242911,0.478176222
0.340000,-0.000420000,-0.025622171,0.042524850,-0.310851000,-0.087546864,0.034888271,4.605920898e-05,4.219543113e-05,1,1,0.393777523,-0.000025843,0.000063527,-0.874471720,0.538771172,0.234130483,-0.000014679,-0.000041409,-0.779855454,0.478701175
0.342500,-0.000420000,-0.026301171,0.042183174,-0.310851000,-0.086867864,0.034888271,4.808701857e-05,4.389283904e-05,1,1,0.391049984,-0.000025002,0.000061714,-0.871531105,0.537439351,0.235656998,-0.000014352,-0.000040445,-0.780482251,0.479242134
0.345000,-0.000420000,-0.027004244,0.041840590,-0.310851000,-0.086164791,0.034888271,5.009365152e-05,4.559386324e-05,1,1,0.388268773,-0.000024152,0.000059864,-0.868568432,0.536087720,0.237233604,-0.000014012,-0.000039450,-0.781122326,0.479798646
0.347500,-0.000420000,-0.027731297,0.041497745,-0.310851000,-0.085437738,0.034888271,5.207612448e-05,4.729656874e-05,1,1,0.385436582,-0.000023293,0.000057979,-0.865588498,0.534717849,0.238859658,-0.000013662,-0.000038425,-0.781774663,0.480370237
0.350000,-0.000420000,-0.028482220,0.041155302,-0.310851000,-0.084686815,0.034888271,5.403163654e-05,4.899912065e-05,1,1,0.382556199,-0.000022428,0.000056062,-0.862596253,0.533331391,0.240534472,-0.000013300,-0.000037368,-0.782438213,0.480956415
0.352500,-0.000420000,-0.029256892,0.040813937,-0.310851000,-0.083912144,0.034888271,5.595754315e-05,5.069976984e-05,1,1,0.379630507,-0.000021556,0.000054114,-0.859596803,0.531930081,0.242257322,-0.000012926,-0.000036282,-0.783111890,0.481556668
0.355000,-0.000420000,-0.030055177,0.040474335,-0.310851000,-0.083113858,0.034888271,5.785133696e-05,5.239684150e-05,1,1,0.376662481,-0.000020681,0.000052137,-0.856595411,0.530515745,0.244027438,-0.000012541,-0.000035165,-0.783794576,0.482170465
0.357500,-0.000420000,-0.030876928,0.040137199,-0.310851000,-0.082292107,0.034888271,5.971063424e-05,5.408872547e-05,1,1,0.373655192,-0.000019801,0.000050133,-0.853597495,0.529090297,0.245844013,-0.000012146,-0.000034020,-0.784485122,0.482797259
0.360000,-0.000420000,-0.031721983,0.039803240,-0.310851000,-0.081447053,0.034888271,6.153316609e-05,5.577386885e-05,1,1,0.370611805,-0.000018920,0.000048105,-0.850608634,0.527655745,0.247706202,-0.000011739,-0.000032845,-0.785182350,0.483436486
0.362500,-0.000420000,-0.032590166,0.039473181,-0.310851000,-0.080578869,0.034888271,6.331677289e-05,5.745076937e-05,1,1,0.367535577,-0.000018037,0.000046056,-0.847634563,0.526214192,0.249613120,-0.000011321,-0.000031642,-0.785885053,0.484087567
0.365000,-0.000420000,-0.033481289,0.039147760,-0.310851000,-0.079687746,0.034888271,6.505940231e-05,5.911797045e-05,1,1,0.364429858,-0.000017154,0.000043987,-0.844681179,0.524767840,0.251563843,-0.000010892,-0.000030412,-0.786591998,0.484749908
0.367500,-0.000420000,-0.034395151,0.038827724,-0.310851000,-0.078773884,0.034888271,6.675910957e-05,6.077405695e-05,1,1,0.361298094,-0.000016272,0.000041901,-0.841754544,0.523318995,0.253557415,-0.000010453,-0.000029153,-0.787301930,0.485422900
0.370000,-0.000420000,-0.035331537,0.038513833,-0.310851000,-0.077837498,0.034888271,6.841406025e-05,6.241765172e-05,1,1,0.358143823,-0.000015393,0.000039800,-0.838860885,0.521870062,0.255592841,-0.000010003,-0.000027869,-0.788013571,0.486105923
0.372500,-0.000420000,-0.036290219,0.038206859,-0.310851000,-0.076878816,0.034888271,7.002253521e-05,6.404741282e-05,1,1,0.354970682,-0.000014516,0.000037687,-0.836006600,0.520423560,0.257669092,-0.000009543,-0.000026557,-0.788725622,0.486798345
0.375000,-0.000420000,-0.037270956,0.037907585,-0.310851000,-0.075898080,0.034888271,7.158293746e-05,6.566203112e-05,1,1,0.351782402,-0.000013644,0.000035565,-0.833198264,0.518982116,0.259785105,-0.000009073,-0.000025221,-0.789436768,0.487499521
0.377500,-0.000420000,-0.038273492,0.037616811,-0.310851000,-0.074895543,0.034888271,7.309380077e-05,6.726022866e-05,1,1,0.348582817,-0.000012777,0.000033436,-0.830442635,0.517548474,0.261939786,-0.000008593,-0.000023859,-0.790145677,0.488208798
0.380000,-0.000420000,-0.039297562,0.037335347,-0.310851000,-0.073871474,0.034888271,7.455379948e-05,6.884075704e-05,1,1,0.345375865,-0.000011916,0.000031302,-0.827746665,0.516125497,0.264132007,-0.000008102,-0.000022473,-0.790851004,0.488925513
0.382500,-0.000420000,-0.040342884,0.037064023,-0.310851000,-0.072826151,0.034888271,7.596176062e-05,7.040239622e-05,1,1,0.342165594,-0.000011062,0.000029168,-0.825117512,0.514716178,0.266360610,-0.000007602,-0.000021064,-0.791551393,0.489648997
0.385000,-0.000420000,-0.041409165,0.036803683,-0.310851000,-0.071759870,0.034888271,7.731667688e-05,7.194395356e-05,1,1,0.338956169,-0.000010216,0.000027036,-0.822562559,0.513323639,0.268624410,-0.000007093,-0.000019631,-0.792245478,0.490378571
0.387500,-0.000420000,-0.042496100,0.036555195,-0.310851000,-0.070672935,0.034888271,7.861772037e-05,7.346426315e-05,1,1,0.335751886,-0.000009379,0.000024908,-0.820089437,0.511951148,0.270922191,-0.000006575,-0.000018176,-0.792931888,0.491113553
0.390000,-0.000420000,-0.043603369,0.036319447,-0.310851000,-0.069565666,0.034888271,7.986425776e-05,7.496218510e-05,1,1,0.332557183,-0.000008552,0.000022787,-0.817706056,0.510602128,0.273252711,-0.000006047,-0.000016699,-0.793609246,0.491853252
0.392500,-0.000420000,-0.044730641,0.036097360,-0.310851000,-0.068438395,0.034888271,8.105586536e-05,7.643660514e-05,1,1,0.329376663,-0.000007736,0.000020677,-0.815420650,0.509280173,0.275614703,-0.000005511,-0.000015202,-0.794276174,0.492596976
0.395000,-0.000420000,-0.045877571,0.035889888,-0.310851000,-0.067291464,0.034888271,8.219234286e-05,7.788643439e-05,1,1,0.326215120,-0.000006931,0.000018582,-0.813241836,0.507989074,0.278006873,-0.000004967,-0.000013684,-0.794931292,0.493344029
0.397500,-0.000420000,-0.047043803,0.035698032,-0.310851000,-0.066125232,0.034888271,8.327372483e-05,7.931060878e-05,1,1,0.323077584,-0.000006139,0.000016503,-0.811178701,0.506732844,0.280427906,-0.000004414,-0.000012147,-0.795573226,0.494093714
0.400000,-0.000420000,-0.048228969,0.035522854,-0.310851000,-0.064940067,0.034888271,8.430028485e-05,8.070808930e-05,1,1,0.319969378,-0.000005361,0.000014446,-0.809240926,0.505515776,0.282876464,-0.000003853,-0.000010591,-0.796200605,0.494845330
0.402500,-0.000420000,-0.049432686,0.035365492,-0.310851000,-0.063736349,0.034888271,8.527252422e-05,8.207786145e-05,1,1,0.316896209,-0.000004596,0.000012413,-0.807438968,0.504342505,0.285351190,-0.000003285,-0.000009018,-0.796812065,0.495598177
0.405000,-0.000420000,-0.050654562,0.035227201,-0.310851000,-0.062514473,0.034888271,8.619112686e-05,8.341893554e-05,1,1,0.313864305,-0.000003848,0.000010410,-0.805784357,0.503218126,0.287850704,-0.000002710,-0.000007427,-0.797406254,0.496351557
0.407500,-0.000420000,-0.051894191,0.035109400,-0.310851000,-0.061274844,0.034888271,8.705683166e-05,8.473034631e-05,1,1,0.310880660,-0.000003115,0.000008439,-0.804290174,0.502148384,0.290373612,-0.000002128,-0.000005820,-0.797981829,0.497104772
0.410000,-0.000420000,-0.053151156,0.035013773,-0.310851000,-0.060017879,0.034888271,8.787008459e-05,8.601115321e-05,1,1,0.307953455,-0.000002401,0.000006508,-0.802971944,0.501140027,0.292918501,-0.000001539,-0.000004197,-0.798537464,0.497857127
0.412500,-0.000420000,-0.054425028,0.034942481,-0.310851000,-0.058744007,0.034888271,8.862997505e-05,8.726044018e-05,1,1,0.305092990,-0.000001706,0.000004622,-0.801849521,0.500201561,0.295483943,-0.000000944,-0.000002560,-0.799071849,0.498607929
0.415000,-0.000420000,-0.055715367,0.034898755,-0.310851000,-0.057453669,0.034888271,8.932981701e-05,8.847731573e-05,1,1,0.302314265,-0.000001034,0.000002791,-0.800952387,0.499345379,0.298068497,-0.000000343,-0.000000910,-0.799583694,0.499356492
0.417500,-0.000420000,-0.057021720,0.034888271,-0.310851000,-0.056147316,0.034891300,8.995584450e-05,8.970795918e-05,1,1,0.299642986,-0.000000389,0.000001032,-0.800331946,0.498592713,0.300683414,0.000000267,0.000000763,-0.800097672,0.500112626
0.420000,-0.000420000,-0.058343624,0.034888271,-0.310851000,-0.054825411,0.034925212,9.098497222e-05,9.141557944e-05,1,1,0.296986763,0.000000249,-0.000000715,-0.799798368,0.497867373,0.303445519,0.000000911,0.000002532,-0.800853719,0.500973244
0.422500,-0.000420000,-0.059680606,0.034888271,-0.310851000,-0.053488429,0.034989986,9.220287432e-05,9.330973137e-05,1,1,0.294291942,0.000000893,-0.000002484,-0.799240765,0.497124848,0.306366309,0.000001595,0.000004405,-0.801875729,0.501947701
0.425000,-0.000420000,-0.061032179,0.034888271,-0.310851000,-0.052136856,0.035082587,9.342445277e-05,9.525522732e-05,1,1,0.291553101,0.000001546,-0.000004279,-0.798646442,0.496360215,0.309432998,0.000002317,0.000006373,-0.803138547,0.503025308
0.427500,-0.000420000,-0.062397849,0.034888271,-0.310851000,-0.050771187,0.035201454,9.462679864e-05,9.723942911e-05,1,1,0.288770104,0.000002206,-0.000006100,-0.798013248,0.495572820,0.312636271,0.000003075,0.000008432,-0.804624327,0.504198236
0.430000,-0.000420000,-0.063777107,0.034888271,-0.310851000,-0.049391928,0.035345570,9.580680941e-05,9.925972251e-05,1,1,0.285943421,0.000002875,-0.000007946,-0.797340197,0.494762483,0.315969427,0.000003870,0.000010577,-0.806320602,0.505460764
0.432500,-0.000420000,-0.065169438,0.034888271,-0.310851000,-0.047999597,0.035514189,9.696379234e-05,2.837396133e-05,1,1,0.283073623,0.000003551,-0.000009817,-0.796626463,0.493929083,0.319645412,0.000004765,0.000012938,-0.808397465,0.506911069
0.435000,-0.000420000,-0.066574314,0.034888271,-0.310851000,-0.046594722,0.035706720,9.809734854e-05,9.831113547e-05,1,1,0.280161329,0.000004234,-0.000011712,-0.795871276,0.493072524,0.323023539,0.000005573,0.000015120,-0.810328570,0.508247382
0.437500,-0.000420000,-0.067991197,0.034888271,-0.310851000,-0.045177838,0.035922663,9.920712439e-05,3.050659094e-05,1,1,0.277207198,0.000004925,-0.000013632,-0.795073910,0.492192723,0.326934689,0.000006540,0.000017639,-0.812793763,0.509857510
0.440000,-0.000420000,-0.069419542,0.034888271,-0.310851000,-0.043749493,0.036161578,2.745398097e-05,3.032439353e-05,1,1,0.274025173,0.000005676,-0.000015704,-0.794124374,0.491230782,0.330754269,0.000007484,0.000020106,-0.815270126,0.511445383
0.442500,-0.000420000,-0.070858791,0.034888271,-0.310851000,-0.042310244,0.036423056,9.649807146e-05,3.147288112e-05,1,1,0.271157565,0.000006334,-0.000017564,-0.793331624,0.490369031,0.334676675,0.000008462,0.000022644,-0.817912557,0.513099736
0.445000,-0.000420000,-0.072308378,0.034888271,-0.310851000,-0.040860657,0.036706714,2.844281557e-05,3.268483717e-05,1,1,0.267905138,0.000007093,-0.000019674,-0.792300726,0.489362519,0.338703420,0.000009477,0.000025254,-0.820721483,0.514820151
0.447500,-0.000420000,-0.073767729,0.034888271,-0.310851000,-0.039401306,0.037012173,9.844188347e-05,3.392738383e-05,1,1,0.264964917,0.000007761,-0.000021573,-0.791427023,0.488457149,0.342831106,0.000010529,0.000027933,-0.823691371,0.516603333
0.450000,-0.000420000,-0.075236259,0.034888271,-0.310851000,-0.037932776,0.037339060,2.955822512e-05,3.519582828e-05,1,1,0.261631026,0.000008531,-0.000023727,-0.790299667,0.487399001,0.347056205,0.000011618,0.000030680,-0.826816525,0.518445890
0.452500,-0.000420000,-0.076713376,0.034888271,-0.310851000,-0.036455659,0.037686999,2.888188400e-05,3.648630290e-05,1,1,0.258432383,0.000009259,-0.000025791,-0.789224579,0.486384589,0.351375170,0.000012745,0.000033493,-0.830091259,0.520344415
0.455000,-0.000420000,-0.078198478,0.034888271,-0.310851000,-0.034970557,0.038055604,2.942501357e-05,3.779505692e-05,1,1,0.255202318,0.000009990,-0.000027871,-0.788108567,0.485348251,0.355784431,0.000013910,0.000036370,-0.833509881,0.522295490
0.457500,-0.000420000,-0.079690957,0.034888271,-0.310851000,-0.033478078,0.038444483,3.000352576e-05,3.911845157e-05,1,1,0.251937617,0.000010725,-0.000029969,-0.786946832,0.484287803,0.360280378,0.000015112,0.000039308,-0.837066666,0.524295681
0.460000,-0.000420000,-0.081190194,0.034888271,-0.310851000,-0.031978841,0.038853227,3.059300675e-05,4.045297162e-05,1,1,0.248639206,0.000011461,-0.000032084,-0.785738951,0.483203280,0.364859362,0.000016353,0.000042307,-0.840755850,0.526341542
0.462500,-0.000420000,-0.082695566,0.034888271,-0.310851000,-0.030473470,0.039281414,3.119300601e-05,4.179523406e-05,1,1,0.245308173,0.000012200,-0.000034215,-0.784484744,0.482094814,0.369517684,0.000017633,0.000045363,-0.844571622,0.528429616
0.465000,-0.000420000,-0.084206438,0.034888271,-0.310851000,-0.028962597,0.039728608,3.180364354e-05,4.314199387e-05,1,1,0.241945657,0.000012941,-0.000036361,-0.783184101,0.480962559,0.374251598,0.000018950,0.000048476,-0.848508117,0.530556447
0.467500,-0.000420000,-0.085722172,0.034888271,-0.310851000,-0.027446863,0.040194353,3.242503654e-05,4.449014744e-05,1,1,0.238552844,0.000013683,-0.000038522,-0.781836983,0.479806687,0.379057305,0.000020307,0.000051642,-0.852559420,0.532718577
0.470000,-0.000420000,-0.087242122,0.034888271,-0.310851000,-0.025926914,0.040678177,3.305728131e-05,4.583673430e-05,1,1,0.235130967,0.000014426,-0.000040698,-0.780443420,0.478627391,0.383930957,0.000021702,0.000054860,-0.856719563,0.534912559
0.472500,-0.000420000,-0.088765632,0.034888271,-0.310851000,-0.024403403,0.041179587,3.370045137e-05,4.717893724e-05,1,1,0.231681303,0.000015169,-0.000042886,-0.779003516,0.477424886,0.388868658,0.000023136,0.000058128,-0.860982532,0.537134963
0.475000,-0.000420000,-0.090292045,0.034888271,-0.310851000,-0.022876990,0.041698074,3.435459616e-05,4.851408169e-05,1,1,0.228205180,0.000015912,-0.000045086,-0.777517446,0.476199410,0.393866462,0.000024609,0.000061444,-0.865342272,0.539382380
0.477500,-0.000420000,-0.091820694,0.034888271,-0.310851000,-0.021348342,0.042233107,3.501973952e-05,4.983963369e-05,1,1,0.224703968,0.000016655,-0.000047297,-0.775985462,0.474951220,0.398920378,0.000026120,0.000064804,-0.869792687,0.541651435
0.480000,-0.000420000,-0.093350907,0.034888271,-0.310851000,-0.019818129,0.042784137,3.569587846e-05,5.115319773e-05,1,1,0.221179087,0.000017396,-0.000049519,-0.774407892,0.473680602,0.404026372,0.000027669,0.000068208,-0.874327655,0.543938788
0.482500,-0.000420000,-0.094882007,0.034888271,-0.310851000,-0.018287029,0.043350596,3.638298178e-05,5.245251368e-05,1,1,0.217632002,0.000018135,-0.000051751,-0.772785141,0.472387863,0.409180371,0.000029257,0.000071653,-0.878941026,0.546241143
0.485000,-0.000420000,-0.096413311,0.034888271,-0.310851000,-0.016755724,0.043931895,3.708098883e-05,5.373545359e-05,1,1,0.214064225,0.000018873,-0.000053990,-0.771117694,0.471073337,0.414378262,0.000030882,0.000075136,-0.883626634,0.548555255
0.487500,-0.000420000,-0.097944133,0.034888271,-0.310851000,-0.015224903,0.044527427,3.778980817e-05,5.500001785e-05,1,1,0.210477314,0.000019607,-0.000056238,-0.769406116,0.469737384,0.419615901,0.000032545,0.000078656,-0.888378304,0.550877936
0.490000,-0.000420000,-0.099473779,0.034888271,-0.310851000,-0.013695256,0.045136565,3.850931632e-05,5.624433128e-05,1,1,0.206872874,0.000020339,-0.000058491,-0.767651053,0.468380392,0.424889110,0.000034245,0.000082210,-0.893189858,0.553206062
0.492500,-0.000420000,-0.101001554,0.034888271,-0.310851000,-0.012167482,0.045758664,3.923935642e-05,5.746663919e-05,1,1,0.203252552,0.000021066,-0.000060750,-0.765853232,0.467002776,0.430193687,0.000035981,0.000085796,-0.898055123,0.555536573
0.495000,-0.000420000,-0.102526756,0.034888271,-0.310851000,-0.010642279,0.046393062,3.997973719e-05,5.866530310e-05,1,1,0.199618046,0.000021789,-0.000063014,-0.764013466,0.465604983,0.435525401,0.000037753,0.000089411,-0.902967941,0.557866484
0.497500,-0.000420000,-0.104048681,0.034888271,-0.310851000,-0.009120354,0.047039076,4.073023144e-05,5.983879639e-05,1,1,0.195971094,0.000022508,-0.000065280,-0.762132650,0.464187488,0.440880006,0.000039560,0.000093053,-0.907922169,0.560192885
0.500000,-0.000420000,-0.105566622,0.034888271,-0.310851000,-0.007602413,0.047696008,4.149057501e-05,6.098570006e-05,1,1,0.192313481,0.000023221,-0.000067549,-0.760211764,0.462750799,0.446253234,0.000041401,0.000096719,-0.912911696,0.562512947
0.502500,-0.000420000,-0.107079867,0.034888271,-0.310851000,-0.006089169,0.048363142,4.226046556e-05,6.210469832e-05,1,1,0.188647037,0.000023929,-0.000069819,-0.758251874,0.461295456,0.451640806,0.000043275,0.000100408,-0.917930442,0.564823924
0.505000,-0.000420000,-0.108587702,0.034888271,-0.310851000,-0.004581334,0.049039748,4.303956129e-05,6.319457439e-05,1,1,0.184973632,0.000024630,-0.000072088,-0.756254131,0.459822032,0.457038431,0.000045183,0.000104116,-0.922972367,0.567123155
0.507500,-0.000420000,-0.110089411,0.034888271,-0.310851000,-0.003079625,0.049725078,4.382747986e-05,6.425420614e-05,1,1,0.181295184,0.000025324,-0.000074356,-0.754219772,0.458331136,0.462441810,0.000047121,0.000107842,-0.928031481,0.569408070
0.510000,-0.000420000,-0.111584274,0.034888271,-0.310851000,-0.001584761,0.050418371,4.462379722e-05,6.528256189e-05,1,1,0.177613648,0.000026011,-0.000076622,-0.752150122,0.456823412,0.467846642,0.000049090,0.000111582,-0.933101845,0.571676187
0.512500,-0.000420000,-0.113071573,0.034888271,-0.310851000,-0.000097463,0.051118849,4.542804640e-05,6.627869631e-05,1,1,0.173931026,0.000026691,-0.000078884,-0.750046591,0.455299541,0.473248623,0.000051088,0.000115334,-0.938177579,0.573925117
0.515000,-0.000420000,-0.114550584,0.034888271,-0.310851000,0.001381548,0.051825724,4.623971649e-05,6.724174660e-05,1,1,0.170249356,0.000027362,-0.000081141,-0.747910676,0.453760242,0.478643452,0.000053114,0.000119096,-0.943252869,0.576152561
0.517500,-0.000420000,-0.116020584,0.034888271,-0.310851000,0.002851548,0.052538194,4.705825155e-05,6.817092819e-05,1,1,0.166570719,0.000028025,-0.000083391,-0.745743962,0.452206274,0.484026833,0.000055166,0.000122865,-0.948321971,0.578356316
0.520000,-0.000420000,-0.117480848,0.034888271,-0.310851000,0.004311813,0.053255445,4.788304956e-05,6.906553135e-05,1,1,0.162897234,0.000028678,-0.000085634,-0.743548119,0.450638436,0.489394479,0.000057243,0.000126638,-0.953379216,0.580534271
0.522500,-0.000420000,-0.118930653,0.034888271,-0.310851000,0.005761618,0.053976654,4.871346145e-05,6.992491741e-05,1,1,0.159231060,0.000029323,-0.000087868,-0.741324903,0.449057567,0.494742113,0.000059344,0.000130412,-0.958419014,0.582684406
0.525000,-0.000420000,-0.120369273,0.034888271,-0.310851000,0.007200237,0.054700985,4.954879014e-05,7.074851516e-05,1,1,0.155574390,0.000029957,-0.000090093,-0.739076155,0.447464551,0.500065473,0.000061466,0.000134186,-0.963435860,0.584804797
0.527500,-0.000420000,-0.121795982,0.034888271,-0.310851000,0.008626947,0.055427595,5.038828965e-05,7.153581761e-05,1,1,0.151929457,0.000030581,-0.000092305,-0.736803800,0.445860312,0.505360312,0.000063608,0.000137957,-0.968424338,0.586893609
0.530000,-0.000420000,-0.123210056,0.034888271,-0.310851000,0.010041021,0.056155633,5.123116444e-05,7.228637876e-05,1,1,0.148298527,0.000031195,-0.000094505,-0.734509850,0.444245823,0.510622405,0.000065768,0.000141720,-0.973379123,0.588949097
0.532500,-0.000420000,-0.124610772,0.034888271,-0.310851000,0.011441737,0.056884241,5.207656849e-05,7.299981041e-05,1,1,0.144683898,0.000031797,-0.000096691,-0.732196395,0.442622100,0.515847547,0.000067944,0.000145475,-0.978294989,0.590969608
0.535000,-0.000420000,-0.125997406,0.034888271,-0.310851000,0.012828371,0.057612554,5.292360483e-05,7.367577939e-05,1,1,0.141087903,0.000032388,-0.000098861,-0.729865609,0.440990206,0.521031560,0.000070134,0.000149218,-0.983166804,0.592953574
0.537500,-0.000420000,-0.127369238,0.034888271,-0.310851000,0.014200202,0.058339702,5.377132504e-05,7.431400475e-05,1,1,0.137512907,0.000032968,-0.000101014,-0.727519747,0.439351250,0.526170291,0.000072336,0.000152946,-0.987989544,0.594899513
0.540000,-0.000420000,-0.128725546,0.034888271,-0.310851000,0.015556511,0.059064813,5.461872878e-05,7.491425488e-05,1,1,0.133961300,0.000033535,-0.000103150,-0.725161139,0.437706393,0.531259620,0.000074548,0.000156657,-0.992758286,0.596806028
0.542500,-0.000420000,-0.130065615,0.034888271,-0.310851000,0.016896580,0.059787009,5.546476371e-05,7.547634535e-05,1,1,0.130435506,0.000034091,-0.000105265,-0.722792194,0.436056841,0.536295457,0.000076767,0.000160348,-0.997468216,0.598671802
0.545000,-0.000420000,-0.131388729,0.034888271,-0.310851000,0.018219693,0.060505413,5.630832528e-05,7.995852721e-05,1,1,0.126937970,0.000034634,-0.000107359,-0.720415395,0.434403852,0.541445478,0.000079077,0.000164125,-1.002307417,0.599547032
0.547500,-0.000420000,-0.132694175,0.034888271,-0.310851000,0.019525139,0.061219145,5.714825699e-05,8.333148078e-05,1,1,0.123471165,0.000035164,-0.000109431,-0.718033296,0.432748733,0.546691389,0.000081473,0.000167975,-1.007256329,0.599613267
0.550000,-0.000420000,-0.133981244,0.034888271,-0.310851000,0.020812209,0.061927326,5.798335064e-05,8.395673759e-05,1,1,0.120037586,0.000035681,-0.000111479,-0.715648523,0.431092843,0.551881560,0.000083880,0.000171803,-1.012143205,0.599639535
0.552500,-0.000420000,-0.135249231,0.034888271,-0.310851000,0.022080196,0.062629079,5.881234684e-05,8.433317239e-05,1,1,0.116639748,0.000036185,-0.000113502,-0.713263766,0.429437591,0.556992847,0.000086286,0.000175594,-1.016939996,0.599661707
0.555000,-0.000420000,-0.136497434,0.034888271,-0.310851000,0.023328398,0.063323529,5.963393588e-05,8.465075655e-05,1,1,0.113280187,0.000036676,-0.000115498,-0.710881782,0.427784436,0.562019894,0.000088685,0.000179345,-1.021640791,0.599682580
0.557500,-0.000420000,-0.137725154,0.034888271,-0.310851000,0.024556119,0.064009804,6.044675876e-05,8.492439463e-05,1,1,0.109961453,0.000037153,-0.000117466,-0.708505387,0.426134889,0.566958759,0.000091075,0.000183052,-1.026241536,0.599702383
0.560000,-0.000420000,-0.138931699,0.034888271,-0.310851000,0.025762663,0.064687038,6.124940851e-05,8.515551714e-05,1,1,0.106686114,0.000037616,-0.000119404,-0.706137454,0.424490512,0.571805662,0.000093453,0.000186713,-1.030738442,0.599721147
0.562500,-0.000420000,-0.140116379,0.034888271,-0.310851000,0.026947344,0.065354371,6.204043178e-05,8.534453513e-05,1,1,0.103456747,0.000038066,-0.000121311,-0.703780913,0.422852916,0.576556892,0.000095816,0.000190324,-1.035127856,0.599738889
0.565000,-0.000420000,-0.141278512,0.034888271,-0.310851000,0.028109477,0.066010948,6.281833088e-05,8.549179606e-05,1,1,0.100275940,0.000038502,-0.000123185,-0.701438740,0.421223764,0.581208798,0.000098160,0.000193883,-1.039406252,0.599755621
0.567500,-0.000420000,-0.142417420,0.034888271,-0.310851000,0.029248384,0.066655924,6.358156611e-05,8.559765584e-05,1,1,0.097146291,0.000038924,-0.000125026,-0.699113959,0.419604766,0.585757797,0.000100483,0.000197387,-1.043570230,0.599771356
0.570000,-0.000420000,-0.143532429,0.034888271,-0.310851000,0.030363394,0.067288463,6.432855833e-05,8.566248371e-05,1,1,0.094070398,0.000039331,-0.000126831,-0.696809635,0.417997679,0.590200366,0.000102781,0.000200833,-1.047616513,0.599786108
0.572500,-0.000420000,-0.144622875,0.034888271,-0.310851000,0.031453840,0.067907739,6.505769209e-05,8.568666222e-05,1,1,0.091050866,0.000039725,-0.000128599,-0.694528869,0.416404308,0.594533052,0.000105052,0.000204217,-1.051541948,0.599799887
0.575000,-0.000420000,-0.145688098,0.034888271,-0.310851000,0.032519062,0.068512938,6.576731905e-05,8.567058662e-05,1,1,0.088090295,0.000040105,-0.000130328,-0.692274796,0.414826502,0.598752468,0.000107290,0.000207538,-1.055343503,0.599812705
0.577500,-0.000420000,-0.146727444,0.034888271,-0.310851000,0.033558409,0.069103258,6.645576187e-05,8.561466460e-05,1,1,0.085191285,0.000040471,-0.000132018,-0.690050575,0.413266153,0.602855296,0.000109494,0.000210792,-1.059018267,0.599824571
0.580000,-0.000420000,-0.147740269,0.034888271,-0.310851000,0.034571234,0.069677911,6.712131842e-05,8.551931587e-05,1,1,0.082356428,0.000040822,-0.000133667,-0.687859387,0.411725193,0.606838291,0.000111661,0.000213975,-1.062563447,0.599835497
0.582500,-0.000420000,-0.148725935,0.034888271,-0.310851000,0.035556900,0.070236125,6.776226655e-05,8.538497181e-05,1,1,0.079588305,0.000041160,-0.000135273,-0.685704430,0.410205594,0.610698280,0.000113786,0.000217086,-1.065976367,0.599845490
0.585000,-0.000420000,-0.149683811,0.034888271,-0.310851000,0.036514775,0.070777142,6.837686911e-05,8.521207518e-05,1,1,0.076889487,0.000041483,-0.000136835,-0.683588909,0.408709362,0.614432166,0.000115866,0.000220121,-1.069254471,0.599854558
0.587500,-0.000420000,-0.150613274,0.034888271,-0.310851000,0.037444239,0.071300222,6.896337968e-05,8.500108002e-05,1,1,0.074262526,0.000041793,-0.000138352,-0.681516036,0.407238533,0.618036925,0.000117898,0.000223078,-1.072395313,0.599862710
0.590000,-0.000420000,-0.151513712,0.034888271,-0.310851000,0.038344677,0.071804643,6.952004827e-05,8.475245116e-05,1,1,0.071709957,0.000042089,-0.000139822,-0.679489019,0.405795175,0.621509615,0.000119879,0.000225952,-1.075396564,0.599869952
0.592500,-0.000420000,-0.152384519,0.034888271,-0.310851000,0.039215484,0.072289704,7.004512800e-05,8.446666435e-05,1,1,0.069234291,0.000042370,-0.000141244,-0.677511055,0.404381380,0.624847372,0.000121806,0.000228743,-1.078256006,0.599876291
0.595000,-0.000420000,-0.153225099,0.034888271,-0.310851000,0.040056064,0.072754720,7.053688165e-05,8.414420585e-05,1,1,0.066838012,0.000042639,-0.000142616,-0.675585327,0.402999259,0.628047413,0.000123675,0.000231445,-1.080971533,0.599881731
0.597500,-0.000420000,-0.154034866,0.034888271,-0.310851000,0.040865831,0.073199032,7.099358891e-05,8.378557237e-05,1,1,0.064523577,0.000042893,-0.000143938,-0.673714995,0.401650940,0.631107040,0.000125482,0.000234058,-1.083541148,0.599886278
0.600000,-0.000420000,-0.154813243,0.034888271,-0.310851000,0.041644207,0.073622000,7.141355384e-05,8.339127098e-05,1,1,0.062293406,0.000043134,-0.000145207,-0.671903189,0.400338565,0.634023640,0.000127226,0.000236578,-1.085962961,0.599889935
0.602500,-0.000420000,-0.155148977,0.034888271,-0.310851000,0.041979942,0.073860623,7.713616732e-05,7.703311841e-05,1,1,0.061366992,0.000043226,-0.000145707,-0.671153884,0.399757138,0.635569763,0.000128318,0.000238137,-1.087478941,0.599817762
0.605000,-0.000420000,-0.155449692,0.034888271,-0.310851000,0.042280657,0.074074909,7.617254055e-05,7.606793162e-05,1,1,0.060505203,0.000043310,-0.000146169,-0.670451657,0.399208095,0.636921326,0.000129303,0.000239558,-1.088804896,0.599808961
0.607500,-0.000420000,-0.155715281,0.034888271,-0.310851000,0.042546245,0.074264598,7.453135313e-05,7.539638798e-05,1,1,0.059740970,0.000043383,-0.000146571,-0.669826570,0.398710062,0.638114475,0.000130201,0.000240863,-1.089975005,0.599803552
0.610000,-0.000420000,-0.155945649,0.034888271,-0.310851000,0.042776613,0.074429462,7.281460469e-05,9.882322524e-05,1,1,0.059078049,0.000043444,-0.000146911,-0.669283657,0.398266020,0.639098582,0.000130894,0.000241857,-1.090929889,0.599462758
0.612500,-0.000420000,-0.156140714,0.034888271,-0.310851000,0.042971679,0.074569300,7.108793182e-05,9.432831028e-05,1,1,0.058517261,0.000043492,-0.000147190,-0.668824247,0.397876971,0.639994646,0.000131546,0.000242786,-1.091809889,0.599454056
0.615000,-0.000420000,-0.156300408,0.034888271,-0.310851000,0.043131372,0.074683945,9.222283570e-05,9.182483043e-05,1,1,0.058161335,0.000043524,-0.000147377,-0.668548460,0.397648459,0.640619697,0.000132042,0.000243533,-1.092421784,0.600000000
0.617500,-0.000420000,-0.156424673,0.034888271,-0.310851000,0.043255637,0.074773257,9.196458970e-05,7.970027422e-05,1,1,0.057807654,0.000043556,-0.000147562,-0.668263976,0.397417848,0.641259553,0.000132561,0.000244277,-1.093052997,0.599868178
0.620000,-0.000420000,-0.156513465,0.034888271,-0.310851000,0.043344430,0.074837128,8.494953958e-05,8.809245030e-05,1,1,0.057525878,0.000043581,-0.000147703,-0.668029306,0.397222378,0.641696997,0.000132966,0.000244880,-1.093483010,0.599441816
0.622500,-0.000420000,-0.156566753,0.034888271,-0.310851000,0.043397718,0.074875482,7.651895946e-05,8.567080131e-05,1,1,0.057337632,0.000043596,-0.000147787,-0.667867231,0.397075271,0.641874450,0.000133141,0.000245154,-1.093656132,0.599831148
0.625000,-0.000420000,-0.156584518,0.034888271,-0.310851000,0.043415482,0.074888271,8.805642776e-05,8.241951343e-05,1,1,0.057337632,0.000043596,-0.000147787,-0.667867231,0.397075271,0.641937929,0.000133253,0.000245351,-1.093719265,0.600000000
0.627500,-0.000420000,-0.156566753,0.034888271,-0.310851000,0.043397718,0.074875482,7.651895946e-05,6.759250067e-05,1,1,0.057337632,0.000043596,-0.000147787,-0.667867231,0.397075271,0.641937929,0.000133253,0.000245351,-1.093719265,0.600000000
0.630000,-0.000420000,-0.156513465,0.034888271,-0.310851000,0.043344430,0.074837128,6.281506340e-05,6.038424053e-05,1,1,0.057337632,0.000043596,-0.000147787,-0.667867231,0.397075271,0.641937929,0.000133253,0.000245351,-1.093719265,0.600000000
0.632500,-0.000420000,-0.156424673,0.034888271,-0.310851000,0.043255637,0.074773257,5.659238451e-05,5.223335892e-05,1,1,0.057573510,0.000043564,-0.000147608,-0.668025197,0.397143510,0.641539554,0.000133141,0.000245220,-1.093351366,0.599335042
0.635000,-0.000420000,-0.156300408,0.034888271,-0.310851000,0.043131372,0.074683945,5.581885808e-05,4.886883428e-05,1,1,0.057902372,0.000043519,-0.000147372,-0.668281258,0.397269200,0.641033660,0.000132959,0.000245019,-1.092866092,0.599469449
0.637500,-0.000420000,-0.156140714,0.034888271,-0.310851000,0.042971679,0.074569300,5.871157424e-05,5.222372898e-05,1,1,0.058332109,0.000043462,-0.000147076,-0.668626318,0.397451428,0.640371071,0.000132688,0.000244711,-1.092225067,0.599540591
0.640000,-0.000420000,-0.155945649,0.034888271,-0.310851000,0.042776613,0.074429462,6.432354376e-05,6.000307021e-05,1,1,0.058864256,0.000043392,-0.000146716,-0.669057308,0.397689631,0.639558715,0.000132335,0.000244299,-1.091436997,0.599551591
0.642500,-0.000420000,-0.155715281,0.034888271,-0.310851000,0.042546245,0.074264598,7.185658004e-05,7.055874407e-05,1,1,0.059498802,0.000043311,-0.000146295,-0.669572805,0.397983380,0.638598927,0.000131904,0.000243781,-1.090504821,0.599503564
0.645000,-0.000420000,-0.155449692,0.034888271,-0.310851000,0.042280657,0.074074909,8.071507982e-05,8.278611226e-05,1,1,0.060235332,0.000043217,-0.000145811,-0.670171786,0.398332252,0.637492806,0.000131394,0.000243160,-1.089429811,0.599397042
0.647500,-0.000420000,-0.155148977,0.034888271,-0.310851000,0.041979942,0.073860623,9.048515000e-05,9.601826614e-05,1,1,0.061073284,0.000043110,-0.000145266,-0.670853267,0.398735779,0.636241167,0.000130808,0.000242435,-1.088212808,0.599232399
0.650000,-0.000420000,-0.154813243,0.034888271,-0.310851000,0.041644207,0.073622000,4.771295550e-05,4.456322881e-05,1,1,0.062304035,0.000042944,-0.000144455,-0.671914652,0.399334324,0.634415691,0.000129963,0.000241442,-1.086399803,0.599143933
0.652500,-0.000420000,-0.154442608,0.034888271,-0.310851000,0.041273573,0.073359328,9.335477737e-05,9.920098180e-05,1,1,0.063147069,0.000042839,-0.000143909,-0.672576068,0.399736398,0.633146038,0.000129370,0.000240688,-1.085178931,0.598965816
0.655000,-0.000420000,-0.154037205,0.034888271,-0.310851000,0.040868170,0.073072926,4.732235110e-05,4.354450746e-05,1,1,0.064556670,0.000042651,-0.000142993,-0.673762507,0.400429775,0.631052240,0.000128382,0.000239483,-1.083111647,0.598759443
0.657500,-0.000420000,-0.153597177,0.034888271,-0.310851000,0.040428142,0.072763140,4.729023717e-05,4.393830343e-05,1,1,0.065854476,0.000042479,-0.000142149,-0.674833731,0.401061562,0.629108651,0.000127473,0.000238362,-1.081204393,0.598601335
0.660000,-0.000420000,-0.153122682,0.034888271,-0.310851000,0.039953646,0.072430345,4.716781606e-05,4.358302435e-05,1,1,0.067227998,0.000042299,-0.000141261,-0.675952823,0.401732845,0.627049171,0.000126502,0.000237145,-1.079188958,0.598388484
0.662500,-0.000420000,-0.152613886,0.034888271,-0.310851000,0.039444851,0.072074944,4.705166482e-05,4.333278176e-05,1,1,0.068694625,0.000042106,-0.000140318,-0.677141322,0.402454941,0.624853807,0.000125458,0.000235820,-1.077041416,0.598112627
0.665000,-0.000420000,-0.152070972,0.034888271,-0.310851000,0.038901937,0.071697369,4.707683693e-05,4.332898679e-05,1,1,0.070255240,0.000041901,-0.000139321,-0.678400561,0.403228327,0.622522141,0.000124341,0.000234386,-1.074760736,0.597773715
0.667500,-0.000420000,-0.151494132,0.034888271,-0.310851000,0.038325097,0.071298078,4.726592445e-05,4.358306059e-05,1,1,0.071908919,0.000041683,-0.000138269,-0.679729117,0.404052098,0.620055428,0.000123153,0.000232845,-1.072348083,0.597372416
0.670000,-0.000420000,-0.150883571,0.034888271,-0.310851000,0.037714536,0.070877554,4.762024579e-05,4.408890572e-05,1,1,0.073654478,0.000041453,-0.000137164,-0.681125138,0.404925125,0.617455148,0.000121894,0.000231197,-1.069804924,0.596909465
0.672500,-0.000420000,-0.150239506,0.034888271,-0.310851000,0.037070471,0.070436310,4.813629049e-05,4.483472228e-05,1,1,0.075490652,0.000041209,-0.000136006,-0.682586641,0.405846201,0.614722890,0.000120568,0.000229443,-1.067132849,0.596385606
0.675000,-0.000420000,-0.149562166,0.034888271,-0.310851000,0.036393131,0.069974880,4.880824372e-05,4.580495631e-05,1,1,0.077416113,0.000040952,-0.000134795,-0.684111559,0.406814063,0.611860339,0.000119175,0.000227584,-1.064333564,0.595801590
0.677500,-0.000420000,-0.148851792,0.034888271,-0.310851000,0.035682756,0.069493827,4.962858033e-05,4.698146168e-05,1,1,0.079429482,0.000040682,-0.000133534,-0.685697747,0.407827396,0.608869272,0.000117718,0.000225623,-1.061408889,0.595158176
0.680000,-0.000420000,-0.148108635,0.034888271,-0.310851000,0.034939600,0.068993737,5.058844604e-05,4.834458610e-05,1,1,0.081529325,0.000040399,-0.000132222,-0.687342987,0.408884838,0.605751562,0.000116200,0.000223559,-1.058360756,0.594456128
0.682500,-0.000420000,-0.147332960,0.034888271,-0.310851000,0.034163925,0.068475217,5.167802344e-05,4.987413603e-05,1,1,0.083714156,0.000040102,-0.000130861,-0.689044995,0.409984982,0.602509173,0.000114621,0.000221395,-1.055191216,0.593696220
0.685000,-0.000420000,-0.146525043,0.034888271,-0.310851000,0.033356007,0.067938902,5.288688094e-05,5.155015433e-05,1,1,0.085982442,0.000039792,-0.000129451,-0.690801421,0.411126384,0.599144163,0.000112984,0.000219132,-1.051902437,0.592879235
0.687500,-0.000420000,-0.145685170,0.034888271,-0.310851000,0.032516135,0.067385444,5.420428782e-05,5.335348720e-05,1,1,0.088332603,0.000039467,-0.000127994,-0.692609858,0.412307562,0.595658678,0.000111293,0.000216771,-1.048496707,0.592005966
0.690000,-0.000420000,-0.144813640,0.034888271,-0.310851000,0.031644605,0.066815522,5.561948107e-05,5.526615349e-05,1,1,0.090763014,0.000039129,-0.000126490,-0.694467847,0.413527002,0.592054957,0.000109548,0.000214316,-1.044976438,0.591077219
0.692500,-0.000420000,-0.143910763,0.034888271,-0.310851000,0.030741728,0.066229831,5.712187968e-05,5.727154851e-05,1,1,0.093272008,0.000038777,-0.000124940,-0.696372876,0.414783164,0.588335328,0.000107753,0.000211766,-1.041344162,0.590093816
0.695000,-0.000420000,-0.142976859,0.034888271,-0.310851000,0.029807824,0.065629090,5.870124606e-05,5.935452137e-05,1,1,0.095857876,0.000038410,-0.000123345,-0.698322392,0.416074481,0.584502209,0.000105911,0.000209125,-1.037602540,0.589056590
0.697500,-0.000420000,-0.142012261,0.034888271,-0.310851000,0.028843225,0.065014035,6.034780025e-05,6.150136370e-05,1,1,0.098518873,0.000038030,-0.000121707,-0.700313798,0.417399365,0.580558103,0.000104023,0.000206394,-1.033754358,0.587966393
0.700000,-0.000420000,-0.141017310,0.034888271,-0.310851000,0.027848275,0.064385422,6.205229312e-05,6.369974123e-05,1,1,0.101253216,0.000037635,-0.000120026,-0.702344467,0.418756213,0.576505603,0.000102093,0.000203576,-1.029802533,0.586824096
0.702500,-0.000420000,-0.139992361,0.034888271,-0.310851000,0.026823326,0.063744023,6.380604623e-05,6.593859270e-05,1,1,0.104059089,0.000037225,-0.000118304,-0.704411735,0.420143405,0.572347387,0.000100123,0.000200673,-1.025750112,0.585630589
0.705000,-0.000420000,-0.138937777,0.034888271,-0.310851000,0.025768742,0.063090629,6.560096684e-05,6.820801326e-05,1,1,0.106934643,0.000036801,-0.000116541,-0.706512917,0.421559314,0.568086220,0.000098116,0.000197686,-1.021600277,0.584386786
0.707500,-0.000420000,-0.137853934,0.034888271,-0.310851000,0.024684899,0.062426046,6.742954342e-05,7.049913337e-05,1,1,0.109878000,0.000036363,-0.000114739,-0.708645301,0.423002303,0.563724949,0.000096075,0.000194619,-1.017356343,0.583093625
0.710000,-0.000420000,-0.136741216,0.034888271,-0.310851000,0.023572181,0.061751095,6.928482823e-05,7.280400191e-05,1,1,0.112887252,0.000035910,-0.000112898,-0.710806162,0.424470734,0.559266507,0.000094002,0.000191474,-1.013021763,0.581752071
0.712500,-0.000420000,-0.135600019,0.034888271,-0.310851000,0.022430984,0.061066613,7.116041145e-05,7.511547638e-05,1,1,0.115960469,0.000035442,-0.000111020,-0.712992759,0.425962966,0.554713911,0.000091901,0.000188254,-1.008600130,0.580363118
0.715000,-0.000420000,-0.134430748,0.034888271,-0.310851000,0.021261712,0.060373448,7.305038953e-05,7.742712298e-05,1,1,0.119095691,0.000034960,-0.000109106,-0.715202342,0.427477360,0.550070259,0.000089775,0.000184961,-1.004095178,0.578927793
0.717500,-0.000420000,-0.133233818,0.034888271,-0.310851000,0.020064783,0.059672462,7.494933158e-05,7.973312668e-05,1,1,0.122290942,0.000034463,-0.000107156,-0.717432157,0.429012285,0.545338731,0.000087625,0.000181598,-0.999510781,0.577447154
0.720000,-0.000420000,-0.132009656,0.034888271,-0.310851000,0.018840620,0.058964530,7.685224447e-05,8.202821217e-05,1,1,0.125544220,0.000033951,-0.000105173,-0.719679448,0.430566115,0.540522587,0.000085456,0.000178168,-0.994850961,0.575922302
0.722500,-0.000420000,-0.130758695,0.034888271,-0.310851000,0.017589660,0.058250535,7.875453880e-05,8.430757396e-05,1,1,0.128853510,0.000033425,-0.000103157,-0.721941461,0.432137236,0.535625168,0.000083269,0.000174673,-0.990119884,0.574354372
0.725000,-0.000420000,-0.129481380,0.034888271,-0.310851000,0.016312345,0.057531372,8.065199598e-05,8.656681519e-05,1,1,0.132216776,0.000032884,-0.000101109,-0.724215452,0.433724044,0.530649893,0.000081068,0.000171117,-0.985321864,0.572744548
0.727500,-0.000420000,-0.128178166,0.034888271,-0.310851000,0.015009131,0.056807945,8.254073735e-05,8.880189501e-05,1,1,0.135631969,0.000032329,-0.000099030,-0.726498683,0.435324954,0.525600262,0.000078856,0.000167502,-0.980461366,0.571094057
0.730000,-0.000420000,-0.126849515,0.034888271,-0.310851000,0.013680479,0.056081164,8.441719516e-05,9.100908192e-05,1,1,0.139097028,0.000031760,-0.000096922,-0.728788434,0.436938396,0.520479848,0.000076635,0.000163832,-0.975543005,0.569404176
0.732500,-0.000420000,-0.125495899,0.034888271,-0.310851000,0.012326863,0.055351950,8.627808649e-05,9.318491403e-05,1,1,0.142609880,0.000031176,-0.000094786,-0.731082000,0.438562818,0.515292305,0.000074408,0.000160110,-0.970571548,0.567676238
0.735000,-0.000420000,-0.124117798,0.034888271,-0.310851000,0.010948763,0.054621226,8.812038825e-05,9.532616448e-05,1,1,0.146168440,0.000030578,-0.000092623,-0.733376697,0.440196690,0.510041360,0.000072178,0.000156340,-0.965551915,0.565911629
0.737500,-0.000420000,-0.122715704,0.034888271,-0.310851000,0.009546669,0.053889923,8.994131551e-05,9.742981082e-05,1,1,0.149770619,0.000029966,-0.000090433,-0.735669865,0.441838507,0.504730815,0.000069948,0.000152523,-0.960489183,0.564111798
0.740000,-0.000420000,-0.121290114,0.034888271,-0.310851000,0.008121078,0.053158976,9.173830108e-05,9.949300925e-05,1,1,0.153414319,0.000029341,-0.000088219,-0.737958873,0.443486784,0.499364548,0.000067719,0.000148664,-0.955388581,0.562278258
0.742500,-0.000420000,-0.119841534,0.034888271,-0.310851000,0.006672499,0.052429324,9.350897750e-05,2.651306645e-05,1,1,0.157097439,0.000028701,-0.000085981,-0.740241119,0.445140064,0.493561469,0.000065257,0.000144382,-0.949811019,0.560452705
0.745000,-0.000420000,-0.118370479,0.034888271,-0.310851000,0.005201444,0.051701907,9.525116045e-05,9.727656643e-05,1,1,0.160817872,0.000028048,-0.000083720,-0.742514033,0.446796917,0.488410295,0.000063184,0.000140653,-0.945007782,0.558698916
0.747500,-0.000420000,-0.116877472,0.034888271,-0.310851000,0.003708436,0.050977670,9.696283394e-05,2.581408089e-05,1,1,0.164573512,0.000027382,-0.000081438,-0.744775084,0.448455941,0.482539416,0.000060756,0.000136316,-0.939415521,0.556813157
0.750000,-0.000420000,-0.115363043,0.034888271,-0.310851000,0.002194008,0.050257555,9.864213682e-05,2.535839188e-05,1,1,0.168362251,0.000026704,-0.000079135,-0.747021776,0.450115764,0.476940741,0.000058481,0.000132154,-0.934158900,0.555037716
0.752500,-0.000420000,-0.113827730,0.034888271,-0.310851000,0.000658695,0.049542508,2.532761211e-05,2.505168922e-05,1,1,0.172425096,0.000025966,-0.000076699,-0.749466264,0.451936966,0.471316690,0.000056229,0.000127975,-0.928906347,0.553232087
0.755000,-0.000420000,-0.112272079,0.034888271,-0.310851000,-0.000896956,0.048833472,9.661945867e-05,2.479682853e-05,1,1,0.176045505,0.000025313,-0.000074498,-0.751479885,0.453479682,0.465663843,0.000053996,0.000123780,-0.923653093,0.551394317
0.757500,-0.000420000,-0.110696643,0.034888271,-0.310851000,-0.002472392,0.048131389,2.535887319e-05,2.460407743e-05,1,1,0.180144253,0.000024557,-0.000072038,-0.753853713,0.455279987,0.459986325,0.000051786,0.000119572,-0.918405123,0.549526629
0.760000,-0.000420000,-0.109101981,0.034888271,-0.310851000,-0.004067055,0.047437202,9.956691509e-05,2.447423234e-05,1,1,0.183813780,0.000023881,-0.000069805,-0.755824478,0.456814760,0.454288531,0.000049601,0.000115355,-0.913168916,0.547631455
0.762500,-0.000420000,-0.107488659,0.034888271,-0.310851000,-0.005680376,0.046751847,2.555787423e-05,2.440692982e-05,1,1,0.187961546,0.000023100,-0.000067313,-0.758144561,0.458602087,0.448574930,0.000047441,0.000111132,-0.907951118,0.545711318
0.765000,-0.000420000,-0.105857252,0.034888271,-0.310851000,-0.007311784,0.046076259,2.479818021e-05,2.440101357e-05,1,1,0.191904619,0.000022359,-0.000064945,-0.760251938,0.460272415,0.442850054,0.000045310,0.000106908,-0.902758531,0.543768841
0.767500,-0.000420000,-0.104208338,0.034888271,-0.310851000,-0.008960697,0.045411369,2.490825746e-05,2.445455222e-05,1,1,0.195860236,0.000021609,-0.000062566,-0.762321178,0.461929335,0.437118496,0.000043208,0.000102685,-0.897598116,0.541806748
0.770000,-0.000420000,-0.102542504,0.034888271,-0.310851000,-0.010626532,0.044758104,2.505561545e-05,2.456487317e-05,1,1,0.199832298,0.000020848,-0.000060176,-0.764357795,0.463575446,0.431384910,0.000041138,0.000098469,-0.892476984,0.539827866
0.772500,-0.000420000,-0.100860341,0.034888271,-0.310851000,-0.012308695,0.044117384,2.522919299e-05,2.472862178e-05,1,1,0.203818937,0.000020077,-0.000057773,-0.766360042,0.465209831,0.425654011,0.000039101,0.000094262,-0.887402401,0.537835136
0.775000,-0.000420000,-0.099162447,0.034888271,-0.310851000,-0.014006589,0.043490127,2.542615339e-05,2.494184092e-05,1,1,0.207818120,0.000019297,-0.000055361,-0.768325944,0.466831481,0.419930568,0.000037097,0.000090069,-0.882381782,0.535831612
0.777500,-0.000420000,-0.097449425,0.034888271,-0.310851000,-0.015719610,0.042877244,2.564368210e-05,2.520006376e-05,1,1,0.211827820,0.000018507,-0.000052939,-0.770253577,0.468439415,0.414219407,0.000035130,0.000085893,-0.877422691,0.533820465
0.780000,-0.000420000,-0.095721884,0.034888271,-0.310851000,-0.017447151,0.042279640,2.587902720e-05,2.549841353e-05,1,1,0.215846024,0.000017708,-0.000050510,-0.772141079,0.470032690,0.408525408,0.000033199,0.000081738,-0.872532841,0.531804991
0.782500,-0.000420000,-0.093980438,0.034888271,-0.310851000,-0.019188597,0.041698216,2.612952750e-05,2.583170303e-05,1,1,0.219870738,0.000016900,-0.000048073,-0.773986651,0.471610399,0.402853505,0.000031305,0.000077607,-0.867720087,0.529788613
0.785000,-0.000420000,-0.092225706,0.034888271,-0.310851000,-0.020943330,0.041133867,2.639263099e-05,2.619452914e-05,1,1,0.223899984,0.000016085,-0.000045630,-0.775788564,0.473171667,0.397208682,0.000029451,0.000073506,-0.862992435,0.527774881
0.787500,-0.000420000,-0.090458310,0.034888271,-0.310851000,-0.022710726,0.040587484,2.666590808e-05,2.658135856e-05,1,1,0.227931803,0.000015262,-0.000043182,-0.777545154,0.474715659,0.391595977,0.000027636,0.000069436,-0.858358036,0.525767480
0.790000,-0.000420000,-0.088678879,0.034888271,-0.310851000,-0.024490157,0.040059952,2.694706056e-05,2.698660216e-05,1,1,0.231964255,0.000014433,-0.000040730,-0.779254823,0.476241570,0.386020481,0.000025861,0.000065403,-0.853825188,0.523770233
0.792500,-0.000420000,-0.086888045,0.034888271,-0.310851000,-0.026280991,0.039552155,2.723392670e-05,2.740467790e-05,1,1,0.235995421,0.000013596,-0.000038275,-0.780916048,0.477748633,0.380487337,0.000024127,0.000061409,-0.849402345,0.521787100
0.795000,-0.000420000,-0.085086444,0.034888271,-0.310851000,-0.028082591,0.039064974,2.752448341e-05,2.783006188e-05,1,1,0.240023407,0.000012754,-0.000035819,-0.782527374,0.479236115,0.375001747,0.000022434,0.000057458,-0.845098118,0.519822187
0.797500,-0.000420000,-0.083274717,0.034888271,-0.310851000,-0.029894319,0.038599291,2.781684585e-05,2.825732883e-05,1,1,0.244046337,0.000011907,-0.000033362,-0.784087416,0.480703315,0.369568975,0.000020784,0.000053555,-0.840921289,0.517879748
0.800000,-0.000420000,-0.081453506,0.034888271,-0.310851000,-0.031715529,0.038155990,2.810926499e-05,2.868118330e-05,1,1,0.248062362,0.000011055,-0.000030905,-0.785594865,0.482149568,0.364194352,0.000019176,0.000049702,-0.836880824,0.515964193
0.802500,-0.000420000,-0.079623460,0.034888271,-0.310851000,-0.033545575,0.037735960,2.840012379e-05,2.909648317e-05,1,1,0.252069659,0.000010198,-0.000028449,-0.787048484,0.483574240,0.358883289,0.000017610,0.000045904,-0.832985896,0.514080090
0.805000,-0.000420000,-0.077785229,0.034888271,-0.310851000,-0.035383807,0.037340104,2.868793231e-05,2.949825638e-05,1,1,0.256066430,0.000009338,-0.000025996,-0.788447111,0.484976732,0.353641294,0.000016087,0.000042164,-0.829245917,0.512232182
0.807500,-0.000420000,-0.075939464,0.034888271,-0.310851000,-0.037229571,0.036969336,2.897132188e-05,2.988171246e-05,1,1,0.260050902,0.000008475,-0.000023546,-0.789789659,0.486356477,0.348473986,0.000014607,0.000038486,-0.825670578,0.510425398
0.810000,-0.000420000,-0.074086824,0.034888271,-0.310851000,-0.039082212,0.036624598,2.924903923e-05,3.024224866e-05,1,1,0.264021335,0.000007609,-0.000021101,-0.791075116,0.487712937,0.343387134,0.000013171,0.000034873,-0.822269917,0.508664873
0.812500,-0.000420000,-0.072227964,0.034888271,-0.310851000,-0.040941071,0.036306866,2.951993983e-05,3.057545050e-05,1,1,0.267976013,0.000006742,-0.000018660,-0.792302548,0.489045611,0.338386696,0.000011778,0.000031330,-0.819054406,0.506955981
0.815000,-0.000420000,-0.070363547,0.034888271,-0.310851000,-0.042805489,0.036017166,2.978298163e-05,3.087708434e-05,1,1,0.271913254,0.000005872,-0.000016226,-0.793471097,0.490354023,0.333478884,0.000010428,0.000027861,-0.816035081,0.505304379
0.817500,-0.000420000,-0.068494234,0.034888271,-0.310851000,-0.044674802,0.035756597,3.003721865e-05,3.114307702e-05,1,1,0.275831404,0.000005003,-0.000013799,-0.794579983,0.491637732,0.328670254,0.000009121,0.000024469,-0.813223736,0.503716079
0.820000,-0.000420000,-0.066620689,0.034888271,-0.310851000,-0.046548346,0.035526362,3.028179470e-05,3.136947120e-05,1,1,0.279728844,0.000004133,-0.000011380,-0.795628503,0.492896325,0.323967861,0.000007859,0.000021159,-0.810633223,0.502197554
0.822500,-0.000420000,-0.064743579,0.034888271,-0.310851000,-0.048425457,0.035327825,3.051593748e-05,3.155233047e-05,1,1,0.283603985,0.000003263,-0.000008971,-0.796616033,0.494129419,0.319379484,0.000006640,0.000017937,-0.808277931,0.500755929
0.825000,-0.000420000,-0.062863570,0.034888271,-0.310851000,-0.050305466,0.035162599,3.073895280e-05,3.168753006e-05,1,1,0.287455274,0.000002395,-0.000006571,-0.797542028,0.495336661,0.314914040,0.000005466,0.000014807,-0.806174627,0.499399300
0.827500,-0.000420000,-0.060981330,0.034888271,-0.310851000,-0.052187706,0.035032718,3.095021919e-05,3.177024541e-05,1,1,0.291281189,0.000001528,-0.000004182,-0.798406020,0.496517724,0.310582374,0.000004337,0.000011776,-0.804344075,0.498137373
0.830000,-0.000420000,-0.059097527,0.034888271,-0.310851000,-0.054071508,0.034941044,3.114918282e-05,3.179343395e-05,1,1,0.295080248,0.000000664,-0.000001805,-0.799207621,0.497672314,0.306399084,0.000003255,0.000008854,-0.802814778,0.496982952
0.832500,-0.000420000,-0.057212832,0.034888271,-0.310851000,-0.055956203,0.034892624,3.133535267e-05,3.174084159e-05,1,1,0.298851002,-0.000000198,0.000000559,-0.799946523,0.498800160,0.302388741,0.000002225,0.000006056,-0.801635688,0.495957025
0.835000,-0.000420000,-0.055327914,0.034903428,-0.310851000,-0.057841122,0.034888271,3.163421882e-05,3.166244073e-05,1,1,0.302660858,-0.000001072,0.000002953,-0.800762709,0.499957681,0.298556905,0.000001245,0.000003385,-0.800817219,0.495065053
0.837500,-0.000420000,-0.053443442,0.034967121,-0.310851000,-0.059725594,0.034888271,3.229605395e-05,3.190635779e-05,1,1,0.306662646,-0.000001996,0.000005477,-0.801969110,0.501271117,0.294724628,0.000000273,0.000000726,-0.799993034,0.494161055
0.840000,-0.000420000,-0.051560086,0.035071932,-0.310851000,-0.061608949,0.034888271,3.302740321e-05,3.220665038e-05,1,1,0.310827105,-0.000002964,0.000008112,-0.803506781,0.502715965,0.290867021,-0.000000699,-0.000001938,-0.799110178,0.493224426
0.842500,-0.000420000,-0.049678515,0.035213859,-0.310851000,-0.063490520,0.034888271,3.381806890e-05,3.251984037e-05,1,1,0.315133784,-0.000003975,0.000010843,-0.805335301,0.504275026,0.286984505,-0.000001670,-0.000004607,-0.798166988,0.492255102
0.845000,-0.000420000,-0.047799398,0.035390389,-0.310851000,-0.065369637,0.034888271,3.466900893e-05,3.284461240e-05,1,1,0.319569251,-0.000005025,0.000013664,-0.807428653,0.505936823,0.283078443,-0.000002639,-0.000007279,-0.797163681,0.491253752
0.847500,-0.000420000,-0.045923402,0.035599656,-0.310851000,-0.067245633,0.034888271,3.557751704e-05,3.318137289e-05,1,1,0.324123226,-0.000006115,0.000016567,-0.809767305,0.507692417,0.279150272,-0.000003606,-0.000009954,-0.796100623,0.490221072
0.850000,-0.000420000,-0.044051194,0.035840145,-0.310851000,-0.069117841,0.034888271,3.653937416e-05,3.353055838e-05,1,1,0.328787118,-0.000007244,0.000019548,-0.812335219,0.509534215,0.275201471,-0.000004571,-0.000012632,-0.794978268,0.489157767
0.852500,-0.000420000,-0.042183439,0.036110552,-0.310851000,-0.070985596,0.034888271,3.754969175e-05,3.389256594e-05,1,1,0.333553362,-0.000008410,0.000022601,-0.815118491,0.511455431,0.271233557,-0.000005532,-0.000015311,-0.793797156,0.488064549
0.855000,-0.000420000,-0.040320801,0.036409714,-0.310851000,-0.072848234,0.034888271,3.860326280e-05,3.426774830e-05,1,1,0.338415062,-0.000009615,0.000025723,-0.818104628,0.513449808,0.267248083,-0.000006490,-0.000017991,-0.792557911,0.486942139
0.857500,-0.000420000,-0.038463941,0.036736559,-0.310851000,-0.074705094,0.034888271,3.969475403e-05,3.465641140e-05,1,1,0.343365785,-0.000010858,0.000028910,-0.821282116,0.515511457,0.263246640,-0.000007444,-0.000020671,-0.791261241,0.485791264
0.860000,-0.000420000,-0.036613520,0.037090080,-0.310851000,-0.076555516,0.034888271,4.081883101e-05,3.505881245e-05,1,1,0.348399431,-0.000012138,0.000032158,-0.824640157,0.517634763,0.259230856,-0.000008393,-0.000023350,-0.789907940,0.484612662
0.862500,-0.000420000,-0.034770194,0.037469314,-0.310851000,-0.078398842,0.034888271,4.197024619e-05,3.547515821e-05,1,1,0.353510144,-0.000013455,0.000035463,-0.828168495,0.519814322,0.255202393,-0.000009337,-0.000026027,-0.788498883,0.483407081
0.865000,-0.000420000,-0.032934618,0.037873329,-0.310851000,-0.080234417,0.034888271,4.314390191e-05,3.590560342e-05,1,1,0.358692256,-0.000014810,0.000038823,-0.831857289,0.522044909,0.251162945,-0.000010275,-0.000028701,-0.787035029,0.482175280
0.867500,-0.000420000,-0.031107445,0.038301215,-0.310851000,-0.082061590,0.034888271,4.433489571e-05,3.635024967e-05,1,1,0.363940247,-0.000016203,0.000042235,-0.835697037,0.524321447,0.247114240,-0.000011207,-0.000031372,-0.785517417,0.480918028
0.870000,-0.000420000,-0.029289324,0.038752076,-0.310851000,-0.083879711,0.034888271,4.553855113e-05,3.680914442e-05,1,1,0.369248710,-0.000017632,0.000045694,-0.839678514,0.526638999,0.243058040,-0.000012131,-0.000034038,-0.783947170,0.479636108
0.872500,-0.000420000,-0.027480901,0.039225023,-0.310851000,-0.085688134,0.034888271,4.675043753e-05,3.728228019e-05,1,1,0.374612338,-0.000019098,0.000049198,-0.843792728,0.528992756,0.238996133,-0.000013048,-0.000036699,-0.782325489,0.478330315
0.875000,-0.000420000,-0.025682818,0.039719174,-0.310851000,-0.087486217,0.034888271,4.796638137e-05,3.776959416e-05,1,1,0.380025904,-0.000020601,0.000052745,-0.848030893,0.531378034,0.234930340,-0.000013958,-0.000039352,-0.780653656,0.477001459
0.877500,-0.000420000,-0.023895715,0.040233647,-0.310851000,-0.089273321,0.034888271,4.918247100e-05,3.827096791e-05,1,1,0.385484252,-0.000022140,0.000056330,-0.852384407,0.533790273,0.230862509,-0.000014858,-0.000041999,-0.778933029,0.475650364
0.880000,-0.000420000,-0.022120225,0.040767561,-0.310851000,-0.091048810,0.034888271,5.039505591e-05,3.878622736e-05,1,1,0.390982287,-0.000023715,0.000059951,-0.856844835,0.536225035,0.226794515,-0.000015750,-0.000044636,-0.777165045,0.474277870
0.882500,-0.000420000,-0.020356981,0.041320031,-0.310851000,-0.092812054,0.034888271,5.160074283e-05,3.931514282e-05,1,1,0.396514972,-0.000025326,0.000063606,-0.861403896,0.538678006,0.222728258,-0.000016632,-0.000047264,-0.775351217,0.472884833
0.885000,-0.000420000,-0.018606608,0.041890171,-0.310851000,-0.094562427,0.034888271,5.279638852e-05,3.985742955e-05,1,1,0.402077326,-0.000026971,0.000067290,-0.866053461,0.541145002,0.218665666,-0.000017504,-0.000049882,-0.773493131,0.471472126
0.887500,-0.000420000,-0.016869729,0.042477088,-0.310851000,-0.096299307,0.034888271,5.397909120e-05,4.041274790e-05,1,1,0.407664414,-0.000028651,0.000071002,-0.870785546,0.543621964,0.214608687,-0.000018365,-0.000052487,-0.771592450,0.470040640
0.890000,-0.000420000,-0.015146960,0.043079885,-0.310851000,-0.098022076,0.034888271,5.514617994e-05,4.098070425e-05,1,1,0.413271355,-0.000030365,0.000074739,-0.875592303,0.546104966,0.210559294,-0.000019215,-0.000055080,-0.769650907,0.468591286
0.892500,-0.000420000,-0.013438913,0.043697661,-0.310851000,-0.099730122,0.034888271,5.629520420e-05,4.156085149e-05,1,1,0.418893315,-0.000032111,0.000078497,-0.880466029,0.548590213,0.206519479,-0.000020054,-0.000057659,-0.767670305,0.467124992
0.895000,-0.000420000,-0.011746196,0.044329507,-0.310851000,-0.101422839,0.034888271,5.742392197e-05,4.215269005e-05,1,1,0.424525507,-0.000033890,0.000082275,-0.885399157,0.551074047,0.202491254,-0.000020881,-0.000060222,-0.765652516,0.465642710
0.897500,-0.000420000,-0.010069410,0.044974510,-0.310851000,-0.103099625,0.034888271,5.853028863e-05,4.275566866e-05,1,1,0.430163196,-0.000035701,0.000086068,-0.890384257,0.553552945,0.198476652,-0.000021696,-0.000062770,-0.763599483,0.464145410
0.900000,-0.000420000,-0.008409150,0.045631753,-0.310851000,-0.104759885,0.034888271,5.961244504e-05,4.336918535e-05,1,1,0.435801694,-0.000037541,0.000089875,-0.895414040,0.556023522,0.194477720,-0.000022498,-0.000065300,-0.761513210,0.462634087
0.902500,-0.000420000,-0.006766007,0.046300312,-0.310851000,-0.106403028,0.034888271,6.066870660e-05,4.399258872e-05,1,1,0.441436362,-0.000039412,0.000093693,-0.900481355,0.558482529,0.190496522,-0.000023287,-0.000067812,-0.759395768,0.461109755
0.905000,-0.000420000,-0.005140564,0.046979259,-0.310851000,-0.108028471,0.034888271,6.169755220e-05,4.462517867e-05,1,1,0.447062616,-0.000041310,0.000097518,-0.905579194,0.560926857,0.186535137,-0.000024062,-0.000070304,-0.757249289,0.459573455
0.907500,-0.000420000,-0.003533399,0.047667663,-0.310851000,-0.109635636,0.034888271,6.269761362e-05,4.526620787e-05,1,1,0.452675920,-0.000043236,0.000101348,-0.910700689,0.563353535,0.182595656,-0.000024823,-0.000072775,-0.755075964,0.458026250
0.910000,-0.000420000,-0.001945083,0.048364586,-0.310851000,-0.111223952,0.034888271,6.366766550e-05,4.591488284e-05,1,1,0.458271792,-0.000045188,0.000105181,-0.915839115,0.565759729,0.178680182,-0.000025571,-0.000075225,-0.752878043,0.456469229
0.912500,-0.000420000,-0.000376180,0.049069091,-0.310851000,-0.112792855,0.034888271,6.460661573e-05,4.657036507e-05,1,1,0.463845807,-0.000047164,0.000109014,-0.920987890,0.568142740,0.174790827,-0.000026304,-0.000077652,-0.750657830,0.454903506
0.915000,-0.000420000,0.001172753,0.049780235,-0.310851000,-0.114341788,0.034888271,6.551349632e-05,4.723177238e-05,1,1,0.469393591,-0.000049163,0.000112844,-0.926140579,0.570500005,0.170929712,-0.000027022,-0.000080055,-0.748417685,0.453330219
0.917500,-0.000420000,0.002701164,0.050497077,-0.310851000,-0.115870200,0.034888271,6.638745474e-05,4.789818022e-05,1,1,0.474910831,-0.000051184,0.000116668,-0.931290890,0.572829094,0.167098967,-0.000027725,-0.000082432,-0.746160015,0.451750536
0.920000,-0.000420000,0.004208512,0.051218671,-0.310851000,-0.117377547,0.034888271,6.722774603e-05,4.856862299e-05,1,1,0.480393270,-0.000053225,0.000120483,-0.936432680,0.575127707,0.163300723,-0.000028413,-0.000084783,-0.743887277,0.450165649
0.922500,-0.000420000,0.005694260,0.051944073,-0.310851000,-0.118863296,0.034888271,6.803372479e-05,4.924209541e-05,1,1,0.485836709,-0.000055284,0.000124288,-0.941559950,0.577393672,0.159537118,-0.000029086,-0.000087107,-0.741601973,0.448576777
0.925000,-0.000420000,0.007157881,0.052672340,-0.310851000,-0.120326917,0.034888271,6.880483850e-05,4.991755397e-05,1,1,0.491237012,-0.000057360,0.000128079,-0.946666850,0.579624943,0.155810292,-0.000029743,-0.000089402,-0.739306648,0.446985169
0.927500,-0.000420000,0.008598855,0.053402528,-0.310851000,-0.121767890,0.034888271,6.954062045e-05,5.059391844e-05,1,1,0.496590103,-0.000059450,0.000131853,-0.951747677,0.581819598,0.152122382,-0.000030384,-0.000091667,-0.737003885,0.445392098
0.930000,-0.000420000,0.010016669,0.054133698,-0.310851000,-0.123185704,0.034888271,7.024068375e-05,5.127007348e-05,1,1,0.501891969,-0.000061553,0.000135608,-0.956796876,0.583975833,0.148475528,-0.000031009,-0.000093901,-0.734696306,0.443798868
0.932500,-0.000420000,0.011410820,0.054864911,-0.310851000,-0.124579856,0.034888271,7.090471541e-05,5.194487030e-05,1,1,0.507138660,-0.000063668,0.000139341,-0.961809038,0.586091958,0.144871864,-0.000031618,-0.000096103,-0.732386563,0.442206806
0.935000,-0.000420000,0.012780813,0.055595235,-0.310851000,-0.125949848,0.034888271,7.153247084e-05,5.261712842e-05,1,1,0.512326293,-0.000065791,0.000143050,-0.966778902,0.588166400,0.141313518,-0.000032211,-0.000098273,-0.730077341,0.440617270
0.937500,-0.000420000,0.014126160,0.056323741,-0.310851000,-0.127295196,0.034888271,7.212376902e-05,5.328563754e-05,1,1,0.517451050,-0.000067920,0.000146732,-0.971701354,0.590197691,0.137802614,-0.000032787,-0.000100407,-0.727771349,0.439031645
0.940000,-0.000420000,0.015446385,0.057049505,-0.310851000,-0.128615420,0.034888271,7.267848750e-05,5.394915954e-05,1,1,0.522509180,-0.000070055,0.000150384,-0.976571425,0.592184470,0.134341265,-0.000033348,-0.000102507,-0.725471322,0.437451339
0.942500,-0.000420000,0.016741017,0.057771612,-0.310851000,-0.129910052,0.034888271,7.319655840e-05,5.460643066e-05,1,1,0.527497001,-0.000072191,0.000154004,-0.981384291,0.594125477,0.130931575,-0.000033891,-0.000104570,-0.723180012,0.435877789
0.945000,-0.000420000,0.018009597,0.058489152,-0.310851000,-0.131178632,0.034888271,7.367796411e-05,5.525616367e-05,1,1,0.532410899,-0.000074328,0.000157589,-0.986135276,0.596019550,0.127575632,-0.000034419,-0.000106596,-0.720900187,0.434312456
0.947500,-0.000420000,0.019251674,0.059201225,-0.310851000,-0.132420709,0.034888271,7.412273356e-05,5.589705040e-05,1,1,0.537247333,-0.000076462,0.000161136,-0.990819842,0.597865619,0.124275514,-0.000034930,-0.000108582,-0.718634627,0.432756824
0.950000,-0.000420000,0.020466807,0.059906939,-0.310851000,-0.133635842,0.034888271,7.453093894e-05,5.652776428e-05,1,1,0.542002833,-0.000078592,0.000164643,-0.995433597,0.599662706,0.121033277,-0.000035424,-0.000110530,-0.716386120,0.431212404
0.952500,-0.000420000,0.021654563,0.060605415,-0.310851000,-0.134823599,0.034888271,8.192962533e-05,5.714696307e-05,1,1,0.547005042,-0.000080880,0.000168317,-1.000344988,0.599598365,0.117850961,-0.000035902,-0.000112436,-0.714157457,0.429680723
0.955000,-0.000420000,0.022814522,0.061295781,-0.310851000,-0.135983558,0.034888271,8.211718652e-05,5.775329186e-05,1,1,0.551924797,-0.000083170,0.000171948,-1.005185805,0.599618285,0.114730586,-0.000036364,-0.000114301,-0.711951427,0.428163334
0.957500,-0.000420000,0.023946271,0.061977180,-0.310851000,-0.137115306,0.034888271,8.233941086e-05,5.834538607e-05,1,1,0.556740841,-0.000085445,0.000175524,-1.009926334,0.599637938,0.111674146,-0.000036810,-0.000116123,-0.709770818,0.426661805
0.960000,-0.000420000,0.025049407,0.062648767,-0.310851000,-0.138218443,0.034888271,8.252651261e-05,5.892187491e-05,1,1,0.561450558,-0.000087703,0.000179042,-1.014563508,0.599656549,0.108683611,-0.000037239,-0.000117902,-0.707618404,0.425177724
0.962500,-0.000420000,0.026123540,0.063309711,-0.310851000,-0.139292575,0.034888271,8.267461222e-05,5.948138470e-05,1,1,0.566050965,-0.000089942,0.000182501,-1.019093979,0.599674076,0.105760923,-0.000037653,-0.000119635,-0.705496948,0.423712690
0.965000,-0.000420000,0.027168286,0.063959195,-0.310851000,-0.140337322,0.034888271,8.278390218e-05,6.002254260e-05,1,1,0.570539131,-0.000092158,0.000185897,-1.023514502,0.599690534,0.102907996,-0.000038050,-0.000121323,-0.703409194,0.422268319
0.967500,-0.000420000,0.028183276,0.064596419,-0.310851000,-0.141352311,0.034888271,8.285488039e-05,6.054398051e-05,1,1,0.574912210,-0.000094349,0.000189228,-1.027821965,0.599705942,0.100126710,-0.000038432,-0.000122964,-0.701357862,0.420846236
0.970000,-0.000420000,0.029168148,0.065220598,-0.310851000,-0.142337183,0.034888271,8.288807326e-05,6.104433891e-05,1,1,0.579167439,-0.000096512,0.000192491,-1.032013390,0.599720318,0.097418912,-0.000038798,-0.000124558,-0.699345646,0.419448073
0.972500,-0.000420000,0.030122552,0.065830965,-0.310851000,-0.143291588,0.034888271,8.288401416e-05,6.152227123e-05,1,1,0.583302142,-0.000098643,0.000195685,-1.036085927,0.599733679,0.094786410,-0.000039148,-0.000126103,-0.697375206,0.418075468
0.975000,-0.000420000,0.031046150,0.066426770,-0.310851000,-0.144215186,0.034888271,8.284324117e-05,6.197644809e-05,1,1,0.587313730,-0.000100740,0.000198806,-1.040036853,0.599746041,0.092230978,-0.000039483,-0.000127599,-0.695449165,0.416730062
0.977500,-0.000420000,0.031938613,0.067007283,-0.310851000,-0.145107649,0.034888271,8.276629646e-05,9.904627966e-05,1,1,0.591199699,-0.000102800,0.000201852,-1.043863569,0.599757420,0.089913317,-0.000039784,-0.000128978,-0.693742851,0.415540955
0.980000,-0.000420000,0.032799625,0.067571793,-0.310851000,-0.145968660,0.034888271,8.265372586e-05,6.379783564e-05,1,1,0.594957630,-0.000104819,0.000204822,-1.047563597,0.599767830,0.087357166,-0.000040116,-0.000130469,-0.691740617,0.414158105
0.982500,-0.000420000,0.033628878,0.068119611,-0.310851000,-0.146797914,0.034888271,8.250607851e-05,9.682660904e-05,1,1,0.598585192,-0.000106796,0.000207712,-1.051134574,0.599777285,0.085186919,-0.000040389,-0.000131753,-0.690118664,0.413023484
0.985000,-0.000420000,0.034426079,0.068650066,-0.310851000,-0.147595115,0.034888271,8.232390656e-05,9.876432345e-05,1,1,0.602080142,-0.000108727,0.000210520,-1.054574257,0.599785798,0.082959747,-0.000040672,-0.000133070,-0.688403350,0.411839828
0.987500,-0.000420000,0.035190945,0.069162512,-0.310851000,-0.148359980,0.034888271,8.210776476e-05,9.771349055e-05,1,1,0.605440321,-0.000110608,0.000213244,-1.057880511,0.599793381,0.080803522,-0.000040942,-0.000134342,-0.686724760,0.410681027
0.990000,-0.000420000,0.035923203,0.069656323,-0.310851000,-0.149092238,0.034888271,8.185821038e-05,9.634825453e-05,1,1,0.608663662,-0.000112439,0.000215881,-1.061051312,0.599800046,0.078732434,-0.000041198,-0.000135560,-0.685102543,0.409557321
0.992500,-0.000420000,0.036622594,0.070130899,-0.310851000,-0.149791629,0.034888271,8.157580298e-05,9.492195619e-05,1,1,0.611748183,-0.000114214,0.000218430,-1.064084747,0.599805804,0.076749322,-0.000041440,-0.000136722,-0.683541188,0.408471276
0.995000,-0.000420000,0.037288868,0.070585661,-0.310851000,-0.150457903,0.034888271,8.126110415e-05,9.346159736e-05,1,1,0.614691994,-0.000115933,0.000220888,-1.066979004,0.599810664,0.074855748,-0.000041667,-0.000137827,-0.682043160,0.407424496
0.997500,-0.000420000,0.037921790,0.071020057,-0.310851000,-0.151090825,0.034888271,8.091467740e-05,9.197080092e-05,1,1,0.617493291,-0.000117591,0.000223253,-1.069732377,0.599814636,0.073053077,-0.000041880,-0.000138876,-0.680610600,0.406418445
1.000000,-0.000420000,0.038521134,0.071433558,-0.310851000,-0.151690169,0.034888271,8.053708806e-05,9.045070834e-05,1,1,0.620150363,-0.000119188,0.000225524,-1.072343261,0.599817728,0.071342597,-0.000042080,-0.000139867,-0.679245535,0.405454537
1.002500,-0.000420000,0.039086687,0.071825664,-0.310851000,-0.152255723,0.034888271,8.012890319e-05,8.890232420e-05,1,1,0.622661587,-0.000120718,0.000227697,-1.074810149,0.599819948,0.069725535,-0.000042266,-0.000140800,-0.677949900,0.404534146
1.005000,-0.000420000,0.039618249,0.072195897,-0.310851000,-0.152787285,0.034888271,7.969069141e-05,8.732680595e-05,1,1,0.625025433,-0.000122182,0.000229770,-1.077131633,0.599821303,0.068203052,-0.000042438,-0.000141674,-0.676725539,0.403658606
1.007500,-0.000420000,0.040115631,0.072543808,-0.310851000,-0.153284666,0.034888271,7.922302301e-05,8.572551458e-05,1,1,0.627240462,-0.000123575,0.000231743,-1.079306401,0.599821800,0.066776245,-0.000042597,-0.000142489,-0.675574198,0.402829204
1.010000,-0.000420000,0.040578656,0.072868977,-0.310851000,-0.153747691,0.034888271,7.872646970e-05,8.410003739e-05,1,1,0.629305326,-0.000124896,0.000233613,-1.081333233,0.599821444,0.065446144,-0.000042743,-0.000143243,-0.674497527,0.402047177
