triton-droids/embedded/trajectory_generation/ik_standing_leg_swing.csv
t,pL_tx,pL_ty,pL_tz,pR_tx,pR_ty,pR_tz,ik_err_L,ik_err_R,ik_ok_L,ik_ok_R,left_hip1_joint,left_hip2_joint,left_thigh_joint,left_knee_joint,left_ankle_joint,right_hip1_joint,right_hip2_joint,right_thigh_joint,right_knee_joint,right_ankle_joint
0.000000,-0.000420000,-0.056584518,0.034888271,-0.310851000,-0.056584518,0.034888271,0.000000000e+00,0.000000000e+00,1,1,0.300000000,0.000000000,0.000000000,-0.800000000,0.500000000,0.300000000,0.000000000,0.000000000,-0.800000000,0.500000000
0.002500,-0.000420000,-0.056584518,0.034888338,-0.310851000,-0.056584518,0.034888271,6.631247378e-08,0.000000000e+00,1,1,0.300000000,0.000000000,0.000000000,-0.800000000,0.500000000,0.300000000,0.000000000,0.000000000,-0.800000000,0.500000000
0.005000,-0.000420000,-0.056584518,0.034888733,-0.310851000,-0.056584518,0.034888271,4.617612582e-07,0.000000000e+00,1,1,0.300000000,0.000000000,0.000000000,-0.800000000,0.500000000,0.300000000,0.000000000,0.000000000,-0.800000000,0.500000000
0.007500,-0.000420000,-0.056584518,0.034889708,-0.310851000,-0.056584518,0.034888271,1.436713391e-06,0.000000000e+00,1,1,0.300000000,0.000000000,0.000000000,-0.800000000,0.500000000,0.300000000,0.000000000,0.000000000,-0.800000000,0.500000000
0.010000,-0.000420000,-0.056584518,0.034891485,-0.310851000,-0.056584518,0.034888271,3.214064315e-06,0.000000000e+00,1,1,0.300000000,0.000000000,0.000000000,-0.800000000,0.500000000,0.300000000,0.000000000,0.000000000,-0.800000000,0.500000000
0.012500,-0.000420000,-0.056584518,0.034894272,-0.310851000,-0.056584518,0.034888271,6.000913830e-06,0.000000000e+00,1,1,0.300000000,0.000000000,0.000000000,-0.800000000,0.500000000,0.300000000,0.000000000,0.000000000,-0.800000000,0.500000000
0.015000,-0.000420000,-0.056584518,0.034898264,-0.310851000,-0.056584518,0.034888271,9.993059871e-06,0.000000000e+00,1,1,0.300000000,0.000000000,0.000000000,-0.800000000,0.500000000,0.300000000,0.000000000,0.000000000,-0.800000000,0.500000000
0.017500,-0.000420000,-0.056584518,0.034903649,-0.310851000,-0.056584518,0.034888271,1.537736470e-05,0.000000000e+00,1,1,0.300000000,0.000000000,0.000000000,-0.800000000,0.500000000,0.300000000,0.000000000,0.000000000,-0.800000000,0.500000000
0.020000,-0.000420000,-0.056584518,0.034910604,-0.310851000,-0.056584518,0.034888271,2.233318008e-05,0.000000000e+00,1,1,0.300000000,0.000000000,0.000000000,-0.800000000,0.500000000,0.300000000,0.000000000,0.000000000,-0.800000000,0.500000000
0.022500,-0.000420000,-0.056584518,0.034919305,-0.310851000,-0.056584518,0.034888271,3.103327430e-05,0.000000000e+00,1,1,0.300000000,0.000000000,0.000000000,-0.800000000,0.500000000,0.300000000,0.000000000,0.000000000,-0.800000000,0.500000000
0.025000,-0.000420000,-0.056584518,0.034929916,-0.310851000,-0.056584518,0.034888271,4.164446516e-05,0.000000000e+00,1,1,0.300000000,0.000000000,0.000000000,-0.800000000,0.500000000,0.300000000,0.000000000,0.000000000,-0.800000000,0.500000000
0.027500,-0.000420000,-0.056584518,0.034942599,-0.310851000,-0.056584518,0.034888271,5.432806577e-05,0.000000000e+00,1,1,0.300000000,0.000000000,0.000000000,-0.800000000,0.500000000,0.300000000,0.000000000,0.000000000,-0.800000000,0.500000000
0.030000,-0.000420000,-0.056584518,0.034957512,-0.310851000,-0.056584518,0.034888271,6.924020471e-05,0.000000000e+00,1,1,0.300000000,0.000000000,0.000000000,-0.800000000,0.500000000,0.300000000,0.000000000,0.000000000,-0.800000000,0.500000000
0.032500,-0.000420000,-0.056584518,0.034974803,-0.310851000,-0.056584518,0.034888271,8.653205816e-05,0.000000000e+00,1,1,0.300000000,0.000000000,0.000000000,-0.800000000,0.500000000,0.300000000,0.000000000,0.000000000,-0.800000000,0.500000000
0.035000,-0.000420000,-0.056584518,0.034994621,-0.310851000,-0.056584518,0.034888271,4.566847525e-05,0.000000000e+00,1,1,0.300285513,-0.000000063,0.000000185,-0.800583028,0.500235959,0.300000000,0.000000000,0.000000000,-0.800000000,0.500000000
0.037500,-0.000420000,-0.056584518,0.035017107,-0.310851000,-0.056584518,0.034888271,6.815379144e-05,0.000000000e+00,1,1,0.300285513,-0.000000063,0.000000185,-0.800583028,0.500235959,0.300000000,0.000000000,0.000000000,-0.800000000,0.500000000
0.040000,-0.000420000,-0.056584518,0.035042398,-0.310851000,-0.056584518,0.034888271,9.344431648e-05,0.000000000e+00,1,1,0.300285513,-0.000000063,0.000000185,-0.800583028,0.500235959,0.300000000,0.000000000,0.000000000,-0.800000000,0.500000000
0.042500,-0.000420000,-0.056584518,0.035070626,-0.310851000,-0.056584518,0.034888271,5.227821679e-05,0.000000000e+00,1,1,0.300612239,-0.000000138,0.000000396,-0.801249408,0.500505527,0.300000000,0.000000000,0.000000000,-0.800000000,0.500000000
0.045000,-0.000420000,-0.056584518,0.035101921,-0.310851000,-0.056584518,0.034888271,8.357126875e-05,0.000000000e+00,1,1,0.300612239,-0.000000138,0.000000396,-0.801249408,0.500505527,0.300000000,0.000000000,0.000000000,-0.800000000,0.500000000
0.047500,-0.000420000,-0.056584518,0.035136404,-0.310851000,-0.056584518,0.034888271,5.076254747e-05,0.000000000e+00,1,1,0.300929098,-0.000000212,0.000000600,-0.801895196,0.500766577,0.300000000,0.000000000,0.000000000,-0.800000000,0.500000000
0.050000,-0.000420000,-0.056584518,0.035174197,-0.310851000,-0.056584518,0.034888271,8.855324996e-05,0.000000000e+00,1,1,0.300929098,-0.000000212,0.000000600,-0.801895196,0.500766577,0.300000000,0.000000000,0.000000000,-0.800000000,0.500000000
0.052500,-0.000420000,-0.056584518,0.035215413,-0.310851000,-0.056584518,0.034888271,5.582315652e-05,0.000000000e+00,1,1,0.301277056,-0.000000294,0.000000824,-0.802604324,0.501052979,0.300000000,0.000000000,0.000000000,-0.800000000,0.500000000
0.055000,-0.000420000,-0.056584518,0.035260162,-0.310851000,-0.056584518,0.034888271,4.333496165e-05,0.000000000e+00,1,1,0.301546461,-0.000000358,0.000000997,-0.803152899,0.501274362,0.300000000,0.000000000,0.000000000,-0.800000000,0.500000000
0.057500,-0.000420000,-0.056584518,0.035308552,-0.310851000,-0.056584518,0.034888271,9.172195536e-05,0.000000000e+00,1,1,0.301546461,-0.000000358,0.000000997,-0.803152899,0.501274362,0.300000000,0.000000000,0.000000000,-0.800000000,0.500000000
0.060000,-0.000420000,-0.056584518,0.035360683,-0.310851000,-0.056584518,0.034888271,6.192952570e-05,0.000000000e+00,1,1,0.301931354,-0.000000448,0.000001245,-0.803937426,0.501590643,0.300000000,0.000000000,0.000000000,-0.800000000,0.500000000
0.062500,-0.000420000,-0.056584518,0.035416651,-0.310851000,-0.056584518,0.034888271,5.083926820e-05,0.000000000e+00,1,1,0.302246451,-0.000000523,0.000001448,-0.804579169,0.501849119,0.300000000,0.000000000,0.000000000,-0.800000000,0.500000000
0.065000,-0.000420000,-0.056584518,0.035476550,-0.310851000,-0.056584518,0.034888271,4.780211518e-05,0.000000000e+00,1,1,0.302541991,-0.000000594,0.000001638,-0.805181058,0.502091314,0.300000000,0.000000000,0.000000000,-0.800000000,0.500000000
0.067500,-0.000420000,-0.056584518,0.035540467,-0.310851000,-0.056584518,0.034888271,4.825470870e-05,0.000000000e+00,1,1,0.302839775,-0.000000665,0.000001829,-0.805787603,0.502335156,0.300000000,0.000000000,0.000000000,-0.800000000,0.500000000
0.070000,-0.000420000,-0.056584518,0.035608484,-0.310851000,-0.056584518,0.034888271,5.023966113e-05,0.000000000e+00,1,1,0.303149371,-0.000000739,0.000002029,-0.806418278,0.502588466,0.300000000,0.000000000,0.000000000,-0.800000000,0.500000000
0.072500,-0.000420000,-0.056584518,0.035680681,-0.310851000,-0.056584518,0.034888271,5.291612008e-05,0.000000000e+00,1,1,0.303475078,-0.000000817,0.000002238,-0.807081809,0.502854724,0.300000000,0.000000000,0.000000000,-0.800000000,0.500000000
0.075000,-0.000420000,-0.056584518,0.035757132,-0.310851000,-0.056584518,0.034888271,5.592169787e-05,0.000000000e+00,1,1,0.303818916,-0.000000899,0.000002460,-0.807782287,0.503135535,0.300000000,0.000000000,0.000000000,-0.800000000,0.500000000
0.077500,-0.000420000,-0.056584518,0.035837904,-0.310851000,-0.056584518,0.034888271,5.909903384e-05,0.000000000e+00,1,1,0.304181914,-0.000000986,0.000002693,-0.808521787,0.503431688,0.300000000,0.000000000,0.000000000,-0.800000000,0.500000000
0.080000,-0.000420000,-0.056584518,0.035923063,-0.310851000,-0.056584518,0.034888271,6.237861003e-05,0.000000000e+00,1,1,0.304564657,-0.000001078,0.000002940,-0.809301494,0.503743607,0.300000000,0.000000000,0.000000000,-0.800000000,0.500000000
0.082500,-0.000420000,-0.056584518,0.036012668,-0.310851000,-0.056584518,0.034888271,6.572853282e-05,0.000000000e+00,1,1,0.304967528,-0.000001175,0.000003199,-0.810122179,0.504071548,0.300000000,0.000000000,0.000000000,-0.800000000,0.500000000
0.085000,-0.000420000,-0.056584518,0.036106774,-0.310851000,-0.056584518,0.034888271,6.913301396e-05,0.000000000e+00,1,1,0.305390807,-0.000001277,0.000003472,-0.810984406,0.504415678,0.300000000,0.000000000,0.000000000,-0.800000000,0.500000000
0.087500,-0.000420000,-0.056584518,0.036205430,-0.310851000,-0.056584518,0.034888271,7.258315105e-05,0.000000000e+00,1,1,0.305834715,-0.000001384,0.000003757,-0.811888621,0.504776113,0.300000000,0.000000000,0.000000000,-0.800000000,0.500000000
0.090000,-0.000420000,-0.056584518,0.036308683,-0.310851000,-0.056584518,0.034888271,7.607297850e-05,0.000000000e+00,1,1,0.306299434,-0.000001497,0.000004057,-0.812835190,0.505152933,0.300000000,0.000000000,0.000000000,-0.800000000,0.500000000
0.092500,-0.000420000,-0.056584518,0.036416571,-0.310851000,-0.056584518,0.034888271,7.959777702e-05,0.000000000e+00,1,1,0.306785115,-0.000001615,0.000004369,-0.813824413,0.505546187,0.300000000,0.000000000,0.000000000,-0.800000000,0.500000000
0.095000,-0.000420000,-0.056584518,0.036529131,-0.310851000,-0.056584518,0.034888271,8.315335070e-05,0.000000000e+00,1,1,0.307291877,-0.000001739,0.000004695,-0.814856532,0.505955899,0.300000000,0.000000000,0.000000000,-0.800000000,0.500000000
0.097500,-0.000420000,-0.056584518,0.036646392,-0.310851000,-0.056584518,0.034888271,8.673571881e-05,0.000000000e+00,1,1,0.307819817,-0.000001868,0.000005035,-0.815931733,0.506382065,0.300000000,0.000000000,0.000000000,-0.800000000,0.500000000
0.100000,-0.000420000,-0.056584518,0.036768381,-0.310851000,-0.056584518,0.034888271,9.034098545e-05,0.000000000e+00,1,1,0.308369001,-0.000002003,0.000005389,-0.817050149,0.506824657,0.300000000,0.000000000,0.000000000,-0.800000000,0.500000000
0.102500,-0.000420000,-0.056584518,0.036895117,-0.310851000,-0.056584518,0.034888271,9.396528504e-05,0.000000000e+00,1,1,0.308939471,-0.000002144,0.000005756,-0.818211861,0.507283624,0.300000000,0.000000000,0.000000000,-0.800000000,0.500000000
0.105000,-0.000420000,-0.056584518,0.037026616,-0.310851000,-0.056584518,0.034888271,9.760476074e-05,0.000000000e+00,1,1,0.309531244,-0.000002290,0.000006137,-0.819416894,0.507758888,0.300000000,0.000000000,0.000000000,-0.800000000,0.500000000
0.107500,-0.000420000,-0.056584518,0.037162888,-0.310851000,-0.056584518,0.034888271,4.459897512e-05,0.000000000e+00,1,1,0.310407030,-0.000002513,0.000006699,-0.821198420,0.508459295,0.300000000,0.000000000,0.000000000,-0.800000000,0.500000000
0.110000,-0.000420000,-0.056584518,0.037303940,-0.310851000,-0.056584518,0.034888271,8.071525802e-05,0.000000000e+00,1,1,0.310891231,-0.000002633,0.000007011,-0.822184498,0.508846125,0.300000000,0.000000000,0.000000000,-0.800000000,0.500000000
0.112500,-0.000420000,-0.056584518,0.037449772,-0.310851000,-0.056584518,0.034888271,9.824361999e-05,0.000000000e+00,1,1,0.311482490,-0.000002780,0.000007393,-0.823388757,0.509318093,0.300000000,0.000000000,0.000000000,-0.800000000,0.500000000
0.115000,-0.000420000,-0.056584518,0.037600380,-0.310851000,-0.056584518,0.034888271,4.762038303e-05,0.000000000e+00,1,1,0.312409673,-0.000003017,0.000007988,-0.825274978,0.510054866,0.300000000,0.000000000,0.000000000,-0.800000000,0.500000000
0.117500,-0.000420000,-0.056584518,0.037755753,-0.310851000,-0.056584518,0.034888271,8.831619485e-05,0.000000000e+00,1,1,0.312936631,-0.000003149,0.000008328,-0.826348053,0.510473153,0.300000000,0.000000000,0.000000000,-0.800000000,0.500000000
0.120000,-0.000420000,-0.056584518,0.037915878,-0.310851000,-0.056584518,0.034888271,4.775098819e-05,0.000000000e+00,1,1,0.313858545,-0.000003385,0.000008921,-0.828223598,0.511202042,0.300000000,0.000000000,0.000000000,-0.800000000,0.500000000
0.122500,-0.000420000,-0.056584518,0.038080736,-0.310851000,-0.056584518,0.034888271,9.255590065e-05,0.000000000e+00,1,1,0.314408539,-0.000003524,0.000009276,-0.829343564,0.511636567,0.300000000,0.000000000,0.000000000,-0.800000000,0.500000000
0.125000,-0.000420000,-0.056584518,0.038250302,-0.310851000,-0.056584518,0.034888271,5.045687525e-05,0.000000000e+00,1,1,0.315377954,-0.000003775,0.000009900,-0.831315571,0.512399207,0.300000000,0.000000000,0.000000000,-0.800000000,0.500000000
0.127500,-0.000420000,-0.056584518,0.038424547,-0.310851000,-0.056584518,0.034888271,9.785529878e-05,0.000000000e+00,1,1,0.315957299,-0.000003922,0.000010274,-0.832495165,0.512854652,0.300000000,0.000000000,0.000000000,-0.800000000,0.500000000
0.130000,-0.000420000,-0.056584518,0.038603437,-0.310851000,-0.056584518,0.034888271,5.333929550e-05,0.000000000e+00,1,1,0.316977327,-0.000004189,0.000010930,-0.834569833,0.513652882,0.300000000,0.000000000,0.000000000,-0.800000000,0.500000000
0.132500,-0.000420000,-0.056584518,0.038786933,-0.310851000,-0.056584518,0.034888271,4.619859400e-05,0.000000000e+00,1,1,0.317846358,-0.000004417,0.000011490,-0.836337033,0.514329441,0.300000000,0.000000000,0.000000000,-0.800000000,0.500000000
0.135000,-0.000420000,-0.056584518,0.038974991,-0.310851000,-0.056584518,0.034888271,4.584909431e-05,0.000000000e+00,1,1,0.318703650,-0.000004643,0.000012043,-0.838080542,0.514994653,0.300000000,0.000000000,0.000000000,-0.800000000,0.500000000
0.137500,-0.000420000,-0.056584518,0.039167563,-0.310851000,-0.056584518,0.034888271,4.672718273e-05,0.000000000e+00,1,1,0.319574385,-0.000004872,0.000012604,-0.839851354,0.515668216,0.300000000,0.000000000,0.000000000,-0.800000000,0.500000000
0.140000,-0.000420000,-0.056584518,0.039364594,-0.310851000,-0.056584518,0.034888271,4.781983697e-05,0.000000000e+00,1,1,0.320462885,-0.000005108,0.000013177,-0.841658165,0.516353379,0.300000000,0.000000000,0.000000000,-0.800000000,0.500000000
0.142500,-0.000420000,-0.056584518,0.039566027,-0.310851000,-0.056584518,0.034888271,4.894188770e-05,0.000000000e+00,1,1,0.321369646,-0.000005350,0.000013762,-0.843501947,0.517050390,0.300000000,0.000000000,0.000000000,-0.800000000,0.500000000
0.145000,-0.000420000,-0.056584518,0.039771798,-0.310851000,-0.056584518,0.034888271,5.005873532e-05,0.000000000e+00,1,1,0.322294449,-0.000005597,0.000014359,-0.845382241,0.517758940,0.300000000,0.000000000,0.000000000,-0.800000000,0.500000000
0.147500,-0.000420000,-0.056584518,0.039981840,-0.310851000,-0.056584518,0.034888271,5.116316341e-05,0.000000000e+00,1,1,0.323236930,-0.000005851,0.000014967,-0.847298290,0.518478608,0.300000000,0.000000000,0.000000000,-0.800000000,0.500000000
0.150000,-0.000420000,-0.056584518,0.040196081,-0.310851000,-0.056584518,0.034888271,5.225294247e-05,0.000000000e+00,1,1,0.324196680,-0.000006111,0.000015587,-0.849249254,0.519208942,0.300000000,0.000000000,0.000000000,-0.800000000,0.500000000
0.152500,-0.000420000,-0.056584518,0.040414442,-0.310851000,-0.056584518,0.034888271,5.332676005e-05,0.000000000e+00,1,1,0.325173268,-0.000006378,0.000016217,-0.851234243,0.519949471,0.300000000,0.000000000,0.000000000,-0.800000000,0.500000000
0.155000,-0.000420000,-0.056584518,0.040636844,-0.310851000,-0.056584518,0.034888271,5.438348211e-05,0.000000000e+00,1,1,0.326166242,-0.000006650,0.000016859,-0.853252329,0.520699715,0.300000000,0.000000000,0.000000000,-0.800000000,0.500000000
0.157500,-0.000420000,-0.056584518,0.040863199,-0.310851000,-0.056584518,0.034888271,5.542201965e-05,0.000000000e+00,1,1,0.327175134,-0.000006928,0.000017510,-0.855302546,0.521459180,0.300000000,0.000000000,0.000000000,-0.800000000,0.500000000
0.160000,-0.000420000,-0.056584518,0.041093417,-0.310851000,-0.056584518,0.034888271,5.644130538e-05,0.000000000e+00,1,1,0.328199456,-0.000007212,0.000018172,-0.857383894,0.522227362,0.300000000,0.000000000,0.000000000,-0.800000000,0.500000000
0.162500,-0.000420000,-0.056584518,0.041327403,-0.310851000,-0.056584518,0.034888271,5.744028985e-05,0.000000000e+00,1,1,0.329238705,-0.000007502,0.000018844,-0.859495336,0.523003748,0.300000000,0.000000000,0.000000000,-0.800000000,0.500000000
0.165000,-0.000420000,-0.056584518,0.041565058,-0.310851000,-0.056584518,0.034888271,5.841794159e-05,0.000000000e+00,1,1,0.330292359,-0.000007798,0.000019525,-0.861635805,0.523787815,0.300000000,0.000000000,0.000000000,-0.800000000,0.500000000
0.167500,-0.000420000,-0.056584518,0.041806279,-0.310851000,-0.056584518,0.034888271,5.937324783e-05,0.000000000e+00,1,1,0.331359883,-0.000008099,0.000020215,-0.863804200,0.524579034,0.300000000,0.000000000,0.000000000,-0.800000000,0.500000000
0.170000,-0.000420000,-0.056584518,0.042050958,-0.310851000,-0.056584518,0.034888271,6.030521497e-05,0.000000000e+00,1,1,0.332440726,-0.000008406,0.000020914,-0.865999389,0.525376867,0.300000000,0.000000000,0.000000000,-0.800000000,0.500000000
0.172500,-0.000420000,-0.056584518,0.042298983,-0.310851000,-0.056584518,0.034888271,6.121286950e-05,0.000000000e+00,1,1,0.333534322,-0.000008719,0.000021621,-0.868220213,0.526180772,0.300000000,0.000000000,0.000000000,-0.800000000,0.500000000
0.175000,-0.000420000,-0.056584518,0.042550238,-0.310851000,-0.056584518,0.034888271,6.209525868e-05,0.000000000e+00,1,1,0.334640090,-0.000009037,0.000022337,-0.870465482,0.526990200,0.300000000,0.000000000,0.000000000,-0.800000000,0.500000000
0.177500,-0.000420000,-0.056584518,0.042804604,-0.310851000,-0.056584518,0.034888271,6.295145100e-05,0.000000000e+00,1,1,0.335757437,-0.000009361,0.000023060,-0.872733981,0.527804598,0.300000000,0.000000000,0.000000000,-0.800000000,0.500000000
0.180000,-0.000420000,-0.056584518,0.043061957,-0.310851000,-0.056584518,0.034888271,6.378053712e-05,0.000000000e+00,1,1,0.336885758,-0.000009689,0.000023791,-0.875024469,0.528623410,0.300000000,0.000000000,0.000000000,-0.800000000,0.500000000
0.182500,-0.000420000,-0.056584518,0.043322170,-0.310851000,-0.056584518,0.034888271,6.458163019e-05,0.000000000e+00,1,1,0.338024434,-0.000010023,0.000024528,-0.877335682,0.529446075,0.300000000,0.000000000,0.000000000,-0.800000000,0.500000000
0.185000,-0.000420000,-0.056584518,0.043585111,-0.310851000,-0.056584518,0.034888271,6.535386670e-05,0.000000000e+00,1,1,0.339172836,-0.000010362,0.000025272,-0.879666330,0.530272033,0.300000000,0.000000000,0.000000000,-0.800000000,0.500000000
0.187500,-0.000420000,-0.056584518,0.043850646,-0.310851000,-0.056584518,0.034888271,6.609640670e-05,0.000000000e+00,1,1,0.340330323,-0.000010706,0.000026023,-0.882015104,0.531100721,0.300000000,0.000000000,0.000000000,-0.800000000,0.500000000
0.190000,-0.000420000,-0.056584518,0.044118636,-0.310851000,-0.056584518,0.034888271,6.680843461e-05,0.000000000e+00,1,1,0.341496244,-0.000011055,0.000026779,-0.884380675,0.531931575,0.300000000,0.000000000,0.000000000,-0.800000000,0.500000000
0.192500,-0.000420000,-0.056584518,0.044388941,-0.310851000,-0.056584518,0.034888271,6.748915950e-05,0.000000000e+00,1,1,0.342669940,-0.000011408,0.000027540,-0.886761694,0.532764032,0.300000000,0.000000000,0.000000000,-0.800000000,0.500000000
0.195000,-0.000420000,-0.056584518,0.044661414,-0.310851000,-0.056584518,0.034888271,6.813781585e-05,0.000000000e+00,1,1,0.343850741,-0.000011766,0.000028306,-0.889156793,0.533597530,0.300000000,0.000000000,0.000000000,-0.800000000,0.500000000
0.197500,-0.000420000,-0.056584518,0.044935909,-0.310851000,-0.056584518,0.034888271,6.875366365e-05,0.000000000e+00,1,1,0.345037969,-0.000012128,0.000029077,-0.891564590,0.534431509,0.300000000,0.000000000,0.000000000,-0.800000000,0.500000000
0.200000,-0.000420000,-0.056584518,0.045212274,-0.310851000,-0.056584518,0.034888271,6.933598900e-05,0.000000000e+00,1,1,0.346230940,-0.000012494,0.000029852,-0.893983687,0.535265410,0.300000000,0.000000000,0.000000000,-0.800000000,0.500000000
0.202500,-0.000420000,-0.056584518,0.045490354,-0.310851000,-0.056584518,0.034888271,6.988410465e-05,0.000000000e+00,1,1,0.347428961,-0.000012864,0.000030630,-0.896412672,0.536098676,0.300000000,0.000000000,0.000000000,-0.800000000,0.500000000
0.205000,-0.000420000,-0.056584518,0.045769993,-0.310851000,-0.056584518,0.034888271,7.039735003e-05,0.000000000e+00,1,1,0.348631333,-0.000013239,0.000031412,-0.898850119,0.536930758,0.300000000,0.000000000,0.000000000,-0.800000000,0.500000000
0.207500,-0.000420000,-0.056584518,0.046051031,-0.310851000,-0.056584518,0.034888271,7.087509184e-05,0.000000000e+00,1,1,0.349837352,-0.000013616,0.000032196,-0.901294593,0.537761105,0.300000000,0.000000000,0.000000000,-0.800000000,0.500000000
0.210000,-0.000420000,-0.056584518,0.046333305,-0.310851000,-0.056584518,0.034888271,7.131672435e-05,0.000000000e+00,1,1,0.351046307,-0.000013997,0.000032983,-0.903744647,0.538589175,0.300000000,0.000000000,0.000000000,-0.800000000,0.500000000
0.212500,-0.000420000,-0.056584518,0.046616650,-0.310851000,-0.056584518,0.034888271,7.172166969e-05,0.000000000e+00,1,1,0.352257484,-0.000014382,0.000033771,-0.906198826,0.539414429,0.300000000,0.000000000,0.000000000,-0.800000000,0.500000000
0.215000,-0.000420000,-0.056584518,0.046900899,-0.310851000,-0.056584518,0.034888271,7.208937815e-05,0.000000000e+00,1,1,0.353470163,-0.000014769,0.000034561,-0.908655666,0.540236336,0.300000000,0.000000000,0.000000000,-0.800000000,0.500000000
0.217500,-0.000420000,-0.056584518,0.047185882,-0.310851000,-0.056584518,0.034888271,7.241932836e-05,0.000000000e+00,1,1,0.354683622,-0.000015159,0.000035352,-0.911113698,0.541054367,0.300000000,0.000000000,0.000000000,-0.800000000,0.500000000
0.220000,-0.000420000,-0.056584518,0.047471427,-0.310851000,-0.056584518,0.034888271,7.271102757e-05,0.000000000e+00,1,1,0.355897137,-0.000015552,0.000036144,-0.913571447,0.541868005,0.300000000,0.000000000,0.000000000,-0.800000000,0.500000000
0.222500,-0.000420000,-0.056584518,0.047757360,-0.310851000,-0.056584518,0.034888271,7.296401210e-05,0.000000000e+00,1,1,0.357109978,-0.000015947,0.000036935,-0.916027433,0.542676735,0.300000000,0.000000000,0.000000000,-0.800000000,0.500000000
0.225000,-0.000420000,-0.056584518,0.048043506,-0.310851000,-0.056584518,0.034888271,7.317784720e-05,0.000000000e+00,1,1,0.358321416,-0.000016344,0.000037726,-0.918480173,0.543480051,0.300000000,0.000000000,0.000000000,-0.800000000,0.500000000
0.227500,-0.000420000,-0.056584518,0.048329686,-0.310851000,-0.056584518,0.034888271,7.335212742e-05,0.000000000e+00,1,1,0.359530720,-0.000016744,0.000038516,-0.920928183,0.544277457,0.300000000,0.000000000,0.000000000,-0.800000000,0.500000000
0.230000,-0.000420000,-0.056584518,0.048615721,-0.310851000,-0.056584518,0.034888271,7.348647689e-05,0.000000000e+00,1,1,0.360737158,-0.000017145,0.000039305,-0.923369975,0.545068463,0.300000000,0.000000000,0.000000000,-0.800000000,0.500000000
0.232500,-0.000420000,-0.056584518,0.048901431,-0.310851000,-0.056584518,0.034888271,7.358054923e-05,0.000000000e+00,1,1,0.361939998,-0.000017547,0.000040092,-0.925804064,0.545852587,0.300000000,0.000000000,0.000000000,-0.800000000,0.500000000
0.235000,-0.000420000,-0.056584518,0.049186633,-0.310851000,-0.056584518,0.034888271,7.363402781e-05,0.000000000e+00,1,1,0.363138506,-0.000017950,0.000040876,-0.928228966,0.546629356,0.300000000,0.000000000,0.000000000,-0.800000000,0.500000000
0.237500,-0.000420000,-0.056584518,0.049471143,-0.310851000,-0.056584518,0.034888271,7.364662600e-05,0.000000000e+00,1,1,0.364331953,-0.000018355,0.000041658,-0.930643196,0.547398307,0.300000000,0.000000000,0.000000000,-0.800000000,0.500000000
0.240000,-0.000420000,-0.056584518,0.049754778,-0.310851000,-0.056584518,0.034888271,7.361808713e-05,0.000000000e+00,1,1,0.365519608,-0.000018760,0.000042437,-0.933045276,0.548158985,0.300000000,0.000000000,0.000000000,-0.800000000,0.500000000
0.242500,-0.000420000,-0.056584518,0.050037351,-0.310851000,-0.056584518,0.034888271,7.354818457e-05,0.000000000e+00,1,1,0.366700741,-0.000019165,0.000043212,-0.935433728,0.548910945,0.300000000,0.000000000,0.000000000,-0.800000000,0.500000000
0.245000,-0.000420000,-0.056584518,0.050318676,-0.310851000,-0.056584518,0.034888271,7.343672186e-05,0.000000000e+00,1,1,0.367874627,-0.000019571,0.000043982,-0.937807083,0.549653752,0.300000000,0.000000000,0.000000000,-0.800000000,0.500000000
0.247500,-0.000420000,-0.056584518,0.050598567,-0.310851000,-0.056584518,0.034888271,7.328353277e-05,0.000000000e+00,1,1,0.369040542,-0.000019976,0.000044749,-0.940163875,0.550386979,0.300000000,0.000000000,0.000000000,-0.800000000,0.500000000
0.250000,-0.000420000,-0.056584518,0.050876834,-0.310851000,-0.056584518,0.034888271,7.308848143e-05,0.000000000e+00,1,1,0.370197765,-0.000020381,0.000045510,-0.942502645,0.551110211,0.300000000,0.000000000,0.000000000,-0.800000000,0.500000000
0.252500,-0.000420000,-0.056584518,0.051153291,-0.310851000,-0.056584518,0.034888271,7.285146221e-05,0.000000000e+00,1,1,0.371345578,-0.000020785,0.000046265,-0.944821943,0.551823041,0.300000000,0.000000000,0.000000000,-0.800000000,0.500000000
0.255000,-0.000420000,-0.056584518,0.051427749,-0.310851000,-0.056584518,0.034888271,7.257239985e-05,0.000000000e+00,1,1,0.372483268,-0.000021188,0.000047015,-0.947120327,0.552525074,0.300000000,0.000000000,0.000000000,-0.800000000,0.500000000
0.257500,-0.000420000,-0.056584518,0.051700020,-0.310851000,-0.056584518,0.034888271,7.225124940e-05,0.000000000e+00,1,1,0.373610127,-0.000021589,0.000047758,-0.949396363,0.553215924,0.300000000,0.000000000,0.000000000,-0.800000000,0.500000000
0.260000,-0.000420000,-0.056584518,0.051969915,-0.310851000,-0.056584518,0.034888271,7.188799630e-05,0.000000000e+00,1,1,0.374725448,-0.000021989,0.000048495,-0.951648629,0.553895215,0.300000000,0.000000000,0.000000000,-0.800000000,0.500000000
0.262500,-0.000420000,-0.056584518,0.052237245,-0.310851000,-0.056584518,0.034888271,7.148265621e-05,0.000000000e+00,1,1,0.375828534,-0.000022387,0.000049223,-0.953875713,0.554562582,0.300000000,0.000000000,0.000000000,-0.800000000,0.500000000
0.265000,-0.000420000,-0.056584518,0.052501824,-0.310851000,-0.056584518,0.034888271,7.103527526e-05,0.000000000e+00,1,1,0.376918690,-0.000022783,0.000049945,-0.956076216,0.555217670,0.300000000,0.000000000,0.000000000,-0.800000000,0.500000000
0.267500,-0.000420000,-0.056584518,0.052763463,-0.310851000,-0.056584518,0.034888271,7.054592965e-05,0.000000000e+00,1,1,0.377995228,-0.000023176,0.000050658,-0.958248749,0.555860134,0.300000000,0.000000000,0.000000000,-0.800000000,0.500000000
0.270000,-0.000420000,-0.056584518,0.053021975,-0.310851000,-0.056584518,0.034888271,7.001472578e-05,0.000000000e+00,1,1,0.379057466,-0.000023566,0.000051362,-0.960391939,0.556489640,0.300000000,0.000000000,0.000000000,-0.800000000,0.500000000
0.272500,-0.000420000,-0.056584518,0.053277176,-0.310851000,-0.056584518,0.034888271,6.944180023e-05,0.000000000e+00,1,1,0.380104731,-0.000023953,0.000052057,-0.962504425,0.557105863,0.300000000,0.000000000,0.000000000,-0.800000000,0.500000000
0.275000,-0.000420000,-0.056584518,0.053528878,-0.310851000,-0.056584518,0.034888271,6.882731956e-05,0.000000000e+00,1,1,0.381136353,-0.000024336,0.000052743,-0.964584861,0.557708490,0.300000000,0.000000000,0.000000000,-0.800000000,0.500000000
0.277500,-0.000420000,-0.056584518,0.053776899,-0.310851000,-0.056584518,0.034888271,6.817148026e-05,0.000000000e+00,1,1,0.382151672,-0.000024716,0.000053418,-0.966631919,0.558297215,0.300000000,0.000000000,0.000000000,-0.800000000,0.500000000
0.280000,-0.000420000,-0.056584518,0.054021055,-0.310851000,-0.056584518,0.034888271,6.747450863e-05,0.000000000e+00,1,1,0.383150034,-0.000025091,0.000054084,-0.968644282,0.558871746,0.300000000,0.000000000,0.000000000,-0.800000000,0.500000000
0.282500,-0.000420000,-0.056584518,0.054261165,-0.310851000,-0.056584518,0.034888271,6.673666068e-05,0.000000000e+00,1,1,0.384130796,-0.000025462,0.000054738,-0.970620655,0.559431799,0.300000000,0.000000000,0.000000000,-0.800000000,0.500000000
0.285000,-0.000420000,-0.056584518,0.054497049,-0.310851000,-0.056584518,0.034888271,6.595822197e-05,0.000000000e+00,1,1,0.385093319,-0.000025828,0.000055381,-0.972559756,0.559977099,0.300000000,0.000000000,0.000000000,-0.800000000,0.500000000
0.287500,-0.000420000,-0.056584518,0.054728528,-0.310851000,-0.056584518,0.034888271,6.513950754e-05,0.000000000e+00,1,1,0.386036976,-0.000026189,0.000056013,-0.974460323,0.560507383,0.300000000,0.000000000,0.000000000,-0.800000000,0.500000000
0.290000,-0.000420000,-0.056584518,0.054955425,-0.310851000,-0.056584518,0.034888271,6.428086156e-05,0.000000000e+00,1,1,0.386961147,-0.000026544,0.000056632,-0.976321113,0.561022395,0.300000000,0.000000000,0.000000000,-0.800000000,0.500000000
0.292500,-0.000420000,-0.056584518,0.055177567,-0.310851000,-0.056584518,0.034888271,6.338265741e-05,0.000000000e+00,1,1,0.387865223,-0.000026893,0.000057239,-0.978140902,0.561521890,0.300000000,0.000000000,0.000000000,-0.800000000,0.500000000
0.295000,-0.000420000,-0.056584518,0.055394780,-0.310851000,-0.056584518,0.034888271,6.244529734e-05,0.000000000e+00,1,1,0.388748603,-0.000027237,0.000057833,-0.979918484,0.562005634,0.300000000,0.000000000,0.000000000,-0.800000000,0.500000000
0.297500,-0.000420000,-0.056584518,0.055606894,-0.310851000,-0.056584518,0.034888271,6.146921232e-05,0.000000000e+00,1,1,0.389610696,-0.000027574,0.000058414,-0.981652675,0.562473400,0.300000000,0.000000000,0.000000000,-0.800000000,0.500000000
0.300000,-0.000420000,-0.056584518,0.055813741,-0.310851000,-0.056584518,0.034888271,6.045486191e-05,0.000000000e+00,1,1,0.390450921,-0.000027904,0.000058981,-0.983342310,0.562924970,0.300000000,0.000000000,0.000000000,-0.800000000,0.500000000
0.302500,-0.000420000,-0.056584518,0.056015155,-0.310851000,-0.056584518,0.034888271,5.940273397e-05,0.000000000e+00,1,1,0.391268709,-0.000028227,0.000059534,-0.984986249,0.563360137,0.300000000,0.000000000,0.000000000,-0.800000000,0.500000000
0.305000,-0.000420000,-0.056584518,0.056210974,-0.310851000,-0.056584518,0.034888271,5.831334447e-05,0.000000000e+00,1,1,0.392063500,-0.000028543,0.000060073,-0.986583370,0.563778701,0.300000000,0.000000000,0.000000000,-0.800000000,0.500000000
0.307500,-0.000420000,-0.056584518,0.056401037,-0.310851000,-0.056584518,0.034888271,5.718723727e-05,0.000000000e+00,1,1,0.392834745,-0.000028851,0.000060597,-0.988132575,0.564180471,0.300000000,0.000000000,0.000000000,-0.800000000,0.500000000
0.310000,-0.000420000,-0.056584518,0.056585187,-0.310851000,-0.056584518,0.034888271,5.602498403e-05,0.000000000e+00,1,1,0.393581907,-0.000029151,0.000061105,-0.989632790,0.564565265,0.300000000,0.000000000,0.000000000,-0.800000000,0.500000000
0.312500,-0.000420000,-0.056584518,0.056763271,-0.310851000,-0.056584518,0.034888271,5.482718373e-05,0.000000000e+00,1,1,0.394304458,-0.000029442,0.000061599,-0.991082961,0.564932910,0.300000000,0.000000000,0.000000000,-0.800000000,0.500000000
0.315000,-0.000420000,-0.056584518,0.056935138,-0.310851000,-0.056584518,0.034888271,5.359446268e-05,0.000000000e+00,1,1,0.395001886,-0.000029725,0.000062076,-0.992482062,0.565283239,0.300000000,0.000000000,0.000000000,-0.800000000,0.500000000
0.317500,-0.000420000,-0.056584518,0.057100639,-0.310851000,-0.056584518,0.034888271,5.232747421e-05,0.000000000e+00,1,1,0.395673686,-0.000029999,0.000062537,-0.993829089,0.565616096,0.300000000,0.000000000,0.000000000,-0.800000000,0.500000000
0.320000,-0.000420000,-0.056584518,0.057259631,-0.310851000,-0.056584518,0.034888271,9.833071811e-05,0.000000000e+00,1,1,0.396124685,-0.000030179,0.000062842,-0.994736977,0.565856659,0.300000000,0.000000000,0.000000000,-0.800000000,0.500000000
0.322500,-0.000420000,-0.056584518,0.057411973,-0.310851000,-0.056584518,0.034888271,5.800003203e-05,0.000000000e+00,1,1,0.396896914,-0.000030494,0.000063367,-0.996287301,0.566252136,0.300000000,0.000000000,0.000000000,-0.800000000,0.500000000
0.325000,-0.000420000,-0.056584518,0.057557530,-0.310851000,-0.056584518,0.034888271,9.516018945e-05,0.000000000e+00,1,1,0.397329268,-0.000030669,0.000063660,-0.997156931,0.566479315,0.300000000,0.000000000,0.000000000,-0.800000000,0.500000000
0.327500,-0.000420000,-0.056584518,0.057696167,-0.310851000,-0.056584518,0.034888271,5.515256161e-05,0.000000000e+00,1,1,0.398045380,-0.000030965,0.000064150,-0.998592982,0.566836494,0.300000000,0.000000000,0.000000000,-0.800000000,0.500000000
0.330000,-0.000420000,-0.056584518,0.057827755,-0.310851000,-0.056584518,0.034888271,8.818941369e-05,0.000000000e+00,1,1,0.398438584,-0.000031125,0.000064417,-0.999382983,0.567037452,0.300000000,0.000000000,0.000000000,-0.800000000,0.500000000
0.332500,-0.000420000,-0.056584518,0.057952172,-0.310851000,-0.056584518,0.034888271,9.906297152e-05,0.000000000e+00,1,1,0.398890049,-0.000031308,0.000064723,-1.000291210,0.567275330,0.300000000,0.000000000,0.000000000,-0.800000000,0.500000000
0.335000,-0.000420000,-0.056584518,0.058069294,-0.310851000,-0.056584518,0.034888271,5.221405375e-05,0.000000000e+00,1,1,0.399547456,-0.000031584,0.000065175,-1.001607600,0.567592240,0.300000000,0.000000000,0.000000000,-0.800000000,0.500000000
0.337500,-0.000420000,-0.056584518,0.058179007,-0.310851000,-0.056584518,0.034888271,7.789379268e-05,0.000000000e+00,1,1,0.399883324,-0.000031723,0.000065406,-1.002280968,0.567755230,0.300000000,0.000000000,0.000000000,-0.800000000,0.500000000
0.340000,-0.000420000,-0.056584518,0.058281199,-0.310851000,-0.056584518,0.034888271,8.553360393e-05,0.000000000e+00,1,1,0.400259960,-0.000031879,0.000065664,-1.003037113,0.567944024,0.300000000,0.000000000,0.000000000,-0.800000000,0.500000000
0.342500,-0.000420000,-0.056584518,0.058375762,-0.310851000,-0.056584518,0.034888271,8.556582285e-05,0.000000000e+00,1,1,0.400636388,-0.000032035,0.000065921,-1.003792652,0.568132324,0.300000000,0.000000000,0.000000000,-0.800000000,0.500000000
0.345000,-0.000420000,-0.056584518,0.058462594,-0.310851000,-0.056584518,0.034888271,8.236705720e-05,0.000000000e+00,1,1,0.400995194,-0.000032185,0.000066167,-1.004512269,0.568309048,0.300000000,0.000000000,0.000000000,-0.800000000,0.500000000
0.347500,-0.000420000,-0.056584518,0.058541598,-0.310851000,-0.056584518,0.034888271,7.777258182e-05,0.000000000e+00,1,1,0.401328876,-0.000032325,0.000066397,-1.005180795,0.568469496,0.300000000,0.000000000,0.000000000,-0.800000000,0.500000000
0.350000,-0.000420000,-0.056584518,0.058612680,-0.310851000,-0.056584518,0.034888271,7.255303793e-05,0.000000000e+00,1,1,0.401634097,-0.000032455,0.000066609,-1.005791512,0.568611642,0.300000000,0.000000000,0.000000000,-0.800000000,0.500000000
0.352500,-0.000420000,-0.056584518,0.058675753,-0.310851000,-0.056584518,0.034888271,6.703323385e-05,0.000000000e+00,1,1,0.401909283,-0.000032572,0.000066801,-1.006341258,0.568734583,0.300000000,0.000000000,0.000000000,-0.800000000,0.500000000
0.355000,-0.000420000,-0.056584518,0.058730734,-0.310851000,-0.056584518,0.034888271,6.135133527e-05,0.000000000e+00,1,1,0.402153605,-0.000032678,0.000066974,-1.006828374,0.568837890,0.300000000,0.000000000,0.000000000,-0.800000000,0.500000000
0.357500,-0.000420000,-0.056584518,0.058777546,-0.310851000,-0.056584518,0.034888271,5.556742886e-05,0.000000000e+00,1,1,0.402366556,-0.000032772,0.000067127,-1.007251850,0.568921333,0.300000000,0.000000000,0.000000000,-0.800000000,0.500000000
0.360000,-0.000420000,-0.056584518,0.058816116,-0.310851000,-0.056584518,0.034888271,9.410554975e-05,0.000000000e+00,1,1,0.402366556,-0.000032772,0.000067127,-1.007251850,0.568921333,0.300000000,0.000000000,0.000000000,-0.800000000,0.500000000
0.362500,-0.000420000,-0.056584518,0.058846378,-0.310851000,-0.056584518,0.034888271,6.237535750e-05,0.000000000e+00,1,1,0.402615705,-0.000032879,0.000067303,-1.007749096,0.569027896,0.300000000,0.000000000,0.000000000,-0.800000000,0.500000000
0.365000,-0.000420000,-0.056584518,0.058868271,-0.310851000,-0.056584518,0.034888271,8.424938500e-05,0.000000000e+00,1,1,0.402615705,-0.000032879,0.000067303,-1.007749096,0.569027896,0.300000000,0.000000000,0.000000000,-0.800000000,0.500000000
0.367500,-0.000420000,-0.056584518,0.058881738,-0.310851000,-0.056584518,0.034888271,9.770936609e-05,0.000000000e+00,1,1,0.402615705,-0.000032879,0.000067303,-1.007749096,0.569027896,0.300000000,0.000000000,0.000000000,-0.800000000,0.500000000
0.370000,-0.000420000,-0.056584518,0.058886730,-0.310851000,-0.056584518,0.034888271,5.332495222e-05,0.000000000e+00,1,1,0.402816073,-0.000032967,0.000067448,-1.008147119,0.569103517,0.300000000,0.000000000,0.000000000,-0.800000000,0.500000000
0.372500,-0.000420000,-0.056584518,0.058883202,-0.310851000,-0.056584518,0.034888271,4.980286740e-05,0.000000000e+00,1,1,0.402816073,-0.000032967,0.000067448,-1.008147119,0.569103517,0.300000000,0.000000000,0.000000000,-0.800000000,0.500000000
0.375000,-0.000420000,-0.056584518,0.058871116,-0.310851000,-0.056584518,0.034888271,3.774448907e-05,0.000000000e+00,1,1,0.402816073,-0.000032967,0.000067448,-1.008147119,0.569103517,0.300000000,0.000000000,0.000000000,-0.800000000,0.500000000
0.377500,-0.000420000,-0.056584518,0.058850439,-0.310851000,-0.056584518,0.034888271,1.720508352e-05,0.000000000e+00,1,1,0.402816073,-0.000032967,0.000067448,-1.008147119,0.569103517,0.300000000,0.000000000,0.000000000,-0.800000000,0.500000000
0.380000,-0.000420000,-0.056584518,0.058821144,-0.310851000,-0.056584518,0.034888271,1.268433778e-05,0.000000000e+00,1,1,0.402816073,-0.000032967,0.000067448,-1.008147119,0.569103517,0.300000000,0.000000000,0.000000000,-0.800000000,0.500000000
0.382500,-0.000420000,-0.056584518,0.058783211,-0.310851000,-0.056584518,0.034888271,5.035933830e-05,0.000000000e+00,1,1,0.402816073,-0.000032967,0.000067448,-1.008147119,0.569103517,0.300000000,0.000000000,0.000000000,-0.800000000,0.500000000
0.385000,-0.000420000,-0.056584518,0.058736626,-0.310851000,-0.056584518,0.034888271,9.690425673e-05,0.000000000e+00,1,1,0.402816073,-0.000032967,0.000067448,-1.008147119,0.569103517,0.300000000,0.000000000,0.000000000,-0.800000000,0.500000000
0.387500,-0.000420000,-0.056584518,0.058681378,-0.310851000,-0.056584518,0.034888271,5.360949213e-05,0.000000000e+00,1,1,0.402444746,-0.000032835,0.000067226,-1.007382840,0.568816798,0.300000000,0.000000000,0.000000000,-0.800000000,0.500000000
0.390000,-0.000420000,-0.056584518,0.058617467,-0.310851000,-0.056584518,0.034888271,3.912101088e-05,0.000000000e+00,1,1,0.402149952,-0.000032728,0.000067055,-1.006776017,0.568580058,0.300000000,0.000000000,0.000000000,-0.800000000,0.500000000
0.392500,-0.000420000,-0.056584518,0.058544895,-0.310851000,-0.056584518,0.034888271,3.670038176e-05,0.000000000e+00,1,1,0.401867783,-0.000032625,0.000066892,-1.006195484,0.568352404,0.300000000,0.000000000,0.000000000,-0.800000000,0.500000000
0.395000,-0.000420000,-0.056584518,0.058463674,-0.310851000,-0.056584518,0.034888271,3.933441468e-05,0.000000000e+00,1,1,0.401571315,-0.000032516,0.000066719,-1.005586186,0.568116643,0.300000000,0.000000000,0.000000000,-0.800000000,0.500000000
0.397500,-0.000420000,-0.056584518,0.058373820,-0.310851000,-0.056584518,0.034888271,4.408521372e-05,0.000000000e+00,1,1,0.401249212,-0.000032397,0.000066530,-1.004925036,0.567865556,0.300000000,0.000000000,0.000000000,-0.800000000,0.500000000
0.400000,-0.000420000,-0.056584518,0.058275355,-0.310851000,-0.056584518,0.034888271,4.971922900e-05,0.000000000e+00,1,1,0.400896716,-0.000032266,0.000066321,-1.004202380,0.567596119,0.300000000,0.000000000,0.000000000,-0.800000000,0.500000000
0.402500,-0.000420000,-0.056584518,0.058168309,-0.310851000,-0.056584518,0.034888271,5.571649582e-05,0.000000000e+00,1,1,0.400511847,-0.000032122,0.000066090,-1.003414214,0.567307073,0.300000000,0.000000000,0.000000000,-0.800000000,0.500000000
0.405000,-0.000420000,-0.056584518,0.058052718,-0.310851000,-0.056584518,0.034888271,6.185620712e-05,0.000000000e+00,1,1,0.400093804,-0.000031966,0.000065838,-1.002558932,0.566997905,0.300000000,0.000000000,0.000000000,-0.800000000,0.500000000
0.407500,-0.000420000,-0.056584518,0.057928623,-0.310851000,-0.056584518,0.034888271,6.804303638e-05,0.000000000e+00,1,1,0.399642295,-0.000031796,0.000065565,-1.001635953,0.566668416,0.300000000,0.000000000,0.000000000,-0.800000000,0.500000000
0.410000,-0.000420000,-0.056584518,0.057796074,-0.310851000,-0.056584518,0.034888271,7.423430124e-05,0.000000000e+00,1,1,0.399157251,-0.000031613,0.000065269,-1.000645149,0.566318546,0.300000000,0.000000000,0.000000000,-0.800000000,0.500000000
0.412500,-0.000420000,-0.056584518,0.057655125,-0.310851000,-0.056584518,0.034888271,8.040940990e-05,0.000000000e+00,1,1,0.398638711,-0.000031418,0.000064951,-0.999586608,0.565948294,0.300000000,0.000000000,0.000000000,-0.800000000,0.500000000
0.415000,-0.000420000,-0.056584518,0.057505838,-0.310851000,-0.056584518,0.034888271,8.655704225e-05,0.000000000e+00,1,1,0.398086771,-0.000031209,0.000064612,-0.998460530,0.565557691,0.300000000,0.000000000,0.000000000,-0.800000000,0.500000000
0.417500,-0.000420000,-0.056584518,0.057348282,-0.310851000,-0.056584518,0.034888271,9.266976977e-05,0.000000000e+00,1,1,0.397501561,-0.000030988,0.000064251,-0.997267186,0.565146782,0.300000000,0.000000000,0.000000000,-0.800000000,0.500000000
0.420000,-0.000420000,-0.056584518,0.057182531,-0.310851000,-0.056584518,0.034888271,9.874179675e-05,0.000000000e+00,1,1,0.396883239,-0.000030754,0.000063868,-0.996006901,0.564715625,0.300000000,0.000000000,0.000000000,-0.800000000,0.500000000
0.422500,-0.000420000,-0.056584518,0.057008667,-0.310851000,-0.056584518,0.034888271,3.433668521e-05,0.000000000e+00,1,1,0.395960568,-0.000030404,0.000063303,-0.994125928,0.564058198,0.300000000,0.000000000,0.000000000,-0.800000000,0.500000000
0.425000,-0.000420000,-0.056584518,0.056826777,-0.310851000,-0.056584518,0.034888271,8.115787357e-05,0.000000000e+00,1,1,0.395436638,-0.000030208,0.000062978,-0.993057488,0.563690108,0.300000000,0.000000000,0.000000000,-0.800000000,0.500000000
0.427500,-0.000420000,-0.056584518,0.056636956,-0.310851000,-0.056584518,0.034888271,3.424462980e-05,0.000000000e+00,1,1,0.394516726,-0.000029862,0.000062411,-0.991182498,0.563039556,0.300000000,0.000000000,0.000000000,-0.800000000,0.500000000
0.430000,-0.000420000,-0.056584518,0.056439305,-0.310851000,-0.056584518,0.034888271,8.788903967e-05,0.000000000e+00,1,1,0.393955775,-0.000029653,0.000062061,-0.990039249,0.562649970,0.300000000,0.000000000,0.000000000,-0.800000000,0.500000000
0.432500,-0.000420000,-0.056584518,0.056233931,-0.310851000,-0.056584518,0.034888271,3.838396734e-05,0.000000000e+00,1,1,0.392960676,-0.000029279,0.000061443,-0.988012746,0.561955953,0.300000000,0.000000000,0.000000000,-0.800000000,0.500000000
0.435000,-0.000420000,-0.056584518,0.056020948,-0.310851000,-0.056584518,0.034888271,9.623860605e-05,0.000000000e+00,1,1,0.392353638,-0.000029053,0.000061062,-0.986776477,0.561538830,0.300000000,0.000000000,0.000000000,-0.800000000,0.500000000
0.437500,-0.000420000,-0.056584518,0.055800478,-0.310851000,-0.056584518,0.034888271,4.275378364e-05,0.000000000e+00,1,1,0.391278911,-0.000028650,0.000060390,-0.984589609,0.560798089,0.300000000,0.000000000,0.000000000,-0.800000000,0.500000000
0.440000,-0.000420000,-0.056584518,0.055572646,-0.310851000,-0.056584518,0.034888271,3.473911833e-05,0.000000000e+00,1,1,0.390352325,-0.000028305,0.000059811,-0.982703868,0.560156341,0.300000000,0.000000000,0.000000000,-0.800000000,0.500000000
0.442500,-0.000420000,-0.056584518,0.055337586,-0.310851000,-0.056584518,0.034888271,3.472609006e-05,0.000000000e+00,1,1,0.389426789,-0.000027961,0.000059230,-0.980820464,0.559517904,0.300000000,0.000000000,0.000000000,-0.800000000,0.500000000
0.445000,-0.000420000,-0.056584518,0.055095439,-0.310851000,-0.056584518,0.034888271,3.610627120e-05,0.000000000e+00,1,1,0.388476441,-0.000027609,0.000058632,-0.978887193,0.558865874,0.300000000,0.000000000,0.000000000,-0.800000000,0.500000000
0.447500,-0.000420000,-0.056584518,0.054846350,-0.310851000,-0.056584518,0.034888271,3.771278142e-05,0.000000000e+00,1,1,0.387497029,-0.000027247,0.000058014,-0.976895522,0.558197358,0.300000000,0.000000000,0.000000000,-0.800000000,0.500000000
0.450000,-0.000420000,-0.056584518,0.054590472,-0.310851000,-0.056584518,0.034888271,3.933841522e-05,0.000000000e+00,1,1,0.386488167,-0.000026875,0.000057375,-0.974844690,0.557511960,0.300000000,0.000000000,0.000000000,-0.800000000,0.500000000
0.452500,-0.000420000,-0.056584518,0.054327965,-0.310851000,-0.056584518,0.034888271,4.094541613e-05,0.000000000e+00,1,1,0.385450177,-0.000026494,0.000056717,-0.972735347,0.556809734,0.300000000,0.000000000,0.000000000,-0.800000000,0.500000000
0.455000,-0.000420000,-0.056584518,0.054058992,-0.310851000,-0.056584518,0.034888271,4.252597593e-05,0.000000000e+00,1,1,0.384383528,-0.000026103,0.000056039,-0.970568438,0.556090821,0.300000000,0.000000000,0.000000000,-0.800000000,0.500000000
0.457500,-0.000420000,-0.056584518,0.053783726,-0.310851000,-0.056584518,0.034888271,4.407758710e-05,0.000000000e+00,1,1,0.383288736,-0.000025702,0.000055341,-0.968345000,0.555355391,0.300000000,0.000000000,0.000000000,-0.800000000,0.500000000
0.460000,-0.000420000,-0.056584518,0.053502345,-0.310851000,-0.056584518,0.034888271,4.559868424e-05,0.000000000e+00,1,1,0.382166345,-0.000025294,0.000054624,-0.966066126,0.554603624,0.300000000,0.000000000,0.000000000,-0.800000000,0.500000000
0.462500,-0.000420000,-0.056584518,0.053215031,-0.310851000,-0.056584518,0.034888271,4.708787284e-05,0.000000000e+00,1,1,0.381016926,-0.000024876,0.000053888,-0.963732965,0.553835713,0.300000000,0.000000000,0.000000000,-0.800000000,0.500000000
0.465000,-0.000420000,-0.056584518,0.052921975,-0.310851000,-0.056584518,0.034888271,4.854379264e-05,0.000000000e+00,1,1,0.379841077,-0.000024451,0.000053135,-0.961346716,0.553051865,0.300000000,0.000000000,0.000000000,-0.800000000,0.500000000
0.467500,-0.000420000,-0.056584518,0.052623373,-0.310851000,-0.056584518,0.034888271,4.996509288e-05,0.000000000e+00,1,1,0.378639422,-0.000024018,0.000052363,-0.958908634,0.552252297,0.300000000,0.000000000,0.000000000,-0.800000000,0.500000000
0.470000,-0.000420000,-0.056584518,0.052319426,-0.310851000,-0.056584518,0.034888271,5.135042785e-05,0.000000000e+00,1,1,0.377412612,-0.000023578,0.000051574,-0.956420022,0.551437241,0.300000000,0.000000000,0.000000000,-0.800000000,0.500000000
0.472500,-0.000420000,-0.056584518,0.052010342,-0.310851000,-0.056584518,0.034888271,5.269845610e-05,0.000000000e+00,1,1,0.376161323,-0.000023131,0.000050767,-0.953882243,0.550606945,0.300000000,0.000000000,0.000000000,-0.800000000,0.500000000
0.475000,-0.000420000,-0.056584518,0.051696334,-0.310851000,-0.056584518,0.034888271,5.400783997e-05,0.000000000e+00,1,1,0.374886262,-0.000022678,0.000049945,-0.951296711,0.549761670,0.300000000,0.000000000,0.000000000,-0.800000000,0.500000000
0.477500,-0.000420000,-0.056584518,0.051377622,-0.310851000,-0.056584518,0.034888271,5.527724564e-05,0.000000000e+00,1,1,0.373588161,-0.000022219,0.000049106,-0.948664897,0.548901694,0.300000000,0.000000000,0.000000000,-0.800000000,0.500000000
0.480000,-0.000420000,-0.056584518,0.051054429,-0.310851000,-0.056584518,0.034888271,5.650534282e-05,0.000000000e+00,1,1,0.372267781,-0.000021754,0.000048251,-0.945988327,0.548027309,0.300000000,0.000000000,0.000000000,-0.800000000,0.500000000
0.482500,-0.000420000,-0.056584518,0.050726988,-0.310851000,-0.056584518,0.034888271,5.769080457e-05,0.000000000e+00,1,1,0.370925912,-0.000021284,0.000047382,-0.943268586,0.547138828,0.300000000,0.000000000,0.000000000,-0.800000000,0.500000000
0.485000,-0.000420000,-0.056584518,0.050395532,-0.310851000,-0.056584518,0.034888271,5.883230724e-05,0.000000000e+00,1,1,0.369563373,-0.000020810,0.000046498,-0.940507315,0.546236580,0.300000000,0.000000000,0.000000000,-0.800000000,0.500000000
0.487500,-0.000420000,-0.056584518,0.050060305,-0.310851000,-0.056584518,0.034888271,5.992853032e-05,0.000000000e+00,1,1,0.368181009,-0.000020331,0.000045601,-0.937706214,0.545320914,0.300000000,0.000000000,0.000000000,-0.800000000,0.500000000
0.490000,-0.000420000,-0.056584518,0.049721551,-0.310851000,-0.056584518,0.034888271,6.097815632e-05,0.000000000e+00,1,1,0.366779699,-0.000019849,0.000044690,-0.934867042,0.544392198,0.300000000,0.000000000,0.000000000,-0.800000000,0.500000000
0.492500,-0.000420000,-0.056584518,0.049379524,-0.310851000,-0.056584518,0.034888271,6.197987022e-05,0.000000000e+00,1,1,0.365360348,-0.000019363,0.000043766,-0.931991617,0.543450822,0.300000000,0.000000000,0.000000000,-0.800000000,0.500000000
0.495000,-0.000420000,-0.056584518,0.049034480,-0.310851000,-0.056584518,0.034888271,6.293235950e-05,0.000000000e+00,1,1,0.363923894,-0.000018874,0.000042831,-0.929081819,0.542497199,0.300000000,0.000000000,0.000000000,-0.800000000,0.500000000
0.497500,-0.000420000,-0.056584518,0.048686681,-0.310851000,-0.056584518,0.034888271,6.383431367e-05,0.000000000e+00,1,1,0.362471303,-0.000018383,0.000041884,-0.926139589,0.541531762,0.300000000,0.000000000,0.000000000,-0.800000000,0.500000000
0.500000,-0.000420000,-0.056584518,0.048336394,-0.310851000,-0.056584518,0.034888271,6.468442414e-05,0.000000000e+00,1,1,0.361003574,-0.000017890,0.000040926,-0.923166929,0.540554971,0.300000000,0.000000000,0.000000000,-0.800000000,0.500000000
0.502500,-0.000420000,-0.056584518,0.047983892,-0.310851000,-0.056584518,0.034888271,6.548138368e-05,0.000000000e+00,1,1,0.359521734,-0.000017395,0.000039958,-0.920165904,0.539567309,0.300000000,0.000000000,0.000000000,-0.800000000,0.500000000
0.505000,-0.000420000,-0.056584518,0.047629451,-0.310851000,-0.056584518,0.034888271,6.622388599e-05,0.000000000e+00,1,1,0.358026845,-0.000016899,0.000038981,-0.917138642,0.538569287,0.300000000,0.000000000,0.000000000,-0.800000000,0.500000000
0.507500,-0.000420000,-0.056584518,0.047273352,-0.310851000,-0.056584518,0.034888271,6.691062530e-05,0.000000000e+00,1,1,0.356519998,-0.000016403,0.000037996,-0.914087335,0.537561442,0.300000000,0.000000000,0.000000000,-0.800000000,0.500000000
0.510000,-0.000420000,-0.056584518,0.046915882,-0.310851000,-0.056584518,0.034888271,6.754029579e-05,0.000000000e+00,1,1,0.355002316,-0.000015907,0.000037003,-0.911014241,0.536544340,0.300000000,0.000000000,0.000000000,-0.800000000,0.500000000
0.512500,-0.000420000,-0.056584518,0.046557331,-0.310851000,-0.056584518,0.034888271,6.811159102e-05,0.000000000e+00,1,1,0.353474957,-0.000015410,0.000036002,-0.907921682,0.535518576,0.300000000,0.000000000,0.000000000,-0.800000000,0.500000000
0.515000,-0.000420000,-0.056584518,0.046197995,-0.310851000,-0.056584518,0.034888271,6.862320346e-05,0.000000000e+00,1,1,0.351939108,-0.000014915,0.000034996,-0.904812047,0.534484777,0.300000000,0.000000000,0.000000000,-0.800000000,0.500000000
0.517500,-0.000420000,-0.056584518,0.045838172,-0.310851000,-0.056584518,0.034888271,6.907382347e-05,0.000000000e+00,1,1,0.350395991,-0.000014421,0.000033984,-0.901687788,0.533443602,0.300000000,0.000000000,0.000000000,-0.800000000,0.500000000
0.520000,-0.000420000,-0.056584518,0.045478167,-0.310851000,-0.056584518,0.034888271,6.946213854e-05,0.000000000e+00,1,1,0.348846860,-0.000013929,0.000032968,-0.898551429,0.532395741,0.300000000,0.000000000,0.000000000,-0.800000000,0.500000000
0.522500,-0.000420000,-0.056584518,0.045118288,-0.310851000,-0.056584518,0.034888271,6.978683289e-05,0.000000000e+00,1,1,0.347293002,-0.000013439,0.000031948,-0.895405560,0.531341921,0.300000000,0.000000000,0.000000000,-0.800000000,0.500000000
0.525000,-0.000420000,-0.056584518,0.044758845,-0.310851000,-0.056584518,0.034888271,7.004658601e-05,0.000000000e+00,1,1,0.345735739,-0.000012951,0.000030925,-0.892252837,0.530282903,0.300000000,0.000000000,0.000000000,-0.800000000,0.500000000
0.527500,-0.000420000,-0.056584518,0.044400156,-0.310851000,-0.056584518,0.034888271,7.024007180e-05,0.000000000e+00,1,1,0.344176425,-0.000012466,0.000029901,-0.889095987,0.529219487,0.300000000,0.000000000,0.000000000,-0.800000000,0.500000000
0.530000,-0.000420000,-0.056584518,0.044042541,-0.310851000,-0.056584518,0.034888271,7.036595740e-05,0.000000000e+00,1,1,0.342616448,-0.000011985,0.000028875,-0.885937806,0.528152509,0.300000000,0.000000000,0.000000000,-0.800000000,0.500000000
0.532500,-0.000420000,-0.056584518,0.043686322,-0.310851000,-0.056584518,0.034888271,7.042290197e-05,0.000000000e+00,1,1,0.341057232,-0.000011508,0.000027850,-0.882781160,0.527082845,0.300000000,0.000000000,0.000000000,-0.800000000,0.500000000
0.535000,-0.000420000,-0.056584518,0.043331829,-0.310851000,-0.056584518,0.034888271,7.040955529e-05,0.000000000e+00,1,1,0.339500233,-0.000011036,0.000026826,-0.879628984,0.526011412,0.300000000,0.000000000,0.000000000,-0.800000000,0.500000000
0.537500,-0.000420000,-0.056584518,0.042979392,-0.310851000,-0.056584518,0.034888271,7.032455585e-05,0.000000000e+00,1,1,0.337946942,-0.000010568,0.000025803,-0.876484284,0.524939170,0.300000000,0.000000000,0.000000000,-0.800000000,0.500000000
0.540000,-0.000420000,-0.056584518,0.042629346,-0.310851000,-0.056584518,0.034888271,7.016652969e-05,0.000000000e+00,1,1,0.336398884,-0.000010105,0.000024784,-0.873350139,0.523867119,0.300000000,0.000000000,0.000000000,-0.800000000,0.500000000
0.542500,-0.000420000,-0.056584518,0.042282031,-0.310851000,-0.056584518,0.034888271,6.993408764e-05,0.000000000e+00,1,1,0.334857621,-0.000009648,0.000023769,-0.870229697,0.522796306,0.300000000,0.000000000,0.000000000,-0.800000000,0.500000000
0.545000,-0.000420000,-0.056584518,0.041937789,-0.310851000,-0.056584518,0.034888271,6.962582379e-05,0.000000000e+00,1,1,0.333324748,-0.000009198,0.000022760,-0.867126179,0.521727822,0.300000000,0.000000000,0.000000000,-0.800000000,0.500000000
0.547500,-0.000420000,-0.056584518,0.041596967,-0.310851000,-0.056584518,0.034888271,6.924031247e-05,0.000000000e+00,1,1,0.331801894,-0.000008753,0.000021756,-0.864042878,0.520662805,0.300000000,0.000000000,0.000000000,-0.800000000,0.500000000
0.550000,-0.000420000,-0.056584518,0.041259913,-0.310851000,-0.056584518,0.034888271,6.877610534e-05,0.000000000e+00,1,1,0.330290726,-0.000008316,0.000020760,-0.860983161,0.519602440,0.300000000,0.000000000,0.000000000,-0.800000000,0.500000000
0.552500,-0.000420000,-0.056584518,0.040926982,-0.310851000,-0.056584518,0.034888271,6.823172803e-05,0.000000000e+00,1,1,0.328792944,-0.000007886,0.000019772,-0.857950466,0.518547961,0.300000000,0.000000000,0.000000000,-0.800000000,0.500000000
0.555000,-0.000420000,-0.056584518,0.040598531,-0.310851000,-0.056584518,0.034888271,6.760567652e-05,0.000000000e+00,1,1,0.327310285,-0.000007463,0.000018794,-0.854948308,0.517500653,0.300000000,0.000000000,0.000000000,-0.800000000,0.500000000
0.557500,-0.000420000,-0.056584518,0.040274922,-0.310851000,-0.056584518,0.034888271,6.689641236e-05,0.000000000e+00,1,1,0.325844520,-0.000007049,0.000017827,-0.851980273,0.516461849,0.300000000,0.000000000,0.000000000,-0.800000000,0.500000000
0.560000,-0.000420000,-0.056584518,0.039956518,-0.310851000,-0.056584518,0.034888271,6.610235705e-05,0.000000000e+00,1,1,0.324397458,-0.000006643,0.000016873,-0.849050023,0.515432937,0.300000000,0.000000000,0.000000000,-0.800000000,0.500000000
0.562500,-0.000420000,-0.056584518,0.039643691,-0.310851000,-0.056584518,0.034888271,6.522188650e-05,0.000000000e+00,1,1,0.322970944,-0.000006246,0.000015931,-0.846161298,0.514415353,0.300000000,0.000000000,0.000000000,-0.800000000,0.500000000
0.565000,-0.000420000,-0.056584518,0.039336812,-0.310851000,-0.056584518,0.034888271,6.425332288e-05,0.000000000e+00,1,1,0.321566859,-0.000005859,0.000015004,-0.843317913,0.513410591,0.300000000,0.000000000,0.000000000,-0.800000000,0.500000000
0.567500,-0.000420000,-0.056584518,0.039036259,-0.310851000,-0.056584518,0.034888271,6.319492638e-05,0.000000000e+00,1,1,0.320187122,-0.000005481,0.000014092,-0.840523761,0.512420198,0.300000000,0.000000000,0.000000000,-0.800000000,0.500000000
0.570000,-0.000420000,-0.056584518,0.038742416,-0.310851000,-0.056584518,0.034888271,6.204488414e-05,0.000000000e+00,1,1,0.318833690,-0.000005113,0.000013198,-0.837782816,0.511445775,0.300000000,0.000000000,0.000000000,-0.800000000,0.500000000
0.572500,-0.000420000,-0.056584518,0.038455670,-0.310851000,-0.056584518,0.034888271,6.080129770e-05,0.000000000e+00,1,1,0.317508559,-0.000004755,0.000012322,-0.835099133,0.510488980,0.300000000,0.000000000,0.000000000,-0.800000000,0.500000000
0.575000,-0.000420000,-0.056584518,0.038176413,-0.310851000,-0.056584518,0.034888271,5.946216726e-05,0.000000000e+00,1,1,0.316213767,-0.000004408,0.000011466,-0.832476850,0.509551530,0.300000000,0.000000000,0.000000000,-0.800000000,0.500000000
0.577500,-0.000420000,-0.056584518,0.037905045,-0.310851000,-0.056584518,0.034888271,5.802537277e-05,0.000000000e+00,1,1,0.314951393,-0.000004072,0.000010631,-0.829920196,0.508635198,0.300000000,0.000000000,0.000000000,-0.800000000,0.500000000
0.580000,-0.000420000,-0.056584518,0.037641973,-0.310851000,-0.056584518,0.034888271,5.648865038e-05,0.000000000e+00,1,1,0.313723557,-0.000003747,0.000009819,-0.827433488,0.507741819,0.300000000,0.000000000,0.000000000,-0.800000000,0.500000000
0.582500,-0.000420000,-0.056584518,0.037387608,-0.310851000,-0.056584518,0.034888271,5.484956288e-05,0.000000000e+00,1,1,0.312532430,-0.000003434,0.000009030,-0.825021142,0.506873288,0.300000000,0.000000000,0.000000000,-0.800000000,0.500000000
0.585000,-0.000420000,-0.056584518,0.037142373,-0.310851000,-0.056584518,0.034888271,5.310546314e-05,0.000000000e+00,1,1,0.311380230,-0.000003134,0.000008267,-0.822687675,0.506031564,0.300000000,0.000000000,0.000000000,-0.800000000,0.500000000
0.587500,-0.000420000,-0.056584518,0.036906699,-0.310851000,-0.056584518,0.034888271,5.125344708e-05,0.000000000e+00,1,1,0.310269229,-0.000002845,0.000007531,-0.820437718,0.505218673,0.300000000,0.000000000,0.000000000,-0.800000000,0.500000000
0.590000,-0.000420000,-0.056584518,0.036681029,-0.310851000,-0.056584518,0.034888271,4.929029383e-05,0.000000000e+00,1,1,0.309201759,-0.000002570,0.000006823,-0.818276023,0.504436709,0.300000000,0.000000000,0.000000000,-0.800000000,0.500000000
0.592500,-0.000420000,-0.056584518,0.036465817,-0.310851000,-0.056584518,0.034888271,4.721238727e-05,0.000000000e+00,1,1,0.308180216,-0.000002308,0.000006145,-0.816207477,0.503687840,0.300000000,0.000000000,0.000000000,-0.800000000,0.500000000
0.595000,-0.000420000,-0.056584518,0.036261535,-0.310851000,-0.056584518,0.034888271,4.501561294e-05,0.000000000e+00,1,1,0.307207073,-0.000002060,0.000005498,-0.814237125,0.502974314,0.300000000,0.000000000,0.000000000,-0.800000000,0.500000000
0.597500,-0.000420000,-0.056584518,0.036068672,-0.310851000,-0.056584518,0.034888271,4.269521880e-05,0.000000000e+00,1,1,0.306284887,-0.000001825,0.000004885,-0.812370186,0.502298465,0.300000000,0.000000000,0.000000000,-0.800000000,0.500000000
0.600000,-0.000420000,-0.056584518,0.035887738,-0.310851000,-0.056584518,0.034888271,9.527413840e-05,0.000000000e+00,1,1,0.305680252,-0.000001676,0.000004485,-0.811143256,0.501842971,0.300000000,0.000000000,0.000000000,-0.800000000,0.500000000
0.602500,-0.000420000,-0.056584518,0.035719273,-0.310851000,-0.056584518,0.034888271,4.778453782e-05,0.000000000e+00,1,1,0.304658107,-0.000001419,0.000003808,-0.809072765,0.501081114,0.300000000,0.000000000,0.000000000,-0.800000000,0.500000000
0.605000,-0.000420000,-0.056584518,0.035563850,-0.310851000,-0.056584518,0.034888271,8.674404647e-05,0.000000000e+00,1,1,0.304107046,-0.000001284,0.000003444,-0.807955129,0.500666031,0.300000000,0.000000000,0.000000000,-0.800000000,0.500000000
0.607500,-0.000420000,-0.056584518,0.035422086,-0.310851000,-0.056584518,0.034888271,9.770458072e-05,0.000000000e+00,1,1,0.303488162,-0.000001132,0.000003035,-0.806699298,0.500194778,0.300000000,0.000000000,0.000000000,-0.800000000,0.500000000
0.610000,-0.000420000,-0.056584518,0.035294656,-0.310851000,-0.056584518,0.034888271,9.634965195e-05,0.000000000e+00,1,1,0.302877832,-0.000000983,0.000002633,-0.805461140,0.499729383,0.300000000,0.000000000,0.000000000,-0.800000000,0.500000000
0.612500,-0.000420000,-0.056584518,0.035182316,-0.310851000,-0.056584518,0.034888271,8.937137285e-05,0.000000000e+00,1,1,0.302311134,-0.000000843,0.000002259,-0.804312036,0.499298478,0.300000000,0.000000000,0.000000000,-0.800000000,0.500000000
0.615000,-0.000420000,-0.056584518,0.035085936,-0.310851000,-0.056584518,0.034888271,7.959234420e-05,0.000000000e+00,1,1,0.301805658,-0.000000718,0.000001925,-0.803287709,0.498916574,0.300000000,0.000000000,0.000000000,-0.800000000,0.500000000
0.617500,-0.000420000,-0.056584518,0.035006561,-0.310851000,-0.056584518,0.034888271,6.814919139e-05,0.000000000e+00,1,1,0.301371911,-0.000000611,0.000001637,-0.802409496,0.498592462,0.300000000,0.000000000,0.000000000,-0.800000000,0.500000000
0.620000,-0.000420000,-0.056584518,0.034945530,-0.310851000,-0.056584518,0.034888271,5.540296921e-05,0.000000000e+00,1,1,0.301018130,-0.000000522,0.000001401,-0.801694142,0.498333104,0.300000000,0.000000000,0.000000000,-0.800000000,0.500000000
0.622500,-0.000420000,-0.056584518,0.034904783,-0.310851000,-0.056584518,0.034888271,9.614695697e-05,0.000000000e+00,1,1,0.301018130,-0.000000522,0.000001401,-0.801694142,0.498333104,0.300000000,0.000000000,0.000000000,-0.800000000,0.500000000
0.625000,-0.000420000,-0.056584518,0.034888271,-0.310851000,-0.056584518,0.034888271,4.834952932e-05,0.000000000e+00,1,1,0.300708877,-0.000000444,0.000001193,-0.801069267,0.498109581,0.300000000,0.000000000,0.000000000,-0.800000000,0.500000000
0.627500,-0.000420000,-0.056584518,0.034888271,-0.310851000,-0.056584518,0.034904916,4.834952932e-05,1.664443092e-05,1,1,0.300708877,-0.000000444,0.000001193,-0.801069267,0.498109581,0.300000000,0.000000000,0.000000000,-0.800000000,0.500000000
0.630000,-0.000420000,-0.056584518,0.034888271,-0.310851000,-0.056584518,0.034946453,4.834952932e-05,5.818191854e-05,1,1,0.300708877,-0.000000444,0.000001193,-0.801069267,0.498109581,0.300000000,0.000000000,0.000000000,-0.800000000,0.500000000
0.632500,-0.000420000,-0.056584518,0.034888271,-0.310851000,-0.056584518,0.035009434,4.834952932e-05,5.202596118e-05,1,1,0.300708877,-0.000000444,0.000001193,-0.801069267,0.498109581,0.300325281,0.000000072,0.000000211,-0.800664234,0.500268824
0.635000,-0.000420000,-0.056584518,0.034888271,-0.310851000,-0.056584518,0.035092364,4.834952932e-05,5.798230003e-05,1,1,0.300708877,-0.000000444,0.000001193,-0.801069267,0.498109581,0.300687654,0.000000155,0.000000445,-0.801403296,0.500567763
0.637500,-0.000420000,-0.056584518,0.034888271,-0.310851000,-0.056584518,0.035194318,4.834952932e-05,6.873735016e-05,1,1,0.300708877,-0.000000444,0.000001193,-0.801069267,0.498109581,0.301116787,0.000000255,0.000000721,-0.802278195,0.500921323
0.640000,-0.000420000,-0.056584518,0.034888271,-0.310851000,-0.056584518,0.035314642,4.834952932e-05,8.127164794e-05,1,1,0.300708877,-0.000000444,0.000001193,-0.801069267,0.498109581,0.301623548,0.000000373,0.000001048,-0.803311207,0.501338291
0.642500,-0.000420000,-0.056584518,0.034888271,-0.310851000,-0.056584518,0.035452840,4.834952932e-05,9.435668823e-05,1,1,0.300708877,-0.000000444,0.000001193,-0.801069267,0.498109581,0.302211116,0.000000510,0.000001427,-0.804508817,0.501821020
0.645000,-0.000420000,-0.056584518,0.034888271,-0.310851000,-0.056584518,0.035608516,4.834952932e-05,4.649102750e-05,1,1,0.300708877,-0.000000444,0.000001193,-0.801069267,0.498109581,0.303166502,0.000000741,0.000002040,-0.806454137,0.502603527
0.647500,-0.000420000,-0.056584518,0.034888271,-0.310851000,-0.056584518,0.035781340,4.834952932e-05,9.443404580e-05,1,1,0.300708877,-0.000000444,0.000001193,-0.801069267,0.498109581,0.303750999,0.000000879,0.000002417,-0.807645510,0.503081602
0.650000,-0.000420000,-0.056584518,0.034888271,-0.310851000,-0.056584518,0.035971027,4.834952932e-05,5.298330018e-05,1,1,0.300708877,-0.000000444,0.000001193,-0.801069267,0.498109581,0.304832011,0.000001140,0.000003112,-0.809846930,0.503963029
0.652500,-0.000420000,-0.056584518,0.034888271,-0.310851000,-0.056584518,0.036177328,4.834952932e-05,4.857500756e-05,1,1,0.300708877,-0.000000444,0.000001193,-0.801069267,0.498109581,0.305815363,0.000001380,0.000003744,-0.811849362,0.504762167
0.655000,-0.000420000,-0.056584518,0.034888271,-0.310851000,-0.056584518,0.036400016,4.834952932e-05,5.091591860e-05,1,1,0.300708877,-0.000000444,0.000001193,-0.801069267,0.498109581,0.306841366,0.000001630,0.000004405,-0.813938885,0.505593518
0.657500,-0.000420000,-0.056584518,0.034888271,-0.310851000,-0.056584518,0.036638881,4.834952932e-05,5.445910119e-05,1,1,0.300708877,-0.000000444,0.000001193,-0.801069267,0.498109581,0.307934664,0.000001898,0.000005108,-0.816165396,0.506476582
0.660000,-0.000420000,-0.056584518,0.034888271,-0.310851000,-0.056584518,0.036893729,4.834952932e-05,5.819019605e-05,1,1,0.300708877,-0.000000444,0.000001193,-0.801069267,0.498109581,0.309098646,0.000002185,0.000005857,-0.818535669,0.507413511
0.662500,-0.000420000,-0.056584518,0.034888271,-0.310851000,-0.056584518,0.037164371,4.834952932e-05,6.192453103e-05,1,1,0.300708877,-0.000000444,0.000001193,-0.801069267,0.498109581,0.310332820,0.000002492,0.000006652,-0.821048630,0.508403282
0.665000,-0.000420000,-0.056584518,0.034888271,-0.310851000,-0.056584518,0.037450626,4.834952932e-05,6.562885653e-05,1,1,0.300708877,-0.000000444,0.000001193,-0.801069267,0.498109581,0.311635986,0.000002818,0.000007491,-0.823701790,0.509444285
0.667500,-0.000420000,-0.056584518,0.034888271,-0.310851000,-0.056584518,0.037752318,4.834952932e-05,6.929725185e-05,1,1,0.300708877,-0.000000444,0.000001193,-0.801069267,0.498109581,0.313006823,0.000003164,0.000008373,-0.826492409,0.510534788
0.670000,-0.000420000,-0.056584518,0.034888271,-0.310851000,-0.056584518,0.038069271,4.834952932e-05,7.292849783e-05,1,1,0.300708877,-0.000000444,0.000001193,-0.801069267,0.498109581,0.314443981,0.000003530,0.000009298,-0.829417696,0.511673028
0.672500,-0.000420000,-0.056584518,0.034888271,-0.310851000,-0.056584518,0.038401311,4.834952932e-05,7.652200200e-05,1,1,0.300708877,-0.000000444,0.000001193,-0.801069267,0.498109581,0.315946104,0.000003916,0.000010265,-0.832474840,0.512857217
0.675000,-0.000420000,-0.056584518,0.034888271,-0.310851000,-0.056584518,0.038748264,4.834952932e-05,8.007710242e-05,1,1,0.300708877,-0.000000444,0.000001193,-0.801069267,0.498109581,0.317511824,0.000004323,0.000011273,-0.835661008,0.514085550
0.677500,-0.000420000,-0.056584518,0.034888271,-0.310851000,-0.056584518,0.039109952,4.834952932e-05,8.359297913e-05,1,1,0.300708877,-0.000000444,0.000001193,-0.801069267,0.498109581,0.319139761,0.000004749,0.000012322,-0.838973341,0.515356203
0.680000,-0.000420000,-0.056584518,0.034888271,-0.310851000,-0.056584518,0.039486198,4.834952932e-05,8.706866824e-05,1,1,0.300708877,-0.000000444,0.000001193,-0.801069267,0.498109581,0.320828522,0.000005195,0.000013409,-0.842408951,0.516667339
0.682500,-0.000420000,-0.056584518,0.034888271,-0.310851000,-0.056584518,0.039876821,4.834952932e-05,9.050308950e-05,1,1,0.300708877,-0.000000444,0.000001193,-0.801069267,0.498109581,0.322576697,0.000005662,0.000014535,-0.845964921,0.518017105
0.685000,-0.000420000,-0.056584518,0.034888271,-0.310851000,-0.056584518,0.040281634,4.834952932e-05,9.389507057e-05,1,1,0.300708877,-0.000000444,0.000001193,-0.801069267,0.498109581,0.324382861,0.000006150,0.000015699,-0.849638297,0.519403636
0.687500,-0.000420000,-0.056584518,0.034888271,-0.310851000,-0.056584518,0.040700451,4.834952932e-05,9.724336826e-05,1,1,0.300708877,-0.000000444,0.000001193,-0.801069267,0.498109581,0.326245572,0.000006658,0.000016899,-0.853426094,0.520825061
0.690000,-0.000420000,-0.056584518,0.034888271,-0.310851000,-0.056584518,0.041133076,4.834952932e-05,4.615107121e-05,1,1,0.300708877,-0.000000444,0.000001193,-0.801069267,0.498109581,0.328408554,0.000007263,0.000018292,-0.857820182,0.522456896
0.692500,-0.000420000,-0.056584518,0.034888271,-0.310851000,-0.056584518,0.041579312,4.834952932e-05,9.400022934e-05,1,1,0.300708877,-0.000000444,0.000001193,-0.801069267,0.498109581,0.330180560,0.000007753,0.000019436,-0.861423553,0.523789868
0.695000,-0.000420000,-0.056584518,0.034888271,-0.310851000,-0.056584518,0.042038957,4.834952932e-05,4.854243857e-05,1,1,0.300708877,-0.000000444,0.000001193,-0.801069267,0.498109581,0.332421957,0.000008392,0.000020881,-0.865975876,0.525457103
0.697500,-0.000420000,-0.056584518,0.034888271,-0.310851000,-0.056584518,0.042511802,4.834952932e-05,9.965965203e-05,1,1,0.300708877,-0.000000444,0.000001193,-0.801069267,0.498109581,0.334283290,0.000008919,0.000022084,-0.869759656,0.526838323
0.700000,-0.000420000,-0.056584518,0.034888271,-0.310851000,-0.056584518,0.042997633,4.834952932e-05,5.155533088e-05,1,1,0.300708877,-0.000000444,0.000001193,-0.801069267,0.498109581,0.336634246,0.000009604,0.000023601,-0.874532619,0.528561396
0.702500,-0.000420000,-0.056584518,0.034888271,-0.310851000,-0.056584518,0.043496232,4.834952932e-05,4.916037258e-05,1,1,0.300708877,-0.000000444,0.000001193,-0.801069267,0.498109581,0.338830905,0.000010250,0.000025022,-0.878991984,0.530154551
0.705000,-0.000420000,-0.056584518,0.034888271,-0.310851000,-0.056584518,0.044007373,4.834952932e-05,5.023363897e-05,1,1,0.300708877,-0.000000444,0.000001193,-0.801069267,0.498109581,0.341058127,0.000010911,0.000026464,-0.883512714,0.531756624
0.707500,-0.000420000,-0.056584518,0.034888271,-0.310851000,-0.056584518,0.044530825,4.834952932e-05,5.155312795e-05,1,1,0.300708877,-0.000000444,0.000001193,-0.801069267,0.498109581,0.343328632,0.000011594,0.000027934,-0.888120322,0.533376372
0.710000,-0.000420000,-0.056584518,0.034888271,-0.310851000,-0.056584518,0.045066351,4.834952932e-05,5.287266029e-05,1,1,0.300708877,-0.000000444,0.000001193,-0.801069267,0.498109581,0.345641956,0.000012298,0.000029433,-0.892813768,0.535012725
0.712500,-0.000420000,-0.056584518,0.034888271,-0.310851000,-0.056584518,0.045613710,4.834952932e-05,5.417282494e-05,1,1,0.300708877,-0.000000444,0.000001193,-0.801069267,0.498109581,0.347996616,0.000013024,0.000030960,-0.897589980,0.536663894
0.715000,-0.000420000,-0.056584518,0.034888271,-0.310851000,-0.056584518,0.046172652,4.834952932e-05,5.545148150e-05,1,1,0.300708877,-0.000000444,0.000001193,-0.801069267,0.498109581,0.350391046,0.000013772,0.000032513,-0.902445720,0.538328057
0.717500,-0.000420000,-0.056584518,0.034888271,-0.310851000,-0.056584518,0.046742922,4.834952932e-05,5.670781870e-05,1,1,0.300708877,-0.000000444,0.000001193,-0.801069267,0.498109581,0.352823667,0.000014542,0.000034092,-0.907377729,0.540003416
0.720000,-0.000420000,-0.056584518,0.034888271,-0.310851000,-0.056584518,0.047324260,4.834952932e-05,5.794114399e-05,1,1,0.300708877,-0.000000444,0.000001193,-0.801069267,0.498109581,0.355292894,0.000015333,0.000035696,-0.912382736,0.541688202
0.722500,-0.000420000,-0.056584518,0.034888271,-0.310851000,-0.056584518,0.047916398,4.834952932e-05,5.915079218e-05,1,1,0.300708877,-0.000000444,0.000001193,-0.801069267,0.498109581,0.357797139,0.000016146,0.000037325,-0.917457464,0.543380679
0.725000,-0.000420000,-0.056584518,0.034888271,-0.310851000,-0.056584518,0.048519064,4.834952932e-05,6.033611891e-05,1,1,0.300708877,-0.000000444,0.000001193,-0.801069267,0.498109581,0.360334807,0.000016981,0.000038976,-0.922598633,0.545079147
0.727500,-0.000420000,-0.056584518,0.034888271,-0.310851000,-0.056584518,0.049131978,4.834952932e-05,6.149650031e-05,1,1,0.300708877,-0.000000444,0.000001193,-0.801069267,0.498109581,0.362904305,0.000017838,0.000040649,-0.927802960,0.546781941
0.730000,-0.000420000,-0.056584518,0.034888271,-0.310851000,-0.056584518,0.049754856,4.834952932e-05,6.263133335e-05,1,1,0.300708877,-0.000000444,0.000001193,-0.801069267,0.498109581,0.365504037,0.000018716,0.000042343,-0.933067164,0.548487433
0.732500,-0.000420000,-0.056584518,0.034888271,-0.310851000,-0.056584518,0.050387407,4.834952932e-05,6.374003573e-05,1,1,0.300708877,-0.000000444,0.000001193,-0.801069267,0.498109581,0.368132408,0.000019617,0.000044057,-0.938387964,0.550194039
0.735000,-0.000420000,-0.056584518,0.034888271,-0.310851000,-0.056584518,0.051029333,4.834952932e-05,6.482204610e-05,1,1,0.300708877,-0.000000444,0.000001193,-0.801069267,0.498109581,0.370787824,0.000020538,0.000045791,-0.943762088,0.551900212
0.737500,-0.000420000,-0.056584518,0.034888271,-0.310851000,-0.056584518,0.051680334,4.834952932e-05,6.587682379e-05,1,1,0.300708877,-0.000000444,0.000001193,-0.801069267,0.498109581,0.373468692,0.000021482,0.000047543,-0.949186269,0.553604449
0.740000,-0.000420000,-0.056584518,0.034888271,-0.310851000,-0.056584518,0.052340099,4.834952932e-05,6.690384901e-05,1,1,0.300708877,-0.000000444,0.000001193,-0.801069267,0.498109581,0.376173423,0.000022446,0.000049312,-0.954657248,0.555305291
0.742500,-0.000420000,-0.056584518,0.034888271,-0.310851000,-0.056584518,0.053008316,4.834952932e-05,6.790262249e-05,1,1,0.300708877,-0.000000444,0.000001193,-0.801069267,0.498109581,0.378900433,0.000023432,0.000051098,-0.960171780,0.557001324
0.745000,-0.000420000,-0.056584518,0.034888271,-0.310851000,-0.056584518,0.053684665,4.834952932e-05,6.887266539e-05,1,1,0.300708877,-0.000000444,0.000001193,-0.801069267,0.498109581,0.381648142,0.000024439,0.000052899,-0.965726631,0.558691177
0.747500,-0.000420000,-0.056584518,0.034888271,-0.310851000,-0.056584518,0.054368822,4.834952932e-05,6.981351918e-05,1,1,0.300708877,-0.000000444,0.000001193,-0.801069267,0.498109581,0.384414974,0.000025467,0.000054715,-0.971318582,0.560373528
0.750000,-0.000420000,-0.056584518,0.034888271,-0.310851000,-0.056584518,0.055060456,4.834952932e-05,7.072474531e-05,1,1,0.300708877,-0.000000444,0.000001193,-0.801069267,0.498109581,0.387199364,0.000026515,0.000056544,-0.976944429,0.562047098
0.752500,-0.000420000,-0.056584518,0.034888271,-0.310851000,-0.056584518,0.055759233,4.834952932e-05,7.160592491e-05,1,1,0.300708877,-0.000000444,0.000001193,-0.801069267,0.498109581,0.389999751,0.000027584,0.000058386,-0.982600988,0.563710657
0.755000,-0.000420000,-0.056584518,0.034888271,-0.310851000,-0.056584518,0.056464812,4.834952932e-05,7.245665884e-05,1,1,0.300708877,-0.000000444,0.000001193,-0.801069267,0.498109581,0.392814583,0.000028673,0.000060240,-0.988285094,0.565363022
0.757500,-0.000420000,-0.056584518,0.034888271,-0.310851000,-0.056584518,0.057176848,4.834952932e-05,7.327656698e-05,1,1,0.300708877,-0.000000444,0.000001193,-0.801069267,0.498109581,0.395642316,0.000029783,0.000062105,-0.993993601,0.567003054
0.760000,-0.000420000,-0.056584518,0.034888271,-0.310851000,-0.056584518,0.057894991,4.834952932e-05,7.406528863e-05,1,1,0.300708877,-0.000000444,0.000001193,-0.801069267,0.498109581,0.398481418,0.000030912,0.000063979,-0.999723386,0.568629664
0.762500,-0.000420000,-0.056584518,0.034888271,-0.310851000,-0.056584518,0.058618888,4.834952932e-05,7.482248145e-05,1,1,0.300708877,-0.000000444,0.000001193,-0.801069267,0.498109581,0.401330364,0.000032060,0.000065863,-1.005471349,0.570241808
0.765000,-0.000420000,-0.056584518,0.034888271,-0.310851000,-0.056584518,0.059348178,4.834952932e-05,7.554782201e-05,1,1,0.300708877,-0.000000444,0.000001193,-0.801069267,0.498109581,0.404187643,0.000033228,0.000067755,-1.011234415,0.571838489
0.767500,-0.000420000,-0.056584518,0.034888271,-0.310851000,-0.056584518,0.060082499,4.834952932e-05,7.624100499e-05,1,1,0.300708877,-0.000000444,0.000001193,-0.801069267,0.498109581,0.407051751,0.000034414,0.000069655,-1.017009534,0.573418756
0.770000,-0.000420000,-0.056584518,0.034888271,-0.310851000,-0.056584518,0.060821483,4.834952932e-05,7.690174309e-05,1,1,0.300708877,-0.000000444,0.000001193,-0.801069267,0.498109581,0.409921200,0.000035619,0.000071561,-1.022793681,0.574981704
0.772500,-0.000420000,-0.056584518,0.034888271,-0.310851000,-0.056584518,0.061564759,4.834952932e-05,7.752976696e-05,1,1,0.300708877,-0.000000444,0.000001193,-0.801069267,0.498109581,0.412794511,0.000036841,0.000073472,-1.028583860,0.576526470
0.775000,-0.000420000,-0.056584518,0.034888271,-0.310851000,-0.056584518,0.062311953,4.834952932e-05,7.812482476e-05,1,1,0.300708877,-0.000000444,0.000001193,-0.801069267,0.498109581,0.415670219,0.000038081,0.000075388,-1.034377102,0.578052241
0.777500,-0.000420000,-0.056584518,0.034888271,-0.310851000,-0.056584518,0.063062684,4.834952932e-05,7.868668208e-05,1,1,0.300708877,-0.000000444,0.000001193,-0.801069267,0.498109581,0.418546873,0.000039339,0.000077308,-1.040170467,0.579558243
0.780000,-0.000420000,-0.056584518,0.034888271,-0.310851000,-0.056584518,0.063816570,4.834952932e-05,7.921512164e-05,1,1,0.300708877,-0.000000444,0.000001193,-0.801069267,0.498109581,0.421423032,0.000040613,0.000079231,-1.045961045,0.581043746
0.782500,-0.000420000,-0.056584518,0.034888271,-0.310851000,-0.056584518,0.064573227,4.834952932e-05,7.970994346e-05,1,1,0.300708877,-0.000000444,0.000001193,-0.801069267,0.498109581,0.424297273,0.000041903,0.000081156,-1.051745956,0.582508065
0.785000,-0.000420000,-0.056584518,0.034888271,-0.310851000,-0.056584518,0.065332266,4.834952932e-05,8.017096403e-05,1,1,0.300708877,-0.000000444,0.000001193,-0.801069267,0.498109581,0.427168184,0.000043209,0.000083082,-1.057522349,0.583950552
0.787500,-0.000420000,-0.056584518,0.034888271,-0.310851000,-0.056584518,0.066093295,4.834952932e-05,8.059801683e-05,1,1,0.300708877,-0.000000444,0.000001193,-0.801069267,0.498109581,0.430034368,0.000044530,0.000085008,-1.063287407,0.585370604
0.790000,-0.000420000,-0.056584518,0.034888271,-0.310851000,-0.056584518,0.066855919,4.834952932e-05,8.099095167e-05,1,1,0.300708877,-0.000000444,0.000001193,-0.801069267,0.498109581,0.432894443,0.000045866,0.000086935,-1.069038343,0.586767653
0.792500,-0.000420000,-0.056584518,0.034888271,-0.310851000,-0.056584518,0.067619742,4.834952932e-05,8.134963487e-05,1,1,0.300708877,-0.000000444,0.000001193,-0.801069267,0.498109581,0.435747041,0.000047215,0.000088860,-1.074772403,0.588141174
0.795000,-0.000420000,-0.056584518,0.034888271,-0.310851000,-0.056584518,0.068384366,4.834952932e-05,8.167394907e-05,1,1,0.300708877,-0.000000444,0.000001193,-0.801069267,0.498109581,0.438590811,0.000048578,0.000090782,-1.080486863,0.589490677
0.797500,-0.000420000,-0.056584518,0.034888271,-0.310851000,-0.056584518,0.069149388,4.834952932e-05,8.196379288e-05,1,1,0.300708877,-0.000000444,0.000001193,-0.801069267,0.498109581,0.441424415,0.000049954,0.000092702,-1.086179037,0.590815708
0.800000,-0.000420000,-0.056584518,0.034888271,-0.310851000,-0.056584518,0.069914407,4.834952932e-05,8.221908120e-05,1,1,0.300708877,-0.000000444,0.000001193,-0.801069267,0.498109581,0.444246531,0.000051342,0.000094618,-1.091846266,0.592115851
0.802500,-0.000420000,-0.056584518,0.034888271,-0.310851000,-0.056584518,0.070679016,4.834952932e-05,8.243974472e-05,1,1,0.300708877,-0.000000444,0.000001193,-0.801069267,0.498109581,0.447055854,0.000052742,0.000096530,-1.097485929,0.593390723
0.805000,-0.000420000,-0.056584518,0.034888271,-0.310851000,-0.056584518,0.071442811,4.834952932e-05,8.262573006e-05,1,1,0.300708877,-0.000000444,0.000001193,-0.801069267,0.498109581,0.449851091,0.000054152,0.000098437,-1.103095437,0.594639975
0.807500,-0.000420000,-0.056584518,0.034888271,-0.310851000,-0.056584518,0.072205383,4.834952932e-05,8.277699962e-05,1,1,0.300708877,-0.000000444,0.000001193,-0.801069267,0.498109581,0.452630970,0.000055572,0.000100337,-1.108672235,0.595863289
0.810000,-0.000420000,-0.056584518,0.034888271,-0.310851000,-0.056584518,0.072966325,4.834952932e-05,8.289353150e-05,1,1,0.300708877,-0.000000444,0.000001193,-0.801069267,0.498109581,0.455394231,0.000057002,0.000102230,-1.114213802,0.597060380
0.812500,-0.000420000,-0.056584518,0.034888271,-0.310851000,-0.056584518,0.073725226,4.834952932e-05,8.297531958e-05,1,1,0.300708877,-0.000000444,0.000001193,-0.801069267,0.498109581,0.458139631,0.000058441,0.000104116,-1.119717651,0.598230993
0.815000,-0.000420000,-0.056584518,0.034888271,-0.310851000,-0.056584518,0.074481678,4.834952932e-05,8.302237317e-05,1,1,0.300708877,-0.000000444,0.000001193,-0.801069267,0.498109581,0.460865944,0.000059887,0.000105993,-1.125181329,0.599374901
0.817500,-0.000420000,-0.056584518,0.034888271,-0.310851000,-0.056584518,0.075235270,4.834952932e-05,8.645284130e-05,1,1,0.300708877,-0.000000444,0.000001193,-0.801069267,0.498109581,0.463708826,0.000061408,0.000107947,-1.130738275,0.599614270
0.820000,-0.000420000,-0.056584518,0.034888271,-0.310851000,-0.056584518,0.075985591,4.834952932e-05,8.776370910e-05,1,1,0.300708877,-0.000000444,0.000001193,-0.801069267,0.498109581,0.466579230,0.000062962,0.000109922,-1.136298129,0.599631708
0.822500,-0.000420000,-0.056584518,0.034888271,-0.310851000,-0.056584518,0.076732232,4.834952932e-05,8.783323268e-05,1,1,0.300708877,-0.000000444,0.000001193,-0.801069267,0.498109581,0.469430140,0.000064525,0.000111888,-1.141812186,0.599640107
0.825000,-0.000420000,-0.056584518,0.034888271,-0.310851000,-0.056584518,0.077474783,4.834952932e-05,8.773172931e-05,1,1,0.300708877,-0.000000444,0.000001193,-0.801069267,0.498109581,0.472252196,0.000066091,0.000113839,-1.147269750,0.599647160
0.827500,-0.000420000,-0.056584518,0.034888271,-0.310851000,-0.056584518,0.078212833,4.834952932e-05,8.757895388e-05,1,1,0.300708877,-0.000000444,0.000001193,-0.801069267,0.498109581,0.475043434,0.000067661,0.000115775,-1.152667790,0.599653704
0.830000,-0.000420000,-0.056584518,0.034888271,-0.310851000,-0.056584518,0.078945976,4.834952932e-05,8.738816424e-05,1,1,0.300708877,-0.000000444,0.000001193,-0.801069267,0.498109581,0.477802700,0.000069232,0.000117693,-1.158004150,0.599659839
0.832500,-0.000420000,-0.056584518,0.034888271,-0.310851000,-0.056584518,0.079673802,4.834952932e-05,8.716100876e-05,1,1,0.300708877,-0.000000444,0.000001193,-0.801069267,0.498109581,0.480528943,0.000070803,0.000119595,-1.163276796,0.599665583
0.835000,-0.000420000,-0.056584518,0.034888271,-0.310851000,-0.056584518,0.080395906,4.834952932e-05,8.689788831e-05,1,1,0.300708877,-0.000000444,0.000001193,-0.801069267,0.498109581,0.483221137,0.000072374,0.000121478,-1.168483740,0.599670949
0.837500,-0.000420000,-0.056584518,0.034888271,-0.310851000,-0.056584518,0.081111883,4.834952932e-05,8.659907833e-05,1,1,0.300708877,-0.000000444,0.000001193,-0.801069267,0.498109581,0.485878277,0.000073944,0.000123343,-1.173623027,0.599675943
0.840000,-0.000420000,-0.056584518,0.034888271,-0.310851000,-0.056584518,0.081821330,4.834952932e-05,8.626484958e-05,1,1,0.300708877,-0.000000444,0.000001193,-0.801069267,0.498109581,0.488499373,0.000075511,0.000125188,-1.178692736,0.599680577
0.842500,-0.000420000,-0.056584518,0.034888271,-0.310851000,-0.056584518,0.082523845,4.834952932e-05,8.589548129e-05,1,1,0.300708877,-0.000000444,0.000001193,-0.801069267,0.498109581,0.491083453,0.000077074,0.000127013,-1.183690979,0.599684858
0.845000,-0.000420000,-0.056584518,0.034888271,-0.310851000,-0.056584518,0.083219030,4.834952932e-05,8.549126254e-05,1,1,0.300708877,-0.000000444,0.000001193,-0.801069267,0.498109581,0.493629563,0.000078633,0.000128818,-1.188615901,0.599688795
0.847500,-0.000420000,-0.056584518,0.034888271,-0.310851000,-0.056584518,0.083906487,4.834952932e-05,8.505249242e-05,1,1,0.300708877,-0.000000444,0.000001193,-0.801069267,0.498109581,0.496136764,0.000080186,0.000130602,-1.193465679,0.599692397
0.850000,-0.000420000,-0.056584518,0.034888271,-0.310851000,-0.056584518,0.084585824,4.834952932e-05,8.457948027e-05,1,1,0.300708877,-0.000000444,0.000001193,-0.801069267,0.498109581,0.498604135,0.000081733,0.000132363,-1.198238523,0.599695671
0.852500,-0.000420000,-0.056584518,0.034888271,-0.310851000,-0.056584518,0.085256649,4.834952932e-05,8.407254561e-05,1,1,0.300708877,-0.000000444,0.000001193,-0.801069267,0.498109581,0.501030770,0.000083271,0.000134102,-1.202932675,0.599698626
0.855000,-0.000420000,-0.056584518,0.034888271,-0.310851000,-0.056584518,0.085918574,4.834952932e-05,8.353201841e-05,1,1,0.300708877,-0.000000444,0.000001193,-0.801069267,0.498109581,0.503415783,0.000084801,0.000135818,-1.207546408,0.599701268
0.857500,-0.000420000,-0.056584518,0.034888271,-0.310851000,-0.056584518,0.086571214,4.834952932e-05,8.295823895e-05,1,1,0.300708877,-0.000000444,0.000001193,-0.801069267,0.498109581,0.505758300,0.000086320,0.000137510,-1.212078026,0.599703606
0.860000,-0.000420000,-0.056584518,0.034888271,-0.310851000,-0.056584518,0.087214189,4.834952932e-05,8.235155804e-05,1,1,0.300708877,-0.000000444,0.000001193,-0.801069267,0.498109581,0.508057465,0.000087828,0.000139178,-1.216525866,0.599705646
0.862500,-0.000420000,-0.056584518,0.034888271,-0.310851000,-0.056584518,0.087847122,4.834952932e-05,8.171233692e-05,1,1,0.300708877,-0.000000444,0.000001193,-0.801069267,0.498109581,0.510312440,0.000089324,0.000140821,-1.220888296,0.599707396
0.865000,-0.000420000,-0.056584518,0.034888271,-0.310851000,-0.056584518,0.088469639,4.834952932e-05,8.104094749e-05,1,1,0.300708877,-0.000000444,0.000001193,-0.801069267,0.498109581,0.512522401,0.000090807,0.000142438,-1.225163715,0.599708861
0.867500,-0.000420000,-0.056584518,0.034888271,-0.310851000,-0.056584518,0.089081371,4.834952932e-05,8.033777217e-05,1,1,0.300708877,-0.000000444,0.000001193,-0.801069267,0.498109581,0.514686539,0.000092275,0.000144029,-1.229350552,0.599710049
0.870000,-0.000420000,-0.056584518,0.034888271,-0.310851000,-0.056584518,0.089681954,4.834952932e-05,7.960320402e-05,1,1,0.300708877,-0.000000444,0.000001193,-0.801069267,0.498109581,0.516804064,0.000093727,0.000145593,-1.233447268,0.599710965
0.872500,-0.000420000,-0.056584518,0.034888271,-0.310851000,-0.056584518,0.090271030,4.834952932e-05,7.883764689e-05,1,1,0.300708877,-0.000000444,0.000001193,-0.801069267,0.498109581,0.518874200,0.000095162,0.000147130,-1.237452354,0.599711615
0.875000,-0.000420000,-0.056584518,0.034888271,-0.310851000,-0.056584518,0.090848242,4.834952932e-05,7.804151504e-05,1,1,0.300708877,-0.000000444,0.000001193,-0.801069267,0.498109581,0.520896187,0.000096579,0.000148638,-1.241364334,0.599712006
0.877500,-0.000420000,-0.056584518,0.034888271,-0.310851000,-0.056584518,0.091413242,4.834952932e-05,7.721523360e-05,1,1,0.300708877,-0.000000444,0.000001193,-0.801069267,0.498109581,0.522869282,0.000097977,0.000150118,-1.245181760,0.599712142
0.880000,-0.000420000,-0.056584518,0.034888271,-0.310851000,-0.056584518,0.091965686,4.834952932e-05,7.635923838e-05,1,1,0.300708877,-0.000000444,0.000001193,-0.801069267,0.498109581,0.524792755,0.000099354,0.000151569,-1.248903215,0.599712029
0.882500,-0.000420000,-0.056584518,0.034888271,-0.310851000,-0.056584518,0.092505235,4.834952932e-05,7.547397565e-05,1,1,0.300708877,-0.000000444,0.000001193,-0.801069267,0.498109581,0.526665895,0.000100710,0.000152991,-1.252527314,0.599711672
0.885000,-0.000420000,-0.056584518,0.034888271,-0.310851000,-0.056584518,0.093031557,4.834952932e-05,7.455990253e-05,1,1,0.300708877,-0.000000444,0.000001193,-0.801069267,0.498109581,0.528488004,0.000102044,0.000154382,-1.256052703,0.599711076
0.887500,-0.000420000,-0.056584518,0.034888271,-0.310851000,-0.056584518,0.093544326,4.834952932e-05,7.361748666e-05,1,1,0.300708877,-0.000000444,0.000001193,-0.801069267,0.498109581,0.530258403,0.000103353,0.000155742,-1.259478055,0.599710245
0.890000,-0.000420000,-0.056584518,0.034888271,-0.310851000,-0.056584518,0.094043221,4.834952932e-05,7.264720621e-05,1,1,0.300708877,-0.000000444,0.000001193,-0.801069267,0.498109581,0.531976426,0.000104638,0.000157070,-1.262802079,0.599709184
0.892500,-0.000420000,-0.056584518,0.034888271,-0.310851000,-0.056584518,0.094527929,4.834952932e-05,7.164954997e-05,1,1,0.300708877,-0.000000444,0.000001193,-0.801069267,0.498109581,0.533641424,0.000105896,0.000158367,-1.266023510,0.599707896
0.895000,-0.000420000,-0.056584518,0.034888271,-0.310851000,-0.056584518,0.094998142,4.834952932e-05,7.062501713e-05,1,1,0.300708877,-0.000000444,0.000001193,-0.801069267,0.498109581,0.535252762,0.000107127,0.000159631,-1.269141116,0.599706386
0.897500,-0.000420000,-0.056584518,0.034888271,-0.310851000,-0.056584518,0.095453562,4.834952932e-05,6.957411737e-05,1,1,0.300708877,-0.000000444,0.000001193,-0.801069267,0.498109581,0.536809824,0.000108330,0.000160863,-1.272153695,0.599704657
0.900000,-0.000420000,-0.056584518,0.034888271,-0.310851000,-0.056584518,0.095893894,4.834952932e-05,6.849737071e-05,1,1,0.300708877,-0.000000444,0.000001193,-0.801069267,0.498109581,0.538312008,0.000109503,0.000162060,-1.275060076,0.599702713
0.902500,-0.000420000,-0.056584518,0.034888271,-0.310851000,-0.056584518,0.096318853,4.834952932e-05,6.739530744e-05,1,1,0.300708877,-0.000000444,0.000001193,-0.801069267,0.498109581,0.539758727,0.000110646,0.000163224,-1.277859119,0.599700557
0.905000,-0.000420000,-0.056584518,0.034888271,-0.310851000,-0.056584518,0.096728162,4.834952932e-05,6.626846810e-05,1,1,0.300708877,-0.000000444,0.000001193,-0.801069267,0.498109581,0.541149410,0.000111757,0.000164353,-1.280549715,0.599698192
0.907500,-0.000420000,-0.056584518,0.034888271,-0.310851000,-0.056584518,0.097121550,4.834952932e-05,6.511740341e-05,1,1,0.300708877,-0.000000444,0.000001193,-0.801069267,0.498109581,0.542483505,0.000112836,0.000165446,-1.283130785,0.599695621
0.910000,-0.000420000,-0.056584518,0.034888271,-0.310851000,-0.056584518,0.097498754,4.834952932e-05,6.394267413e-05,1,1,0.300708877,-0.000000444,0.000001193,-0.801069267,0.498109581,0.543760473,0.000113880,0.000166504,-1.285601282,0.599692846
0.912500,-0.000420000,-0.056584518,0.034888271,-0.310851000,-0.056584518,0.097859520,4.834952932e-05,6.274485109e-05,1,1,0.300708877,-0.000000444,0.000001193,-0.801069267,0.498109581,0.544979790,0.000114890,0.000167526,-1.287960191,0.599689870
0.915000,-0.000420000,-0.056584518,0.034888271,-0.310851000,-0.056584518,0.098203602,4.834952932e-05,6.152451503e-05,1,1,0.300708877,-0.000000444,0.000001193,-0.801069267,0.498109581,0.546140952,0.000115864,0.000168512,-1.290206526,0.599686694
0.917500,-0.000420000,-0.056584518,0.034888271,-0.310851000,-0.056584518,0.098530763,4.834952932e-05,9.970442116e-05,1,1,0.300708877,-0.000000444,0.000001193,-0.801069267,0.498109581,0.547122327,0.000116651,0.000169292,-1.292108421,0.599521508
0.920000,-0.000420000,-0.056584518,0.034888271,-0.310851000,-0.056584518,0.098840773,4.834952932e-05,6.830131206e-05,1,1,0.300708877,-0.000000444,0.000001193,-0.801069267,0.498109581,0.548272106,0.000117626,0.000170267,-1.294336090,0.599488921
0.922500,-0.000420000,-0.056584518,0.034888271,-0.310851000,-0.056584518,0.099133411,4.834952932e-05,8.972769186e-05,1,1,0.300708877,-0.000000444,0.000001193,-0.801069267,0.498109581,0.549106244,0.000118320,0.000170958,-1.296007525,0.600000000
0.925000,-0.000420000,-0.056584518,0.034888271,-0.310851000,-0.056584518,0.099408468,4.834952932e-05,9.089724499e-05,1,1,0.300708877,-0.000000444,0.000001193,-0.801069267,0.498109581,0.550052471,0.000119091,0.000171715,-1.297801177,0.599825457
0.927500,-0.000420000,-0.056584518,0.034888271,-0.310851000,-0.056584518,0.099665740,4.834952932e-05,9.450265642e-05,1,1,0.300708877,-0.000000444,0.000001193,-0.801069267,0.498109581,0.550931545,0.000119821,0.000172431,-1.299488722,0.599518735
0.930000,-0.000420000,-0.056584518,0.034888271,-0.310851000,-0.056584518,0.099905035,4.834952932e-05,8.563977807e-05,1,1,0.300708877,-0.000000444,0.000001193,-0.801069267,0.498109581,0.551693583,0.000120473,0.000173076,-1.301016646,0.600000000
0.932500,-0.000420000,-0.056584518,0.034888271,-0.310851000,-0.056584518,0.100126170,4.834952932e-05,8.137860930e-05,1,1,0.300708877,-0.000000444,0.000001193,-0.801069267,0.498109581,0.552481523,0.000121144,0.000173737,-1.302496518,0.599787379
0.935000,-0.000420000,-0.056584518,0.034888271,-0.310851000,-0.056584518,0.100328970,4.834952932e-05,8.316329264e-05,1,1,0.300708877,-0.000000444,0.000001193,-0.801069267,0.498109581,0.553181141,0.000121755,0.000174344,-1.303835388,0.599508347
0.937500,-0.000420000,-0.056584518,0.034888271,-0.310851000,-0.056584518,0.100513271,4.834952932e-05,7.263199810e-05,1,1,0.300708877,-0.000000444,0.000001193,-0.801069267,0.498109581,0.553766342,0.000122290,0.000174881,-1.305012766,0.600000000
0.940000,-0.000420000,-0.056584518,0.034888271,-0.310851000,-0.056584518,0.100678920,4.834952932e-05,7.009868223e-05,1,1,0.300708877,-0.000000444,0.000001193,-0.801069267,0.498109581,0.554363580,0.000122832,0.000175425,-1.306128882,0.599740752
0.942500,-0.000420000,-0.056584518,0.034888271,-0.310851000,-0.056584518,0.100825772,4.834952932e-05,7.115953575e-05,1,1,0.300708877,-0.000000444,0.000001193,-0.801069267,0.498109581,0.554874918,0.000123316,0.000175917,-1.307104864,0.599497000
0.945000,-0.000420000,-0.056584518,0.034888271,-0.310851000,-0.056584518,0.100953693,4.834952932e-05,6.106949381e-05,1,1,0.300708877,-0.000000444,0.000001193,-0.801069267,0.498109581,0.555279219,0.000123725,0.000176342,-1.307924209,0.599921818
0.947500,-0.000420000,-0.056584518,0.034888271,-0.310851000,-0.056584518,0.101062559,4.834952932e-05,9.271462081e-05,1,1,0.300708877,-0.000000444,0.000001193,-0.801069267,0.498109581,0.555510712,0.000123949,0.000176572,-1.308409770,0.600000000
0.950000,-0.000420000,-0.056584518,0.034888271,-0.310851000,-0.056584518,0.101152257,4.834952932e-05,6.103666471e-05,1,1,0.300708877,-0.000000444,0.000001193,-0.801069267,0.498109581,0.555966293,0.000124393,0.000177026,-1.309228242,0.599704555
0.952500,-0.000420000,-0.056584518,0.034888271,-0.310851000,-0.056584518,0.101222684,4.834952932e-05,7.342924592e-05,1,1,0.300708877,-0.000000444,0.000001193,-0.801069267,0.498109581,0.556130925,0.000124571,0.000177215,-1.309570306,0.599902518
0.955000,-0.000420000,-0.056584518,0.034888271,-0.310851000,-0.056584518,0.101273748,4.834952932e-05,7.295238627e-05,1,1,0.300708877,-0.000000444,0.000001193,-0.801069267,0.498109581,0.556279945,0.000124738,0.000177393,-1.309888866,0.600000000
0.957500,-0.000420000,-0.056584518,0.034888271,-0.310851000,-0.056584518,0.101305367,4.834952932e-05,6.973679640e-05,1,1,0.300708877,-0.000000444,0.000001193,-0.801069267,0.498109581,0.556465576,0.000124930,0.000177593,-1.310188697,0.599496710
0.960000,-0.000420000,-0.056584518,0.034888271,-0.310851000,-0.056584518,0.101317471,4.834952932e-05,8.139937438e-05,1,1,0.300708877,-0.000000444,0.000001193,-0.801069267,0.498109581,0.556465576,0.000124930,0.000177593,-1.310188697,0.599496710
0.962500,-0.000420000,-0.056584518,0.034888271,-0.310851000,-0.056584518,0.101310000,4.834952932e-05,7.418346027e-05,1,1,0.300708877,-0.000000444,0.000001193,-0.801069267,0.498109581,0.556465576,0.000124930,0.000177593,-1.310188697,0.599496710
0.965000,-0.000420000,-0.056584518,0.034888271,-0.310851000,-0.056584518,0.101282904,4.834952932e-05,4.866642989e-05,1,1,0.300708877,-0.000000444,0.000001193,-0.801069267,0.498109581,0.556465576,0.000124930,0.000177593,-1.310188697,0.599496710
0.967500,-0.000420000,-0.056584518,0.034888271,-0.310851000,-0.056584518,0.101236147,4.834952932e-05,2.030003578e-05,1,1,0.300708877,-0.000000444,0.000001193,-0.801069267,0.498109581,0.556465576,0.000124930,0.000177593,-1.310188697,0.599496710
0.970000,-0.000420000,-0.056584518,0.034888271,-0.310851000,-0.056584518,0.101169701,4.834952932e-05,7.179010716e-05,1,1,0.300708877,-0.000000444,0.000001193,-0.801069267,0.498109581,0.556465576,0.000124930,0.000177593,-1.310188697,0.599496710
0.972500,-0.000420000,-0.056584518,0.034888271,-0.310851000,-0.056584518,0.101083552,4.834952932e-05,4.598021323e-05,1,1,0.300708877,-0.000000444,0.000001193,-0.801069267,0.498109581,0.556123873,0.000124760,0.000177478,-1.309487512,0.599475256
0.975000,-0.000420000,-0.056584518,0.034888271,-0.310851000,-0.056584518,0.100977696,4.834952932e-05,4.339425097e-05,1,1,0.300708877,-0.000000444,0.000001193,-0.801069267,0.498109581,0.555778897,0.000124585,0.000177360,-1.308801620,0.599454748
0.977500,-0.000420000,-0.056584518,0.034888271,-0.310851000,-0.056584518,0.100852139,4.834952932e-05,5.045729787e-05,1,1,0.300708877,-0.000000444,0.000001193,-0.801069267,0.498109581,0.555396947,0.000124383,0.000177219,-1.308049678,0.599418766
0.980000,-0.000420000,-0.056584518,0.034888271,-0.310851000,-0.056584518,0.100706901,4.834952932e-05,6.149250140e-05,1,1,0.300708877,-0.000000444,0.000001193,-0.801069267,0.498109581,0.554963982,0.000124144,0.000177046,-1.307198142,0.599360563
0.982500,-0.000420000,-0.056584518,0.034888271,-0.310851000,-0.056584518,0.100542012,4.834952932e-05,7.415123568e-05,1,1,0.300708877,-0.000000444,0.000001193,-0.801069267,0.498109581,0.554474147,0.000123865,0.000176837,-1.306233167,0.599277387
0.985000,-0.000420000,-0.056584518,0.034888271,-0.310851000,-0.056584518,0.100357513,4.834952932e-05,8.746783294e-05,1,1,0.300708877,-0.000000444,0.000001193,-0.801069267,0.498109581,0.553924996,0.000123544,0.000176591,-1.305149042,0.599168136
0.987500,-0.000420000,-0.056584518,0.034888271,-0.310851000,-0.056584518,0.100153459,4.834952932e-05,2.307380296e-05,1,1,0.300708877,-0.000000444,0.000001193,-0.801069267,0.498109581,0.553051497,0.000123050,0.000176228,-1.303436664,0.599047533
0.990000,-0.000420000,-0.056584518,0.034888271,-0.310851000,-0.056584518,0.099929913,4.834952932e-05,8.241817580e-05,1,1,0.300708877,-0.000000444,0.000001193,-0.801069267,0.498109581,0.552524305,0.000122741,0.000175988,-1.302396793,0.598946717
0.992500,-0.000420000,-0.056584518,0.034888271,-0.310851000,-0.056584518,0.099686953,4.834952932e-05,2.879018761e-05,1,1,0.300708877,-0.000000444,0.000001193,-0.801069267,0.498109581,0.551562647,0.000122181,0.000175560,-1.300506003,0.598785541
0.995000,-0.000420000,-0.056584518,0.034888271,-0.310851000,-0.056584518,0.099424666,4.834952932e-05,2.310886497e-05,1,1,0.300708877,-0.000000444,0.000001193,-0.801069267,0.498109581,0.550689534,0.000121678,0.000175176,-1.298793438,0.598661634
0.997500,-0.000420000,-0.056584518,0.034888271,-0.310851000,-0.056584518,0.099143153,4.834952932e-05,2.539118316e-05,1,1,0.300708877,-0.000000444,0.000001193,-0.801069267,0.498109581,0.549781344,0.000121148,0.000174763,-1.297009507,0.598520664
1.000000,-0.000420000,-0.056584518,0.034888271,-0.310851000,-0.056584518,0.098842524,4.834952932e-05,2.902922106e-05,1,1,0.300708877,-0.000000444,0.000001193,-0.801069267,0.498109581,0.548816967,0.000120576,0.000174310,-1.295111930,0.598353507
1.002500,-0.000420000,-0.056584518,0.034888271,-0.310851000,-0.056584518,0.098364212,4.834952932e-05,5.971821806e-05,1,1,0.300708877,-0.000000444,0.000001193,-0.801069267,0.498109581,0.547382381,0.000119684,0.000173567,-1.292264736,0.597978186
1.005000,-0.000420000,-0.056584518,0.034888271,-0.310851000,-0.056584518,0.097869516,4.834952932e-05,6.787235745e-05,1,1,0.300708877,-0.000000444,0.000001193,-0.801069267,0.498109581,0.545821785,0.000118703,0.000172739,-1.289164470,0.597547388
1.007500,-0.000420000,-0.056584518,0.034888271,-0.310851000,-0.056584518,0.097358703,4.834952932e-05,7.213475210e-05,1,1,0.300708877,-0.000000444,0.000001193,-0.801069267,0.498109581,0.544194563,0.000117674,0.000171861,-1.285930484,0.597087355
1.010000,-0.000420000,-0.056584518,0.034888271,-0.310851000,-0.056584518,0.096832048,4.834952932e-05,7.569639790e-05,1,1,0.300708877,-0.000000444,0.000001193,-0.801069267,0.498109581,0.542511295,0.000116606,0.000170939,-1.282583940,0.596602715
1.012500,-0.000420000,-0.056584518,0.034888271,-0.310851000,-0.056584518,0.096289837,4.834952932e-05,7.909897561e-05,1,1,0.300708877,-0.000000444,0.000001193,-0.801069267,0.498109581,0.540774205,0.000115501,0.000169975,-1.279129294,0.596094386
1.015000,-0.000420000,-0.056584518,0.034888271,-0.310851000,-0.056584518,0.095732362,4.834952932e-05,8.243321403e-05,1,1,0.300708877,-0.000000444,0.000001193,-0.801069267,0.498109581,0.538984100,0.000114359,0.000168967,-1.275568187,0.595562643
