triton-droids/embedded/trajectory_generation/ik_standing_leg_swing_fast.csv
t,pL_tx,pL_ty,pL_tz,pR_tx,pR_ty,pR_tz,ik_err_L,ik_err_R,ik_ok_L,ik_ok_R,left_hip1_joint,left_hip2_joint,left_thigh_joint,left_knee_joint,left_ankle_joint,right_hip1_joint,right_hip2_joint,right_thigh_joint,right_knee_joint,right_ankle_joint
0.000000,-0.000420000,-0.056584518,0.034888271,-0.310851000,-0.056584518,0.034888271,0.000000000e+00,0.000000000e+00,1,1,0.300000000,0.000000000,0.000000000,-0.800000000,0.500000000,0.300000000,0.000000000,0.000000000,-0.800000000,0.500000000
0.002500,-0.000420000,-0.056584518,0.034888468,-0.310851000,-0.056584518,0.034888271,1.965331149e-07,0.000000000e+00,1,1,0.300000000,0.000000000,0.000000000,-0.800000000,0.500000000,0.300000000,0.000000000,0.000000000,-0.800000000,0.500000000
0.005000,-0.000420000,-0.056584518,0.034889640,-0.310851000,-0.056584518,0.034888271,1.368298467e-06,0.000000000e+00,1,1,0.300000000,0.000000000,0.000000000,-0.800000000,0.500000000,0.300000000,0.000000000,0.000000000,-0.800000000,0.500000000
0.007500,-0.000420000,-0.056584518,0.034892527,-0.310851000,-0.056584518,0.034888271,4.256031849e-06,0.000000000e+00,1,1,0.300000000,0.000000000,0.000000000,-0.800000000,0.500000000,0.300000000,0.000000000,0.000000000,-0.800000000,0.500000000
0.010000,-0.000420000,-0.056584518,0.034897789,-0.310851000,-0.056584518,0.034888271,9.517199878e-06,0.000000000e+00,1,1,0.300000000,0.000000000,0.000000000,-0.800000000,0.500000000,0.300000000,0.000000000,0.000000000,-0.800000000,0.500000000
0.012500,-0.000420000,-0.056584518,0.034906031,-0.310851000,-0.056584518,0.034888271,1.775989503e-05,0.000000000e+00,1,1,0.300000000,0.000000000,0.000000000,-0.800000000,0.500000000,0.300000000,0.000000000,0.000000000,-0.800000000,0.500000000
0.015000,-0.000420000,-0.056584518,0.034917827,-0.310851000,-0.056584518,0.034888271,2.955549933e-05,0.000000000e+00,1,1,0.300000000,0.000000000,0.000000000,-0.800000000,0.500000000,0.300000000,0.000000000,0.000000000,-0.800000000,0.500000000
0.017500,-0.000420000,-0.056584518,0.034933716,-0.310851000,-0.056584518,0.034888271,4.544508360e-05,0.000000000e+00,1,1,0.300000000,0.000000000,0.000000000,-0.800000000,0.500000000,0.300000000,0.000000000,0.000000000,-0.800000000,0.500000000
0.020000,-0.000420000,-0.056584518,0.034954214,-0.310851000,-0.056584518,0.034888271,6.594305210e-05,0.000000000e+00,1,1,0.300000000,0.000000000,0.000000000,-0.800000000,0.500000000,0.300000000,0.000000000,0.000000000,-0.800000000,0.500000000
0.022500,-0.000420000,-0.056584518,0.034979811,-0.310851000,-0.056584518,0.034888271,9.153934167e-05,0.000000000e+00,1,1,0.300000000,0.000000000,0.000000000,-0.800000000,0.500000000,0.300000000,0.000000000,0.000000000,-0.800000000,0.500000000
0.025000,-0.000420000,-0.056584518,0.035010972,-0.310851000,-0.056584518,0.034888271,5.268598334e-05,0.000000000e+00,1,1,0.300329409,-0.000000073,0.000000214,-0.800672665,0.500272236,0.300000000,0.000000000,0.000000000,-0.800000000,0.500000000
0.027500,-0.000420000,-0.056584518,0.035048143,-0.310851000,-0.056584518,0.034888271,8.985641285e-05,0.000000000e+00,1,1,0.300329409,-0.000000073,0.000000214,-0.800672665,0.500272236,0.300000000,0.000000000,0.000000000,-0.800000000,0.500000000
0.030000,-0.000420000,-0.056584518,0.035091747,-0.310851000,-0.056584518,0.034888271,5.734108673e-05,0.000000000e+00,1,1,0.300687771,-0.000000155,0.000000445,-0.801403523,0.500567856,0.300000000,0.000000000,0.000000000,-0.800000000,0.500000000
0.032500,-0.000420000,-0.056584518,0.035142184,-0.310851000,-0.056584518,0.034888271,4.636103749e-05,0.000000000e+00,1,1,0.300977056,-0.000000223,0.000000631,-0.801992866,0.500806064,0.300000000,0.000000000,0.000000000,-0.800000000,0.500000000
0.035000,-0.000420000,-0.056584518,0.035199834,-0.310851000,-0.056584518,0.034888271,4.477640203e-05,0.000000000e+00,1,1,0.301255913,-0.000000289,0.000000810,-0.802560918,0.501035482,0.300000000,0.000000000,0.000000000,-0.800000000,0.500000000
0.037500,-0.000420000,-0.056584518,0.035265057,-0.310851000,-0.056584518,0.034888271,4.737578303e-05,0.000000000e+00,1,1,0.301550481,-0.000000359,0.000001000,-0.803161071,0.501277660,0.300000000,0.000000000,0.000000000,-0.800000000,0.500000000
0.040000,-0.000420000,-0.056584518,0.035338187,-0.310851000,-0.056584518,0.034888271,5.191565510e-05,0.000000000e+00,1,1,0.301872862,-0.000000435,0.000001207,-0.803817969,0.501542501,0.300000000,0.000000000,0.000000000,-0.800000000,0.500000000
0.042500,-0.000420000,-0.056584518,0.035419540,-0.310851000,-0.056584518,0.034888271,5.742458780e-05,0.000000000e+00,1,1,0.302229055,-0.000000519,0.000001437,-0.804543801,0.501834860,0.300000000,0.000000000,0.000000000,-0.800000000,0.500000000
0.045000,-0.000420000,-0.056584518,0.035509410,-0.310851000,-0.056584518,0.034888271,6.347645640e-05,0.000000000e+00,1,1,0.302622372,-0.000000612,0.000001690,-0.805345281,0.502157359,0.300000000,0.000000000,0.000000000,-0.800000000,0.500000000
0.047500,-0.000420000,-0.056584518,0.035608066,-0.310851000,-0.056584518,0.034888271,6.987882156e-05,0.000000000e+00,1,1,0.303054900,-0.000000714,0.000001969,-0.806226642,0.502511600,0.300000000,0.000000000,0.000000000,-0.800000000,0.500000000
0.050000,-0.000420000,-0.056584518,0.035715757,-0.310851000,-0.056584518,0.034888271,7.653931155e-05,0.000000000e+00,1,1,0.303528133,-0.000000827,0.000002273,-0.807190910,0.502898684,0.300000000,0.000000000,0.000000000,-0.800000000,0.500000000
0.052500,-0.000420000,-0.056584518,0.035832709,-0.310851000,-0.056584518,0.034888271,8.340833467e-05,0.000000000e+00,1,1,0.304043242,-0.000000950,0.000002605,-0.808240455,0.503319429,0.300000000,0.000000000,0.000000000,-0.800000000,0.500000000
0.055000,-0.000420000,-0.056584518,0.035959125,-0.310851000,-0.056584518,0.034888271,9.045452434e-05,0.000000000e+00,1,1,0.304601189,-0.000001083,0.000002964,-0.809377225,0.503774466,0.300000000,0.000000000,0.000000000,-0.800000000,0.500000000
0.057500,-0.000420000,-0.056584518,0.036095185,-0.310851000,-0.056584518,0.034888271,9.765422161e-05,0.000000000e+00,1,1,0.305202774,-0.000001228,0.000003352,-0.810602840,0.504264279,0.300000000,0.000000000,0.000000000,-0.800000000,0.500000000
0.060000,-0.000420000,-0.056584518,0.036241044,-0.310851000,-0.056584518,0.034888271,4.573441560e-05,0.000000000e+00,1,1,0.306125662,-0.000001455,0.000003944,-0.812481176,0.505013137,0.300000000,0.000000000,0.000000000,-0.800000000,0.500000000
0.062500,-0.000420000,-0.056584518,0.036396837,-0.310851000,-0.056584518,0.034888271,8.709793482e-05,0.000000000e+00,1,1,0.306658114,-0.000001584,0.000004287,-0.813566061,0.505444647,0.300000000,0.000000000,0.000000000,-0.800000000,0.500000000
0.065000,-0.000420000,-0.056584518,0.036562672,-0.310851000,-0.056584518,0.034888271,4.767512834e-05,0.000000000e+00,1,1,0.307612678,-0.000001819,0.000004901,-0.815509312,0.506215814,0.300000000,0.000000000,0.000000000,-0.800000000,0.500000000
0.067500,-0.000420000,-0.056584518,0.036738636,-0.310851000,-0.056584518,0.034888271,9.669894848e-05,0.000000000e+00,1,1,0.308201401,-0.000001962,0.000005281,-0.816708925,0.506690817,0.300000000,0.000000000,0.000000000,-0.800000000,0.500000000
0.070000,-0.000420000,-0.056584518,0.036924790,-0.310851000,-0.056584518,0.034888271,5.338196163e-05,0.000000000e+00,1,1,0.309265020,-0.000002227,0.000005964,-0.818874062,0.507545936,0.300000000,0.000000000,0.000000000,-0.800000000,0.500000000
0.072500,-0.000420000,-0.056584518,0.037121172,-0.310851000,-0.056584518,0.034888271,4.746890125e-05,0.000000000e+00,1,1,0.310200852,-0.000002461,0.000006566,-0.820778855,0.508295461,0.300000000,0.000000000,0.000000000,-0.800000000,0.500000000
0.075000,-0.000420000,-0.056584518,0.037327796,-0.310851000,-0.056584518,0.034888271,4.839498054e-05,0.000000000e+00,1,1,0.311150437,-0.000002699,0.000007178,-0.822711862,0.509053722,0.300000000,0.000000000,0.000000000,-0.800000000,0.500000000
0.077500,-0.000420000,-0.056584518,0.037544652,-0.310851000,-0.056584518,0.034888271,5.057154876e-05,0.000000000e+00,1,1,0.312139497,-0.000002948,0.000007814,-0.824725187,0.509841074,0.300000000,0.000000000,0.000000000,-0.800000000,0.500000000
0.080000,-0.000420000,-0.056584518,0.037771707,-0.310851000,-0.056584518,0.034888271,5.297292382e-05,0.000000000e+00,1,1,0.313172402,-0.000003210,0.000008479,-0.826827608,0.510660665,0.300000000,0.000000000,0.000000000,-0.800000000,0.500000000
0.082500,-0.000420000,-0.056584518,0.038008901,-0.310851000,-0.056584518,0.034888271,5.540714855e-05,0.000000000e+00,1,1,0.314249511,-0.000003484,0.000009173,-0.829019806,0.511512423,0.300000000,0.000000000,0.000000000,-0.800000000,0.500000000
0.085000,-0.000420000,-0.056584518,0.038256153,-0.310851000,-0.056584518,0.034888271,5.783455772e-05,0.000000000e+00,1,1,0.315370354,-0.000003772,0.000009895,-0.831300792,0.512395603,0.300000000,0.000000000,0.000000000,-0.800000000,0.500000000
0.087500,-0.000420000,-0.056584518,0.038513358,-0.310851000,-0.056584518,0.034888271,6.024331772e-05,0.000000000e+00,1,1,0.316534217,-0.000004073,0.000010645,-0.833669083,0.513309264,0.300000000,0.000000000,0.000000000,-0.800000000,0.500000000
0.090000,-0.000420000,-0.056584518,0.038780386,-0.310851000,-0.056584518,0.034888271,6.262671271e-05,0.000000000e+00,1,1,0.317740249,-0.000004386,0.000011422,-0.836122922,0.514252349,0.300000000,0.000000000,0.000000000,-0.800000000,0.500000000
0.092500,-0.000420000,-0.056584518,0.039057084,-0.310851000,-0.056584518,0.034888271,6.497900867e-05,0.000000000e+00,1,1,0.318987489,-0.000004713,0.000012225,-0.838660322,0.515223712,0.300000000,0.000000000,0.000000000,-0.800000000,0.500000000
0.095000,-0.000420000,-0.056584518,0.039343277,-0.310851000,-0.056584518,0.034888271,6.729470758e-05,0.000000000e+00,1,1,0.320274867,-0.000005053,0.000013055,-0.841279079,0.516222121,0.300000000,0.000000000,0.000000000,-0.800000000,0.500000000
0.097500,-0.000420000,-0.056584518,0.039638765,-0.310851000,-0.056584518,0.034888271,6.956841975e-05,0.000000000e+00,1,1,0.321601213,-0.000005406,0.000013909,-0.843976782,0.517246269,0.300000000,0.000000000,0.000000000,-0.800000000,0.500000000
0.100000,-0.000420000,-0.056584518,0.039943328,-0.310851000,-0.056584518,0.034888271,7.179484820e-05,0.000000000e+00,1,1,0.322965257,-0.000005772,0.000014789,-0.846750819,0.518294773,0.300000000,0.000000000,0.000000000,-0.800000000,0.500000000
0.102500,-0.000420000,-0.056584518,0.040256721,-0.310851000,-0.056584518,0.034888271,7.396879394e-05,0.000000000e+00,1,1,0.324365634,-0.000006151,0.000015691,-0.849598384,0.519366185,0.300000000,0.000000000,0.000000000,-0.800000000,0.500000000
0.105000,-0.000420000,-0.056584518,0.040578678,-0.310851000,-0.056584518,0.034888271,7.608516372e-05,0.000000000e+00,1,1,0.325800889,-0.000006542,0.000016617,-0.852516486,0.520458995,0.300000000,0.000000000,0.000000000,-0.800000000,0.500000000
0.107500,-0.000420000,-0.056584518,0.040908913,-0.310851000,-0.056584518,0.034888271,7.813897883e-05,0.000000000e+00,1,1,0.327269478,-0.000006946,0.000017564,-0.855501960,0.521571640,0.300000000,0.000000000,0.000000000,-0.800000000,0.500000000
0.110000,-0.000420000,-0.056584518,0.041247116,-0.310851000,-0.056584518,0.034888271,8.012538314e-05,0.000000000e+00,1,1,0.328769775,-0.000007362,0.000018532,-0.858551468,0.522702506,0.300000000,0.000000000,0.000000000,-0.800000000,0.500000000
0.112500,-0.000420000,-0.056584518,0.041592959,-0.310851000,-0.056584518,0.034888271,8.203965096e-05,0.000000000e+00,1,1,0.330300076,-0.000007791,0.000019519,-0.861661518,0.523849935,0.300000000,0.000000000,0.000000000,-0.800000000,0.500000000
0.115000,-0.000420000,-0.056584518,0.041946092,-0.310851000,-0.056584518,0.034888271,8.387719489e-05,0.000000000e+00,1,1,0.331858600,-0.000008231,0.000020525,-0.864828463,0.525012232,0.300000000,0.000000000,0.000000000,-0.800000000,0.500000000
0.117500,-0.000420000,-0.056584518,0.042306146,-0.310851000,-0.056584518,0.034888271,8.563357207e-05,0.000000000e+00,1,1,0.333443499,-0.000008682,0.000021548,-0.868048518,0.526187671,0.300000000,0.000000000,0.000000000,-0.800000000,0.500000000
0.120000,-0.000420000,-0.056584518,0.042672734,-0.310851000,-0.056584518,0.034888271,8.730449126e-05,0.000000000e+00,1,1,0.335052858,-0.000009144,0.000022587,-0.871317765,0.527374501,0.300000000,0.000000000,0.000000000,-0.800000000,0.500000000
0.122500,-0.000420000,-0.056584518,0.043045449,-0.310851000,-0.056584518,0.034888271,8.888581925e-05,0.000000000e+00,1,1,0.336684701,-0.000009618,0.000023641,-0.874632162,0.528570948,0.300000000,0.000000000,0.000000000,-0.800000000,0.500000000
0.125000,-0.000420000,-0.056584518,0.043423866,-0.310851000,-0.056584518,0.034888271,9.037358591e-05,0.000000000e+00,1,1,0.338336994,-0.000010101,0.000024709,-0.877987557,0.529775225,0.300000000,0.000000000,0.000000000,-0.800000000,0.500000000
0.127500,-0.000420000,-0.056584518,0.043807544,-0.310851000,-0.056584518,0.034888271,9.176399062e-05,0.000000000e+00,1,1,0.340007655,-0.000010595,0.000025789,-0.881379690,0.530985537,0.300000000,0.000000000,0.000000000,-0.800000000,0.500000000
0.130000,-0.000420000,-0.056584518,0.044196027,-0.310851000,-0.056584518,0.034888271,9.305340621e-05,0.000000000e+00,1,1,0.341694550,-0.000011098,0.000026880,-0.884804210,0.532200080,0.300000000,0.000000000,0.000000000,-0.800000000,0.500000000
0.132500,-0.000420000,-0.056584518,0.044588839,-0.310851000,-0.056584518,0.034888271,9.423838437e-05,0.000000000e+00,1,1,0.343395506,-0.000011610,0.000027980,-0.888256679,0.533417057,0.300000000,0.000000000,0.000000000,-0.800000000,0.500000000
0.135000,-0.000420000,-0.056584518,0.044985493,-0.310851000,-0.056584518,0.034888271,9.531565990e-05,0.000000000e+00,1,1,0.345108309,-0.000012130,0.000029089,-0.891732584,0.534634670,0.300000000,0.000000000,0.000000000,-0.800000000,0.500000000
0.137500,-0.000420000,-0.056584518,0.045385487,-0.310851000,-0.056584518,0.034888271,9.628215426e-05,0.000000000e+00,1,1,0.346830712,-0.000012658,0.000030204,-0.895227344,0.535851134,0.300000000,0.000000000,0.000000000,-0.800000000,0.500000000
0.140000,-0.000420000,-0.056584518,0.045788304,-0.310851000,-0.056584518,0.034888271,9.713497975e-05,0.000000000e+00,1,1,0.348560438,-0.000013194,0.000031325,-0.898736321,0.537064679,0.300000000,0.000000000,0.000000000,-0.800000000,0.500000000
0.142500,-0.000420000,-0.056584518,0.046193415,-0.310851000,-0.056584518,0.034888271,9.787144241e-05,0.000000000e+00,1,1,0.350295187,-0.000013736,0.000032449,-0.902254828,0.538273550,0.300000000,0.000000000,0.000000000,-0.800000000,0.500000000
0.145000,-0.000420000,-0.056584518,0.046600282,-0.310851000,-0.056584518,0.034888271,9.848904524e-05,0.000000000e+00,1,1,0.352032635,-0.000014284,0.000033576,-0.905778138,0.539476014,0.300000000,0.000000000,0.000000000,-0.800000000,0.500000000
0.147500,-0.000420000,-0.056584518,0.047008352,-0.310851000,-0.056584518,0.034888271,9.898549123e-05,0.000000000e+00,1,1,0.353770443,-0.000014837,0.000034704,-0.909301491,0.540670365,0.300000000,0.000000000,0.000000000,-0.800000000,0.500000000
0.150000,-0.000420000,-0.056584518,0.047417066,-0.310851000,-0.056584518,0.034888271,9.935868526e-05,0.000000000e+00,1,1,0.355506259,-0.000015395,0.000035831,-0.912820106,0.541854922,0.300000000,0.000000000,0.000000000,-0.800000000,0.500000000
0.152500,-0.000420000,-0.056584518,0.047825854,-0.310851000,-0.056584518,0.034888271,9.960673701e-05,0.000000000e+00,1,1,0.357237722,-0.000015957,0.000036956,-0.916329183,0.543028038,0.300000000,0.000000000,0.000000000,-0.800000000,0.500000000
0.155000,-0.000420000,-0.056584518,0.048234137,-0.310851000,-0.056584518,0.034888271,9.972796225e-05,0.000000000e+00,1,1,0.358962466,-0.000016521,0.000038077,-0.919823919,0.544188097,0.300000000,0.000000000,0.000000000,-0.800000000,0.500000000
0.157500,-0.000420000,-0.056584518,0.048641333,-0.310851000,-0.056584518,0.034888271,9.972088516e-05,0.000000000e+00,1,1,0.360678126,-0.000017088,0.000039193,-0.923299507,0.545333519,0.300000000,0.000000000,0.000000000,-0.800000000,0.500000000
0.160000,-0.000420000,-0.056584518,0.049046849,-0.310851000,-0.056584518,0.034888271,9.958423950e-05,0.000000000e+00,1,1,0.362382337,-0.000017656,0.000040303,-0.926751152,0.546462763,0.300000000,0.000000000,0.000000000,-0.800000000,0.500000000
0.162500,-0.000420000,-0.056584518,0.049450090,-0.310851000,-0.056584518,0.034888271,9.931696985e-05,0.000000000e+00,1,1,0.364072742,-0.000018225,0.000041405,-0.930174070,0.547574326,0.300000000,0.000000000,0.000000000,-0.800000000,0.500000000
0.165000,-0.000420000,-0.056584518,0.049850457,-0.310851000,-0.056584518,0.034888271,9.891823289e-05,0.000000000e+00,1,1,0.365746993,-0.000018793,0.000042497,-0.933563503,0.548666748,0.300000000,0.000000000,0.000000000,-0.800000000,0.500000000
0.167500,-0.000420000,-0.056584518,0.050247347,-0.310851000,-0.056584518,0.034888271,9.838739809e-05,0.000000000e+00,1,1,0.367402755,-0.000019360,0.000043578,-0.936914718,0.549738610,0.300000000,0.000000000,0.000000000,-0.800000000,0.500000000
0.170000,-0.000420000,-0.056584518,0.050640155,-0.310851000,-0.056584518,0.034888271,9.772404827e-05,0.000000000e+00,1,1,0.369037710,-0.000019925,0.000044646,-0.940223021,0.550788537,0.300000000,0.000000000,0.000000000,-0.800000000,0.500000000
0.172500,-0.000420000,-0.056584518,0.051028276,-0.310851000,-0.056584518,0.034888271,9.692797997e-05,0.000000000e+00,1,1,0.370649559,-0.000020487,0.000045701,-0.943483756,0.551815199,0.300000000,0.000000000,0.000000000,-0.800000000,0.500000000
0.175000,-0.000420000,-0.056584518,0.051411104,-0.310851000,-0.056584518,0.034888271,9.599920388e-05,0.000000000e+00,1,1,0.372236025,-0.000021045,0.000046739,-0.946692320,0.552817310,0.300000000,0.000000000,0.000000000,-0.800000000,0.500000000
0.177500,-0.000420000,-0.056584518,0.051788034,-0.310851000,-0.056584518,0.034888271,9.493794453e-05,0.000000000e+00,1,1,0.373794858,-0.000021597,0.000047761,-0.949844158,0.553793632,0.300000000,0.000000000,0.000000000,-0.800000000,0.500000000
0.180000,-0.000420000,-0.056584518,0.052158466,-0.310851000,-0.056584518,0.034888271,9.374464028e-05,0.000000000e+00,1,1,0.375323835,-0.000022144,0.000048765,-0.952934779,0.554742970,0.300000000,0.000000000,0.000000000,-0.800000000,0.500000000
0.182500,-0.000420000,-0.056584518,0.052521799,-0.310851000,-0.056584518,0.034888271,9.241994262e-05,0.000000000e+00,1,1,0.376820764,-0.000022684,0.000049749,-0.955959755,0.555664177,0.300000000,0.000000000,0.000000000,-0.800000000,0.500000000
0.185000,-0.000420000,-0.056584518,0.052877441,-0.310851000,-0.056584518,0.034888271,9.096471577e-05,0.000000000e+00,1,1,0.378283487,-0.000023215,0.000050712,-0.958914727,0.556556153,0.300000000,0.000000000,0.000000000,-0.800000000,0.500000000
0.187500,-0.000420000,-0.056584518,0.053224801,-0.310851000,-0.056584518,0.034888271,8.938003599e-05,0.000000000e+00,1,1,0.379709884,-0.000023738,0.000051652,-0.961795415,0.557417842,0.300000000,0.000000000,0.000000000,-0.800000000,0.500000000
0.190000,-0.000420000,-0.056584518,0.053563298,-0.310851000,-0.056584518,0.034888271,8.766718992e-05,0.000000000e+00,1,1,0.381097870,-0.000024250,0.000052569,-0.964597616,0.558248235,0.300000000,0.000000000,0.000000000,-0.800000000,0.500000000
0.192500,-0.000420000,-0.056584518,0.053892356,-0.310851000,-0.056584518,0.034888271,8.582767409e-05,0.000000000e+00,1,1,0.382445403,-0.000024752,0.000053460,-0.967317213,0.559046369,0.300000000,0.000000000,0.000000000,-0.800000000,0.500000000
0.195000,-0.000420000,-0.056584518,0.054211410,-0.310851000,-0.056584518,0.034888271,8.386319293e-05,0.000000000e+00,1,1,0.383750485,-0.000025241,0.000054325,-0.969950178,0.559811323,0.300000000,0.000000000,0.000000000,-0.800000000,0.500000000
0.197500,-0.000420000,-0.056584518,0.054519903,-0.310851000,-0.056584518,0.034888271,8.177565754e-05,0.000000000e+00,1,1,0.385011162,-0.000025717,0.000055162,-0.972492578,0.560542225,0.300000000,0.000000000,0.000000000,-0.800000000,0.500000000
0.200000,-0.000420000,-0.056584518,0.054817290,-0.310851000,-0.056584518,0.034888271,7.956718342e-05,0.000000000e+00,1,1,0.386225529,-0.000026179,0.000055970,-0.974940578,0.561238243,0.300000000,0.000000000,0.000000000,-0.800000000,0.500000000
0.202500,-0.000420000,-0.056584518,0.055103035,-0.310851000,-0.056584518,0.034888271,7.724008925e-05,0.000000000e+00,1,1,0.387391729,-0.000026627,0.000056748,-0.977290444,0.561898589,0.300000000,0.000000000,0.000000000,-0.800000000,0.500000000
0.205000,-0.000420000,-0.056584518,0.055376619,-0.310851000,-0.056584518,0.034888271,7.479689396e-05,0.000000000e+00,1,1,0.388507958,-0.000027058,0.000057495,-0.979538549,0.562522518,0.300000000,0.000000000,0.000000000,-0.800000000,0.500000000
0.207500,-0.000420000,-0.056584518,0.055637534,-0.310851000,-0.056584518,0.034888271,7.224031509e-05,0.000000000e+00,1,1,0.389572466,-0.000027472,0.000058209,-0.981681377,0.563109326,0.300000000,0.000000000,0.000000000,-0.800000000,0.500000000
0.210000,-0.000420000,-0.056584518,0.055885287,-0.310851000,-0.056584518,0.034888271,6.957326625e-05,0.000000000e+00,1,1,0.390583556,-0.000027869,0.000058889,-0.983715524,0.563658348,0.300000000,0.000000000,0.000000000,-0.800000000,0.500000000
0.212500,-0.000420000,-0.056584518,0.056119401,-0.310851000,-0.056584518,0.034888271,6.679885478e-05,0.000000000e+00,1,1,0.391539592,-0.000028246,0.000059535,-0.985637703,0.564168962,0.300000000,0.000000000,0.000000000,-0.800000000,0.500000000
0.215000,-0.000420000,-0.056584518,0.056339416,-0.310851000,-0.056584518,0.034888271,6.392037951e-05,0.000000000e+00,1,1,0.392438995,-0.000028604,0.000060144,-0.987444751,0.564640580,0.300000000,0.000000000,0.000000000,-0.800000000,0.500000000
0.217500,-0.000420000,-0.056584518,0.056544890,-0.310851000,-0.056584518,0.034888271,6.094132854e-05,0.000000000e+00,1,1,0.393280245,-0.000028942,0.000060717,-0.989133625,0.565072656,0.300000000,0.000000000,0.000000000,-0.800000000,0.500000000
0.220000,-0.000420000,-0.056584518,0.056735399,-0.310851000,-0.056584518,0.034888271,5.786537734e-05,0.000000000e+00,1,1,0.394061889,-0.000029258,0.000061252,-0.990701414,0.565464679,0.300000000,0.000000000,0.000000000,-0.800000000,0.500000000
0.222500,-0.000420000,-0.056584518,0.056910539,-0.310851000,-0.056584518,0.034888271,5.469638766e-05,0.000000000e+00,1,1,0.394782533,-0.000029551,0.000061749,-0.992145333,0.565816173,0.300000000,0.000000000,0.000000000,-0.800000000,0.500000000
0.225000,-0.000420000,-0.056584518,0.057069925,-0.310851000,-0.056584518,0.034888271,9.944210212e-05,0.000000000e+00,1,1,0.395241913,-0.000029735,0.000062061,-0.993069131,0.566055928,0.300000000,0.000000000,0.000000000,-0.800000000,0.500000000
0.227500,-0.000420000,-0.056584518,0.057213194,-0.310851000,-0.056584518,0.034888271,5.652774985e-05,0.000000000e+00,1,1,0.395992291,-0.000030042,0.000062576,-0.994572911,0.566424839,0.300000000,0.000000000,0.000000000,-0.800000000,0.500000000
0.230000,-0.000420000,-0.056584518,0.057340008,-0.310851000,-0.056584518,0.034888271,8.663813978e-05,0.000000000e+00,1,1,0.396380777,-0.000030200,0.000062842,-0.995352344,0.566617735,0.300000000,0.000000000,0.000000000,-0.800000000,0.500000000
0.232500,-0.000420000,-0.056584518,0.057450046,-0.310851000,-0.056584518,0.034888271,9.226425261e-05,0.000000000e+00,1,1,0.396799278,-0.000030370,0.000063128,-0.996192631,0.566829659,0.300000000,0.000000000,0.000000000,-0.800000000,0.500000000
0.235000,-0.000420000,-0.056584518,0.057543016,-0.310851000,-0.056584518,0.034888271,8.749877535e-05,0.000000000e+00,1,1,0.397191555,-0.000030531,0.000063397,-0.996979401,0.567024283,0.300000000,0.000000000,0.000000000,-0.800000000,0.500000000
0.237500,-0.000420000,-0.056584518,0.057618647,-0.310851000,-0.056584518,0.034888271,7.826209035e-05,0.000000000e+00,1,1,0.397533437,-0.000030673,0.000063633,-0.997663663,0.567186186,0.300000000,0.000000000,0.000000000,-0.800000000,0.500000000
0.240000,-0.000420000,-0.056584518,0.057676695,-0.310851000,-0.056584518,0.034888271,6.704536346e-05,0.000000000e+00,1,1,0.397814273,-0.000030792,0.000063831,-0.998223904,0.567308721,0.300000000,0.000000000,0.000000000,-0.800000000,0.500000000
0.242500,-0.000420000,-0.056584518,0.057716941,-0.310851000,-0.056584518,0.034888271,5.490350574e-05,0.000000000e+00,1,1,0.398029134,-0.000030886,0.000063986,-0.998650202,0.567388933,0.300000000,0.000000000,0.000000000,-0.800000000,0.500000000
0.245000,-0.000420000,-0.056584518,0.057739192,-0.310851000,-0.056584518,0.034888271,7.713263462e-05,0.000000000e+00,1,1,0.398029134,-0.000030886,0.000063986,-0.998650202,0.567388933,0.300000000,0.000000000,0.000000000,-0.800000000,0.500000000
0.247500,-0.000420000,-0.056584518,0.057743283,-0.310851000,-0.056584518,0.034888271,8.122085686e-05,0.000000000e+00,1,1,0.398029134,-0.000030886,0.000063986,-0.998650202,0.567388933,0.300000000,0.000000000,0.000000000,-0.800000000,0.500000000
0.250000,-0.000420000,-0.056584518,0.057729076,-0.310851000,-0.056584518,0.034888271,6.702469267e-05,0.000000000e+00,1,1,0.398029134,-0.000030886,0.000063986,-0.998650202,0.567388933,0.300000000,0.000000000,0.000000000,-0.800000000,0.500000000
0.252500,-0.000420000,-0.056584518,0.057696461,-0.310851000,-0.056584518,0.034888271,3.446896436e-05,0.000000000e+00,1,1,0.398029134,-0.000030886,0.000063986,-0.998650202,0.567388933,0.300000000,0.000000000,0.000000000,-0.800000000,0.500000000
0.255000,-0.000420000,-0.056584518,0.057645357,-0.310851000,-0.056584518,0.034888271,1.700403665e-05,0.000000000e+00,1,1,0.398029134,-0.000030886,0.000063986,-0.998650202,0.567388933,0.300000000,0.000000000,0.000000000,-0.800000000,0.500000000
0.257500,-0.000420000,-0.056584518,0.057575713,-0.310851000,-0.056584518,0.034888271,8.644915512e-05,0.000000000e+00,1,1,0.398029134,-0.000030886,0.000063986,-0.998650202,0.567388933,0.300000000,0.000000000,0.000000000,-0.800000000,0.500000000
0.260000,-0.000420000,-0.056584518,0.057487505,-0.310851000,-0.056584518,0.034888271,6.346718738e-05,0.000000000e+00,1,1,0.397606688,-0.000030738,0.000063732,-0.997780657,0.567060178,0.300000000,0.000000000,0.000000000,-0.800000000,0.500000000
0.262500,-0.000420000,-0.056584518,0.057380742,-0.310851000,-0.056584518,0.034888271,6.164863572e-05,0.000000000e+00,1,1,0.397192810,-0.000030589,0.000063486,-0.996930643,0.566738483,0.300000000,0.000000000,0.000000000,-0.800000000,0.500000000
0.265000,-0.000420000,-0.056584518,0.057255460,-0.310851000,-0.056584518,0.034888271,6.870209196e-05,0.000000000e+00,1,1,0.396740333,-0.000030424,0.000063214,-0.996003076,0.566393238,0.300000000,0.000000000,0.000000000,-0.800000000,0.500000000
0.267500,-0.000420000,-0.056584518,0.057111730,-0.310851000,-0.056584518,0.034888271,7.946092636e-05,0.000000000e+00,1,1,0.396229412,-0.000030236,0.000062906,-0.994957274,0.566011572,0.300000000,0.000000000,0.000000000,-0.800000000,0.500000000
0.270000,-0.000420000,-0.056584518,0.056949649,-0.310851000,-0.056584518,0.034888271,9.174550771e-05,0.000000000e+00,1,1,0.395651775,-0.000030023,0.000062554,-0.993776351,0.565588097,0.300000000,0.000000000,0.000000000,-0.800000000,0.500000000
0.272500,-0.000420000,-0.056584518,0.056769348,-0.310851000,-0.056584518,0.034888271,3.436067614e-05,0.000000000e+00,1,1,0.394735741,-0.000029684,0.000062002,-0.991902820,0.564899432,0.300000000,0.000000000,0.000000000,-0.800000000,0.500000000
0.275000,-0.000420000,-0.056584518,0.056570989,-0.310851000,-0.056584518,0.034888271,8.818236794e-05,0.000000000e+00,1,1,0.394176624,-0.000029479,0.000061660,-0.990759961,0.564490931,0.300000000,0.000000000,0.000000000,-0.800000000,0.500000000
0.277500,-0.000420000,-0.056584518,0.056354765,-0.310851000,-0.056584518,0.034888271,4.028129366e-05,0.000000000e+00,1,1,0.393152798,-0.000029101,0.000061036,-0.988668541,0.563738943,0.300000000,0.000000000,0.000000000,-0.800000000,0.500000000
0.280000,-0.000420000,-0.056584518,0.056120900,-0.310851000,-0.056584518,0.034888271,3.507082578e-05,0.000000000e+00,1,1,0.392225049,-0.000028760,0.000060472,-0.986772782,0.563053109,0.300000000,0.000000000,0.000000000,-0.800000000,0.500000000
0.282500,-0.000420000,-0.056584518,0.055869651,-0.310851000,-0.056584518,0.034888271,3.735069764e-05,0.000000000e+00,1,1,0.391255959,-0.000028405,0.000059878,-0.984793553,0.562344169,0.300000000,0.000000000,0.000000000,-0.800000000,0.500000000
0.285000,-0.000420000,-0.056584518,0.055601304,-0.310851000,-0.056584518,0.034888271,4.091521445e-05,0.000000000e+00,1,1,0.390221690,-0.000028026,0.000059241,-0.982682757,0.561596510,0.300000000,0.000000000,0.000000000,-0.800000000,0.500000000
0.287500,-0.000420000,-0.056584518,0.055316181,-0.310851000,-0.056584518,0.034888271,4.466470898e-05,0.000000000e+00,1,1,0.389118702,-0.000027623,0.000058558,-0.980433315,0.560807622,0.300000000,0.000000000,0.000000000,-0.800000000,0.500000000
0.290000,-0.000420000,-0.056584518,0.055014631,-0.310851000,-0.056584518,0.034888271,4.839951133e-05,0.000000000e+00,1,1,0.387947151,-0.000027195,0.000057829,-0.978045574,0.559977355,0.300000000,0.000000000,0.000000000,-0.800000000,0.500000000
0.292500,-0.000420000,-0.056584518,0.054697036,-0.310851000,-0.056584518,0.034888271,5.207884241e-05,0.000000000e+00,1,1,0.386707943,-0.000026743,0.000057055,-0.975521380,0.559106009,0.300000000,0.000000000,0.000000000,-0.800000000,0.500000000
0.295000,-0.000420000,-0.056584518,0.054363809,-0.310851000,-0.056584518,0.034888271,5.569002087e-05,0.000000000e+00,1,1,0.385402206,-0.000026268,0.000056236,-0.972863027,0.558194001,0.300000000,0.000000000,0.000000000,-0.800000000,0.500000000
0.297500,-0.000420000,-0.056584518,0.054015397,-0.310851000,-0.056584518,0.034888271,5.922535446e-05,0.000000000e+00,1,1,0.384031204,-0.000025771,0.000055373,-0.970073075,0.557241807,0.300000000,0.000000000,0.000000000,-0.800000000,0.500000000
0.300000,-0.000420000,-0.056584518,0.053652272,-0.310851000,-0.056584518,0.034888271,6.267805207e-05,0.000000000e+00,1,1,0.382596322,-0.000025253,0.000054468,-0.967154326,0.556249955,0.300000000,0.000000000,0.000000000,-0.800000000,0.500000000
0.302500,-0.000420000,-0.056584518,0.053274942,-0.310851000,-0.056584518,0.034888271,6.604149953e-05,0.000000000e+00,1,1,0.381099059,-0.000024715,0.000053520,-0.964109814,0.555219025,0.300000000,0.000000000,0.000000000,-0.800000000,0.500000000
0.305000,-0.000420000,-0.056584518,0.052883943,-0.310851000,-0.056584518,0.034888271,6.930913158e-05,0.000000000e+00,1,1,0.379541038,-0.000024157,0.000052531,-0.960942819,0.554149652,0.300000000,0.000000000,0.000000000,-0.800000000,0.500000000
0.307500,-0.000420000,-0.056584518,0.052479839,-0.310851000,-0.056584518,0.034888271,7.247440969e-05,0.000000000e+00,1,1,0.377924003,-0.000023582,0.000051503,-0.957656860,0.553042532,0.300000000,0.000000000,0.000000000,-0.800000000,0.500000000
0.310000,-0.000420000,-0.056584518,0.052063227,-0.310851000,-0.056584518,0.034888271,7.553081992e-05,0.000000000e+00,1,1,0.376249822,-0.000022989,0.000050436,-0.954255710,0.551898421,0.300000000,0.000000000,0.000000000,-0.800000000,0.500000000
0.312500,-0.000420000,-0.056584518,0.051634732,-0.310851000,-0.056584518,0.034888271,7.847187400e-05,0.000000000e+00,1,1,0.374520490,-0.000022381,0.000049331,-0.950743392,0.550718146,0.300000000,0.000000000,0.000000000,-0.800000000,0.500000000
0.315000,-0.000420000,-0.056584518,0.051195005,-0.310851000,-0.056584518,0.034888271,8.129111062e-05,0.000000000e+00,1,1,0.372738129,-0.000021759,0.000048191,-0.947124189,0.549502603,0.300000000,0.000000000,0.000000000,-0.800000000,0.500000000
0.317500,-0.000420000,-0.056584518,0.050744729,-0.310851000,-0.056584518,0.034888271,8.398209741e-05,0.000000000e+00,1,1,0.370904996,-0.000021123,0.000047015,-0.943402645,0.548252765,0.300000000,0.000000000,0.000000000,-0.800000000,0.500000000
0.320000,-0.000420000,-0.056584518,0.050284612,-0.310851000,-0.056584518,0.034888271,8.653843240e-05,0.000000000e+00,1,1,0.369023477,-0.000020475,0.000045807,-0.939583573,0.546969689,0.300000000,0.000000000,0.000000000,-0.800000000,0.500000000
0.322500,-0.000420000,-0.056584518,0.049815391,-0.310851000,-0.056584518,0.034888271,8.895374510e-05,0.000000000e+00,1,1,0.367096097,-0.000019816,0.000044568,-0.935672059,0.545654516,0.300000000,0.000000000,0.000000000,-0.800000000,0.500000000
0.325000,-0.000420000,-0.056584518,0.049337827,-0.310851000,-0.056584518,0.034888271,9.122169734e-05,0.000000000e+00,1,1,0.365125516,-0.000019148,0.000043299,-0.931673465,0.544308483,0.300000000,0.000000000,0.000000000,-0.800000000,0.500000000
0.327500,-0.000420000,-0.056584518,0.048852709,-0.310851000,-0.056584518,0.034888271,9.333598375e-05,0.000000000e+00,1,1,0.363114538,-0.000018472,0.000042002,-0.927593434,0.542932923,0.300000000,0.000000000,0.000000000,-0.800000000,0.500000000
0.330000,-0.000420000,-0.056584518,0.048360851,-0.310851000,-0.056584518,0.034888271,9.529033169e-05,0.000000000e+00,1,1,0.361066106,-0.000017790,0.000040679,-0.923437898,0.541529276,0.300000000,0.000000000,0.000000000,-0.800000000,0.500000000
0.332500,-0.000420000,-0.056584518,0.047863091,-0.310851000,-0.056584518,0.034888271,9.707850045e-05,0.000000000e+00,1,1,0.358983307,-0.000017102,0.000039333,-0.919213077,0.540099094,0.300000000,0.000000000,0.000000000,-0.800000000,0.500000000
0.335000,-0.000420000,-0.056584518,0.047360291,-0.310851000,-0.056584518,0.034888271,9.869428014e-05,0.000000000e+00,1,1,0.356869379,-0.000016411,0.000037964,-0.914925491,0.538644046,0.300000000,0.000000000,0.000000000,-0.800000000,0.500000000
0.337500,-0.000420000,-0.056584518,0.046853338,-0.310851000,-0.056584518,0.034888271,3.643547307e-05,0.000000000e+00,1,1,0.354453001,-0.000015619,0.000036396,-0.910029967,0.536990976,0.300000000,0.000000000,0.000000000,-0.800000000,0.500000000
0.340000,-0.000420000,-0.056584518,0.046343139,-0.310851000,-0.056584518,0.034888271,8.992936424e-05,0.000000000e+00,1,1,0.352509099,-0.000015000,0.000035132,-0.906086553,0.535648263,0.300000000,0.000000000,0.000000000,-0.800000000,0.500000000
0.342500,-0.000420000,-0.056584518,0.045830625,-0.310851000,-0.056584518,0.034888271,3.701392497e-05,0.000000000e+00,1,1,0.350086813,-0.000014224,0.000033555,-0.901179213,0.533983608,0.300000000,0.000000000,0.000000000,-0.800000000,0.500000000
0.345000,-0.000420000,-0.056584518,0.045316749,-0.310851000,-0.056584518,0.034888271,9.151865409e-05,0.000000000e+00,1,1,0.348113702,-0.000013608,0.000032270,-0.897176836,0.532611797,0.300000000,0.000000000,0.000000000,-0.800000000,0.500000000
0.347500,-0.000420000,-0.056584518,0.044802482,-0.310851000,-0.056584518,0.034888271,3.812194101e-05,0.000000000e+00,1,1,0.345659161,-0.000012838,0.000030669,-0.892204727,0.530914537,0.300000000,0.000000000,0.000000000,-0.800000000,0.500000000
0.350000,-0.000420000,-0.056584518,0.044288818,-0.310851000,-0.056584518,0.034888271,9.253177345e-05,0.000000000e+00,1,1,0.343668291,-0.000012230,0.000029370,-0.888166533,0.529519992,0.300000000,0.000000000,0.000000000,-0.800000000,0.500000000
0.352500,-0.000420000,-0.056584518,0.043776769,-0.310851000,-0.056584518,0.034888271,3.890773559e-05,0.000000000e+00,1,1,0.341199370,-0.000011472,0.000027757,-0.883165653,0.527800534,0.300000000,0.000000000,0.000000000,-0.800000000,0.500000000
0.355000,-0.000420000,-0.056584518,0.043267368,-0.310851000,-0.056584518,0.034888271,9.277626317e-05,0.000000000e+00,1,1,0.339206241,-0.000010877,0.000026455,-0.879122923,0.526392876,0.300000000,0.000000000,0.000000000,-0.800000000,0.500000000
0.357500,-0.000420000,-0.056584518,0.042761663,-0.310851000,-0.056584518,0.034888271,3.933490869e-05,0.000000000e+00,1,1,0.336742841,-0.000010137,0.000024844,-0.874133367,0.524663610,0.300000000,0.000000000,0.000000000,-0.800000000,0.500000000
0.360000,-0.000420000,-0.056584518,0.042260724,-0.310851000,-0.056584518,0.034888271,9.220628936e-05,0.000000000e+00,1,1,0.334764133,-0.000009560,0.000023550,-0.870119800,0.523253805,0.300000000,0.000000000,0.000000000,-0.800000000,0.500000000
0.362500,-0.000420000,-0.056584518,0.041765636,-0.310851000,-0.056584518,0.034888271,3.937734172e-05,0.000000000e+00,1,1,0.332327609,-0.000008844,0.000021954,-0.865184649,0.521528833,0.300000000,0.000000000,0.000000000,-0.800000000,0.500000000
0.365000,-0.000420000,-0.056584518,0.041277505,-0.310851000,-0.056584518,0.034888271,9.077743381e-05,0.000000000e+00,1,1,0.330381160,-0.000008289,0.000020680,-0.861236321,0.520129276,0.300000000,0.000000000,0.000000000,-0.800000000,0.500000000
0.367500,-0.000420000,-0.056584518,0.040797451,-0.310851000,-0.056584518,0.034888271,9.910436143e-05,0.000000000e+00,1,1,0.328270225,-0.000007691,0.000019300,-0.856954575,0.518599090,0.300000000,0.000000000,0.000000000,-0.800000000,0.500000000
0.370000,-0.000420000,-0.056584518,0.040326614,-0.310851000,-0.056584518,0.034888271,9.939275220e-05,0.000000000e+00,1,1,0.326155022,-0.000007097,0.000017919,-0.852664512,0.517058084,0.300000000,0.000000000,0.000000000,-0.800000000,0.500000000
0.372500,-0.000420000,-0.056584518,0.039866152,-0.310851000,-0.056584518,0.034888271,9.799985630e-05,0.000000000e+00,1,1,0.324069582,-0.000006518,0.000016556,-0.848434836,0.515531851,0.300000000,0.000000000,0.000000000,-0.800000000,0.500000000
0.375000,-0.000420000,-0.056584518,0.039417242,-0.310851000,-0.056584518,0.034888271,9.607645114e-05,0.000000000e+00,1,1,0.322024920,-0.000005956,0.000015219,-0.844287788,0.514028879,0.300000000,0.000000000,0.000000000,-0.800000000,0.500000000
0.377500,-0.000420000,-0.056584518,0.038981080,-0.310851000,-0.056584518,0.034888271,9.382621889e-05,0.000000000e+00,1,1,0.320027970,-0.000005414,0.000013913,-0.840237409,0.512554707,0.300000000,0.000000000,0.000000000,-0.800000000,0.500000000
0.380000,-0.000420000,-0.056584518,0.038558885,-0.310851000,-0.056584518,0.034888271,9.128005122e-05,0.000000000e+00,1,1,0.318085058,-0.000004891,0.000012641,-0.836296548,0.511114531,0.300000000,0.000000000,0.000000000,-0.800000000,0.500000000
0.382500,-0.000420000,-0.056584518,0.038151899,-0.310851000,-0.056584518,0.034888271,8.843691378e-05,0.000000000e+00,1,1,0.316202554,-0.000004391,0.000011408,-0.832478146,0.509713692,0.300000000,0.000000000,0.000000000,-0.800000000,0.500000000
0.385000,-0.000420000,-0.056584518,0.037761389,-0.310851000,-0.056584518,0.034888271,8.528939111e-05,0.000000000e+00,1,1,0.314386989,-0.000003912,0.000010219,-0.828795494,0.508357769,0.300000000,0.000000000,0.000000000,-0.800000000,0.500000000
0.387500,-0.000420000,-0.056584518,0.037388656,-0.310851000,-0.056584518,0.034888271,8.182816896e-05,0.000000000e+00,1,1,0.312645098,-0.000003458,0.000009076,-0.825262296,0.507052605,0.300000000,0.000000000,0.000000000,-0.800000000,0.500000000
0.390000,-0.000420000,-0.056584518,0.037035035,-0.310851000,-0.056584518,0.034888271,7.804260612e-05,0.000000000e+00,1,1,0.310983833,-0.000003029,0.000007986,-0.821892714,0.505804320,0.300000000,0.000000000,0.000000000,-0.800000000,0.500000000
0.392500,-0.000420000,-0.056584518,0.036701904,-0.310851000,-0.056584518,0.034888271,7.392048937e-05,0.000000000e+00,1,1,0.309410397,-0.000002625,0.000006953,-0.818701423,0.504619327,0.300000000,0.000000000,0.000000000,-0.800000000,0.500000000
0.395000,-0.000420000,-0.056584518,0.036390696,-0.310851000,-0.056584518,0.034888271,6.944748522e-05,0.000000000e+00,1,1,0.307932274,-0.000002250,0.000005982,-0.815703683,0.503504358,0.300000000,0.000000000,0.000000000,-0.800000000,0.500000000
0.397500,-0.000420000,-0.056584518,0.036102913,-0.310851000,-0.056584518,0.034888271,6.460629023e-05,0.000000000e+00,1,1,0.306557285,-0.000001902,0.000005077,-0.812915447,0.502466493,0.300000000,0.000000000,0.000000000,-0.800000000,0.500000000
0.400000,-0.000420000,-0.056584518,0.035840145,-0.310851000,-0.056584518,0.034888271,5.937531951e-05,0.000000000e+00,1,1,0.305293669,-0.000001585,0.000004244,-0.810353526,0.501513219,0.300000000,0.000000000,0.000000000,-0.800000000,0.500000000
0.402500,-0.000420000,-0.056584518,0.035604103,-0.310851000,-0.056584518,0.034888271,5.372660012e-05,0.000000000e+00,1,1,0.304150204,-0.000001300,0.000003489,-0.808035838,0.500652518,0.300000000,0.000000000,0.000000000,-0.800000000,0.500000000
0.405000,-0.000420000,-0.056584518,0.035396666,-0.310851000,-0.056584518,0.034888271,4.762218253e-05,0.000000000e+00,1,1,0.303136407,-0.000001047,0.000002817,-0.805981804,0.499893004,0.300000000,0.000000000,0.000000000,-0.800000000,0.500000000
0.407500,-0.000420000,-0.056584518,0.035219964,-0.310851000,-0.056584518,0.034888271,9.605329773e-05,0.000000000e+00,1,1,0.302528364,-0.000000900,0.000002416,-0.804747648,0.499429023,0.300000000,0.000000000,0.000000000,-0.800000000,0.500000000
0.410000,-0.000420000,-0.056584518,0.035076524,-0.310851000,-0.056584518,0.034888271,4.394282970e-05,0.000000000e+00,1,1,0.301595941,-0.000000669,0.000001798,-0.802859338,0.498730303,0.300000000,0.000000000,0.000000000,-0.800000000,0.500000000
0.412500,-0.000420000,-0.056584518,0.034969585,-0.310851000,-0.056584518,0.034888271,6.470059669e-05,0.000000000e+00,1,1,0.301184088,-0.000000567,0.000001524,-0.802025251,0.498423968,0.300000000,0.000000000,0.000000000,-0.800000000,0.500000000
0.415000,-0.000420000,-0.056584518,0.034903997,-0.310851000,-0.056584518,0.034888271,5.590637941e-05,0.000000000e+00,1,1,0.300827438,-0.000000479,0.000001285,-0.801303767,0.498162205,0.300000000,0.000000000,0.000000000,-0.800000000,0.500000000
0.417500,-0.000420000,-0.056584518,0.034888271,-0.310851000,-0.056584518,0.034892815,7.163071280e-05,4.543338545e-06,1,1,0.300827438,-0.000000479,0.000001285,-0.801303767,0.498162205,0.300000000,0.000000000,0.000000000,-0.800000000,0.500000000
0.420000,-0.000420000,-0.056584518,0.034888271,-0.310851000,-0.056584518,0.034943683,7.163071280e-05,5.541135099e-05,1,1,0.300827438,-0.000000479,0.000001285,-0.801303767,0.498162205,0.300000000,0.000000000,0.000000000,-0.800000000,0.500000000
0.422500,-0.000420000,-0.056584518,0.034888271,-0.310851000,-0.056584518,0.035040843,7.163071280e-05,6.550368440e-05,1,1,0.300827438,-0.000000479,0.000001285,-0.801303767,0.498162205,0.300409603,0.000000091,0.000000265,-0.800836424,0.500338511
0.425000,-0.000420000,-0.056584518,0.034888271,-0.310851000,-0.056584518,0.035179744,7.163071280e-05,8.777976693e-05,1,1,0.300827438,-0.000000479,0.000001285,-0.801303767,0.498162205,0.300958295,0.000000216,0.000000620,-0.801955707,0.500791113
0.427500,-0.000420000,-0.056584518,0.034888271,-0.310851000,-0.056584518,0.035358045,7.163071280e-05,4.925875442e-05,1,1,0.300827438,-0.000000479,0.000001285,-0.801303767,0.498162205,0.301978106,0.000000457,0.000001276,-0.804033315,0.501629712
0.430000,-0.000420000,-0.056584518,0.034888271,-0.310851000,-0.056584518,0.035574219,7.163071280e-05,4.928863332e-05,1,1,0.300827438,-0.000000479,0.000001285,-0.801303767,0.498162205,0.302992556,0.000000699,0.000001928,-0.806099861,0.502461417
0.432500,-0.000420000,-0.056584518,0.034888271,-0.310851000,-0.056584518,0.035827148,7.163071280e-05,5.619908778e-05,1,1,0.300827438,-0.000000479,0.000001285,-0.801303767,0.498162205,0.304144401,0.000000974,0.000002670,-0.808446505,0.503402975
0.435000,-0.000420000,-0.056584518,0.034888271,-0.310851000,-0.056584518,0.036115944,7.163071280e-05,6.421599388e-05,1,1,0.300827438,-0.000000479,0.000001285,-0.801303767,0.498162205,0.305455582,0.000001290,0.000003514,-0.811117611,0.504471045
0.437500,-0.000420000,-0.056584518,0.034888271,-0.310851000,-0.056584518,0.036439859,7.163071280e-05,7.230268897e-05,1,1,0.300827438,-0.000000479,0.000001285,-0.801303767,0.498162205,0.306926200,0.000001646,0.000004460,-0.814113196,0.505664188
0.440000,-0.000420000,-0.056584518,0.034888271,-0.310851000,-0.056584518,0.036798231,7.163071280e-05,8.028245568e-05,1,1,0.300827438,-0.000000479,0.000001285,-0.801303767,0.498162205,0.308552579,0.000002045,0.000005507,-0.817425641,0.506977755
0.442500,-0.000420000,-0.056584518,0.034888271,-0.310851000,-0.056584518,0.037190449,7.163071280e-05,8.813034262e-05,1,1,0.300827438,-0.000000479,0.000001285,-0.801303767,0.498162205,0.310330474,0.000002486,0.000006651,-0.821046189,0.508406523
0.445000,-0.000420000,-0.056584518,0.034888271,-0.310851000,-0.056584518,0.037615935,7.163071280e-05,9.584531924e-05,1,1,0.300827438,-0.000000479,0.000001285,-0.801303767,0.498162205,0.312255591,0.000002968,0.000007890,-0.824965974,0.509945135
0.447500,-0.000420000,-0.056584518,0.034888271,-0.310851000,-0.056584518,0.038074123,7.163071280e-05,4.597359494e-05,1,1,0.300827438,-0.000000479,0.000001285,-0.801303767,0.498162205,0.314588586,0.000003569,0.000009389,-0.829712454,0.511794780
0.450000,-0.000420000,-0.056584518,0.034888271,-0.310851000,-0.056584518,0.038564454,7.163071280e-05,4.493672743e-05,1,1,0.300827438,-0.000000479,0.000001285,-0.801303767,0.498162205,0.316833861,0.000004149,0.000010834,-0.834281272,0.513561470
0.452500,-0.000420000,-0.056584518,0.034888271,-0.310851000,-0.056584518,0.039086362,7.163071280e-05,4.765244949e-05,1,1,0.300827438,-0.000000479,0.000001285,-0.801303767,0.498162205,0.319195267,0.000004767,0.000012354,-0.839085899,0.515405934
0.455000,-0.000420000,-0.056584518,0.034888271,-0.310851000,-0.056584518,0.039639271,7.163071280e-05,5.061821497e-05,1,1,0.300827438,-0.000000479,0.000001285,-0.801303767,0.498162205,0.321684597,0.000005427,0.000013958,-0.844149826,0.517335190
0.457500,-0.000420000,-0.056584518,0.034888271,-0.310851000,-0.056584518,0.040222588,7.163071280e-05,5.355992506e-05,1,1,0.300827438,-0.000000479,0.000001285,-0.801303767,0.498162205,0.324298609,0.000006131,0.000015642,-0.849466246,0.519344357
0.460000,-0.000420000,-0.056584518,0.034888271,-0.310851000,-0.056584518,0.040835704,7.163071280e-05,5.645366342e-05,1,1,0.300827438,-0.000000479,0.000001285,-0.801303767,0.498162205,0.327032816,0.000006879,0.000017403,-0.855025860,0.521427591
0.462500,-0.000420000,-0.056584518,0.034888271,-0.310851000,-0.056584518,0.041477986,7.163071280e-05,5.929478725e-05,1,1,0.300827438,-0.000000479,0.000001285,-0.801303767,0.498162205,0.329882558,0.000007671,0.000019240,-0.860819027,0.523578951
0.465000,-0.000420000,-0.056584518,0.034888271,-0.310851000,-0.056584518,0.042148777,7.163071280e-05,6.208010347e-05,1,1,0.300827438,-0.000000479,0.000001285,-0.801303767,0.498162205,0.332843093,0.000008507,0.000021149,-0.866835934,0.525792479
0.467500,-0.000420000,-0.056584518,0.034888271,-0.310851000,-0.056584518,0.042847395,7.163071280e-05,6.480652909e-05,1,1,0.300827438,-0.000000479,0.000001285,-0.801303767,0.498162205,0.335909600,0.000009388,0.000023127,-0.873066619,0.528062226
0.470000,-0.000420000,-0.056584518,0.034888271,-0.310851000,-0.056584518,0.043573130,7.163071280e-05,6.747101739e-05,1,1,0.300827438,-0.000000479,0.000001285,-0.801303767,0.498162205,0.339077194,0.000010314,0.000025172,-0.879500991,0.530382279
0.472500,-0.000420000,-0.056584518,0.034888271,-0.310851000,-0.056584518,0.044325245,7.163071280e-05,7.007057340e-05,1,1,0.300827438,-0.000000479,0.000001285,-0.801303767,0.498162205,0.342340927,0.000011285,0.000027279,-0.886128838,0.532746775
0.475000,-0.000420000,-0.056584518,0.034888271,-0.310851000,-0.056584518,0.045102975,7.163071280e-05,7.260227207e-05,1,1,0.300827438,-0.000000479,0.000001285,-0.801303767,0.498162205,0.345695801,0.000012301,0.000029446,-0.892939851,0.535149926
0.477500,-0.000420000,-0.056584518,0.034888271,-0.310851000,-0.056584518,0.045905525,7.163071280e-05,7.506327202e-05,1,1,0.300827438,-0.000000479,0.000001285,-0.801303767,0.498162205,0.349136772,0.000013362,0.000031671,-0.899923637,0.537586037
0.480000,-0.000420000,-0.056584518,0.034888271,-0.310851000,-0.056584518,0.046732070,7.163071280e-05,7.745082599e-05,1,1,0.300827438,-0.000000479,0.000001285,-0.801303767,0.498162205,0.352658760,0.000014468,0.000033949,-0.907069738,0.540049519
0.482500,-0.000420000,-0.056584518,0.034888271,-0.310851000,-0.056584518,0.047581758,7.163071280e-05,7.976228833e-05,1,1,0.300827438,-0.000000479,0.000001285,-0.801303767,0.498162205,0.356256659,0.000015620,0.000036277,-0.914367653,0.542534913
0.485000,-0.000420000,-0.056584518,0.034888271,-0.310851000,-0.056584518,0.048453706,7.163071280e-05,8.199512018e-05,1,1,0.300827438,-0.000000479,0.000001285,-0.801303767,0.498162205,0.359925343,0.000016816,0.000038654,-0.921806848,0.545036898
0.487500,-0.000420000,-0.056584518,0.034888271,-0.310851000,-0.056584518,0.049347004,7.163071280e-05,8.414689298e-05,1,1,0.300827438,-0.000000479,0.000001285,-0.801303767,0.498162205,0.363659676,0.000018057,0.000041075,-0.929376780,0.547550305
0.490000,-0.000420000,-0.056584518,0.034888271,-0.310851000,-0.056584518,0.050260711,7.163071280e-05,8.621529079e-05,1,1,0.300827438,-0.000000479,0.000001285,-0.801303767,0.498162205,0.367454520,0.000019343,0.000043537,-0.937066909,0.550070133
0.492500,-0.000420000,-0.056584518,0.034888271,-0.310851000,-0.056584518,0.051193861,7.163071280e-05,8.819811117e-05,1,1,0.300827438,-0.000000479,0.000001285,-0.801303767,0.498162205,0.371304742,0.000020672,0.000046037,-0.944866719,0.552591551
0.495000,-0.000420000,-0.056584518,0.034888271,-0.310851000,-0.056584518,0.052145457,7.163071280e-05,9.009326567e-05,1,1,0.300827438,-0.000000479,0.000001285,-0.801303767,0.498162205,0.375205220,0.000022045,0.000048573,-0.952765726,0.555109912
0.497500,-0.000420000,-0.056584518,0.034888271,-0.310851000,-0.056584518,0.053114478,7.163071280e-05,9.189877951e-05,1,1,0.300827438,-0.000000479,0.000001285,-0.801303767,0.498162205,0.379150852,0.000023462,0.000051141,-0.960753497,0.557620759
0.500000,-0.000420000,-0.056584518,0.034888271,-0.310851000,-0.056584518,0.054099876,7.163071280e-05,9.361279094e-05,1,1,0.300827438,-0.000000479,0.000001285,-0.801303767,0.498162205,0.383136564,0.000024920,0.000053738,-0.968819662,0.560119824
0.502500,-0.000420000,-0.056584518,0.034888271,-0.310851000,-0.056584518,0.055100578,7.163071280e-05,9.523355028e-05,1,1,0.300827438,-0.000000479,0.000001285,-0.801303767,0.498162205,0.387157309,0.000026420,0.000056360,-0.976953924,0.562603041
0.505000,-0.000420000,-0.056584518,0.034888271,-0.310851000,-0.056584518,0.056115487,7.163071280e-05,9.675941917e-05,1,1,0.300827438,-0.000000479,0.000001285,-0.801303767,0.498162205,0.391208082,0.000027960,0.000059006,-0.985146072,0.565066541
0.507500,-0.000420000,-0.056584518,0.034888271,-0.310851000,-0.056584518,0.057143482,7.163071280e-05,9.818886907e-05,1,1,0.300827438,-0.000000479,0.000001285,-0.801303767,0.498162205,0.395283917,0.000029541,0.000061671,-0.993385992,0.567506656
0.510000,-0.000420000,-0.056584518,0.034888271,-0.310851000,-0.056584518,0.058183420,7.163071280e-05,9.952048026e-05,1,1,0.300827438,-0.000000479,0.000001285,-0.801303767,0.498162205,0.399379897,0.000031160,0.000064354,-1.001663674,0.569919918
0.512500,-0.000420000,-0.056584518,0.034888271,-0.310851000,-0.056584518,0.059234138,7.163071280e-05,5.263195335e-05,1,1,0.300827438,-0.000000479,0.000001285,-0.801303767,0.498162205,0.403693125,0.000032918,0.000067203,-1.010362885,0.572347545
0.515000,-0.000420000,-0.056584518,0.034888271,-0.310851000,-0.056584518,0.060294450,7.163071280e-05,9.838150509e-05,1,1,0.300827438,-0.000000479,0.000001285,-0.801303767,0.498162205,0.407640702,0.000034535,0.000069803,-1.018335678,0.574588812
0.517500,-0.000420000,-0.056584518,0.034888271,-0.310851000,-0.056584518,0.061363155,7.163071280e-05,5.402167536e-05,1,1,0.300827438,-0.000000479,0.000001285,-0.801303767,0.498162205,0.411957764,0.000036363,0.000072667,-1.027035471,0.576930335
0.520000,-0.000420000,-0.056584518,0.034888271,-0.310851000,-0.056584518,0.062439032,7.163071280e-05,5.332341085e-05,1,1,0.300827438,-0.000000479,0.000001285,-0.801303767,0.498162205,0.416106904,0.000038151,0.000075434,-1.035393113,0.579124897
0.522500,-0.000420000,-0.056584518,0.034888271,-0.310851000,-0.056584518,0.063520845,7.163071280e-05,5.390619796e-05,1,1,0.300827438,-0.000000479,0.000001285,-0.801303767,0.498162205,0.420247200,0.000039970,0.000078201,-1.043729528,0.581273479
0.525000,-0.000420000,-0.056584518,0.034888271,-0.310851000,-0.056584518,0.064607341,7.163071280e-05,5.448226569e-05,1,1,0.300827438,-0.000000479,0.000001285,-0.801303767,0.498162205,0.424379075,0.000041819,0.000080969,-1.052045441,0.583376930
0.527500,-0.000420000,-0.056584518,0.034888271,-0.310851000,-0.056584518,0.065697256,7.163071280e-05,5.501220444e-05,1,1,0.300827438,-0.000000479,0.000001285,-0.801303767,0.498162205,0.428498182,0.000043698,0.000083736,-1.060332063,0.585433286
0.530000,-0.000420000,-0.056584518,0.034888271,-0.310851000,-0.056584518,0.066789314,7.163071280e-05,5.549452996e-05,1,1,0.300827438,-0.000000479,0.000001285,-0.801303767,0.498162205,0.432600097,0.000045605,0.000086497,-1.068580462,0.587440675
0.532500,-0.000420000,-0.056584518,0.034888271,-0.310851000,-0.056584518,0.067882225,7.163071280e-05,5.592895966e-05,1,1,0.300827438,-0.000000479,0.000001285,-0.801303767,0.498162205,0.436680460,0.000047538,0.000089252,-1.076781852,0.589397398
0.535000,-0.000420000,-0.056584518,0.034888271,-0.310851000,-0.056584518,0.068974695,7.163071280e-05,5.631529934e-05,1,1,0.300827438,-0.000000479,0.000001285,-0.801303767,0.498162205,0.440734985,0.000049494,0.000091997,-1.084927602,0.591301930
0.537500,-0.000420000,-0.056584518,0.034888271,-0.310851000,-0.056584518,0.070065418,7.163071280e-05,5.665340859e-05,1,1,0.300827438,-0.000000479,0.000001285,-0.801303767,0.498162205,0.444759460,0.000051471,0.000094729,-1.093009240,0.593152908
0.540000,-0.000420000,-0.056584518,0.034888271,-0.310851000,-0.056584518,0.071153084,7.163071280e-05,5.694319819e-05,1,1,0.300827438,-0.000000479,0.000001285,-0.801303767,0.498162205,0.448749748,0.000053467,0.000097446,-1.101018454,0.594949125
0.542500,-0.000420000,-0.056584518,0.034888271,-0.310851000,-0.056584518,0.072236379,7.163071280e-05,5.718462926e-05,1,1,0.300827438,-0.000000479,0.000001285,-0.801303767,0.498162205,0.452701786,0.000055480,0.000100146,-1.108947093,0.596689525
0.545000,-0.000420000,-0.056584518,0.034888271,-0.310851000,-0.056584518,0.073313984,7.163071280e-05,5.737771191e-05,1,1,0.300827438,-0.000000479,0.000001285,-0.801303767,0.498162205,0.456611591,0.000057508,0.000102826,-1.116787172,0.598373193
0.547500,-0.000420000,-0.056584518,0.034888271,-0.310851000,-0.056584518,0.074384582,7.163071280e-05,6.721622813e-05,1,1,0.300827438,-0.000000479,0.000001285,-0.801303767,0.498162205,0.460527300,0.000059572,0.000105517,-1.124582517,0.599393502
0.550000,-0.000420000,-0.056584518,0.034888271,-0.310851000,-0.056584518,0.075446854,7.163071280e-05,5.984376483e-05,1,1,0.300827438,-0.000000479,0.000001285,-0.801303767,0.498162205,0.464606778,0.000061754,0.000108316,-1.132487001,0.599743408
0.552500,-0.000420000,-0.056584518,0.034888271,-0.310851000,-0.056584518,0.076499483,7.163071280e-05,6.030223532e-05,1,1,0.300827438,-0.000000479,0.000001285,-0.801303767,0.498162205,0.468631794,0.000063945,0.000111088,-1.140275357,0.599768589
0.555000,-0.000420000,-0.056584518,0.034888271,-0.310851000,-0.056584518,0.077541158,7.163071280e-05,6.030615066e-05,1,1,0.300827438,-0.000000479,0.000001285,-0.801303767,0.498162205,0.472590712,0.000066140,0.000113825,-1.147932531,0.599784256
0.557500,-0.000420000,-0.056584518,0.034888271,-0.310851000,-0.056584518,0.078570571,7.163071280e-05,6.023116577e-05,1,1,0.300827438,-0.000000479,0.000001285,-0.801303767,0.498162205,0.476476405,0.000068332,0.000116522,-1.155448091,0.599797954
0.560000,-0.000420000,-0.056584518,0.034888271,-0.310851000,-0.056584518,0.079586422,7.163071280e-05,6.010448912e-05,1,1,0.300827438,-0.000000479,0.000001285,-0.801303767,0.498162205,0.480285306,0.000070519,0.000119177,-1.162815348,0.599810249
0.562500,-0.000420000,-0.056584518,0.034888271,-0.310851000,-0.056584518,0.080587421,7.163071280e-05,5.992851227e-05,1,1,0.300827438,-0.000000479,0.000001285,-0.801303767,0.498162205,0.484014175,0.000072697,0.000121788,-1.170028025,0.599821225
0.565000,-0.000420000,-0.056584518,0.034888271,-0.310851000,-0.056584518,0.081572287,7.163071280e-05,5.970392353e-05,1,1,0.300827438,-0.000000479,0.000001285,-0.801303767,0.498162205,0.487659871,0.000074864,0.000124353,-1.177080025,0.599830929
0.567500,-0.000420000,-0.056584518,0.034888271,-0.310851000,-0.056584518,0.082539751,7.163071280e-05,5.943131986e-05,1,1,0.300827438,-0.000000479,0.000001285,-0.801303767,0.498162205,0.491219338,0.000077015,0.000126869,-1.183965413,0.599839403
0.570000,-0.000420000,-0.056584518,0.034888271,-0.310851000,-0.056584518,0.083488559,7.163071280e-05,5.911131754e-05,1,1,0.300827438,-0.000000479,0.000001285,-0.801303767,0.498162205,0.494689602,0.000079147,0.000129336,-1.190678414,0.599846689
0.572500,-0.000420000,-0.056584518,0.034888271,-0.310851000,-0.056584518,0.084417473,7.163071280e-05,5.874455996e-05,1,1,0.300827438,-0.000000479,0.000001285,-0.801303767,0.498162205,0.498067772,0.000081257,0.000131750,-1.197213408,0.599852828
0.575000,-0.000420000,-0.056584518,0.034888271,-0.310851000,-0.056584518,0.085325272,7.163071280e-05,5.833171806e-05,1,1,0.300827438,-0.000000479,0.000001285,-0.801303767,0.498162205,0.501351036,0.000083341,0.000134110,-1.203564933,0.599857855
0.577500,-0.000420000,-0.056584518,0.034888271,-0.310851000,-0.056584518,0.086210752,7.163071280e-05,9.873456634e-05,1,1,0.300827438,-0.000000479,0.000001285,-0.801303767,0.498162205,0.504391522,0.000085252,0.000136240,-1.209457028,0.599785380
0.580000,-0.000420000,-0.056584518,0.034888271,-0.310851000,-0.056584518,0.087072731,7.163071280e-05,9.982588375e-05,1,1,0.300827438,-0.000000479,0.000001285,-0.801303767,0.498162205,0.507470212,0.000087214,0.000138396,-1.215414623,0.599797169
0.582500,-0.000420000,-0.056584518,0.034888271,-0.310851000,-0.056584518,0.087910052,7.163071280e-05,9.830582457e-05,1,1,0.300827438,-0.000000479,0.000001285,-0.801303767,0.498162205,0.510457612,0.000089146,0.000140499,-1.221193214,0.599794956
0.585000,-0.000420000,-0.056584518,0.034888271,-0.310851000,-0.056584518,0.088721577,7.163071280e-05,9.644766977e-05,1,1,0.300827438,-0.000000479,0.000001285,-0.801303767,0.498162205,0.513341008,0.000091040,0.000142544,-1.226770006,0.599790808
0.587500,-0.000420000,-0.056584518,0.034888271,-0.310851000,-0.056584518,0.089506197,7.163071280e-05,9.447521761e-05,1,1,0.300827438,-0.000000479,0.000001285,-0.801303767,0.498162205,0.516116812,0.000092891,0.000144526,-1.232138623,0.599785962
0.590000,-0.000420000,-0.056584518,0.034888271,-0.310851000,-0.056584518,0.090262829,7.163071280e-05,9.241241557e-05,1,1,0.300827438,-0.000000479,0.000001285,-0.801303767,0.498162205,0.518782562,0.000094696,0.000146444,-1.237294362,0.599780557
0.592500,-0.000420000,-0.056584518,0.034888271,-0.310851000,-0.056584518,0.090990420,7.163071280e-05,9.026356735e-05,1,1,0.300827438,-0.000000479,0.000001285,-0.801303767,0.498162205,0.521335986,0.000096451,0.000148297,-1.242232817,0.599774621
0.595000,-0.000420000,-0.056584518,0.034888271,-0.310851000,-0.056584518,0.091687945,7.163071280e-05,8.803110057e-05,1,1,0.300827438,-0.000000479,0.000001285,-0.801303767,0.498162205,0.523774902,0.000098152,0.000150083,-1.246949748,0.599768167
0.597500,-0.000420000,-0.056584518,0.034888271,-0.310851000,-0.056584518,0.092354413,7.163071280e-05,8.571732924e-05,1,1,0.300827438,-0.000000479,0.000001285,-0.801303767,0.498162205,0.526097211,0.000099797,0.000151801,-1.251441069,0.599761208
0.600000,-0.000420000,-0.056584518,0.034888271,-0.310851000,-0.056584518,0.092988864,7.163071280e-05,8.332462855e-05,1,1,0.300827438,-0.000000479,0.000001285,-0.801303767,0.498162205,0.528300888,0.000101382,0.000153448,-1.255702846,0.599753754
0.602500,-0.000420000,-0.056584518,0.034888271,-0.310851000,-0.056584518,0.093590376,7.163071280e-05,8.085545218e-05,1,1,0.300827438,-0.000000479,0.000001285,-0.801303767,0.498162205,0.530383991,0.000102903,0.000155023,-1.259731298,0.599745817
0.605000,-0.000420000,-0.056584518,0.034888271,-0.310851000,-0.056584518,0.094158060,7.163071280e-05,7.831233350e-05,1,1,0.300827438,-0.000000479,0.000001285,-0.801303767,0.498162205,0.532344654,0.000104359,0.000156525,-1.263522798,0.599737403
0.607500,-0.000420000,-0.056584518,0.034888271,-0.310851000,-0.056584518,0.094691068,7.163071280e-05,7.569788537e-05,1,1,0.300827438,-0.000000479,0.000001285,-0.801303767,0.498162205,0.534181091,0.000105745,0.000157952,-1.267073874,0.599728521
0.610000,-0.000420000,-0.056584518,0.034888271,-0.310851000,-0.056584518,0.095188587,7.163071280e-05,7.301479971e-05,1,1,0.300827438,-0.000000479,0.000001285,-0.801303767,0.498162205,0.535891596,0.000107059,0.000159303,-1.270381205,0.599719176
0.612500,-0.000420000,-0.056584518,0.034888271,-0.310851000,-0.056584518,0.095649847,7.163071280e-05,7.026584760e-05,1,1,0.300827438,-0.000000479,0.000001285,-0.801303767,0.498162205,0.537474542,0.000108297,0.000160576,-1.273441629,0.599709374
0.615000,-0.000420000,-0.056584518,0.034888271,-0.310851000,-0.056584518,0.096074119,7.163071280e-05,6.745387938e-05,1,1,0.300827438,-0.000000479,0.000001285,-0.801303767,0.498162205,0.538928383,0.000109458,0.000161771,-1.276252139,0.599699119
0.617500,-0.000420000,-0.056584518,0.034888271,-0.310851000,-0.056584518,0.096460717,7.163071280e-05,6.458182538e-05,1,1,0.300827438,-0.000000479,0.000001285,-0.801303767,0.498162205,0.540251654,0.000110537,0.000162884,-1.278809886,0.599688412
0.620000,-0.000420000,-0.056584518,0.034888271,-0.310851000,-0.056584518,0.096808999,7.163071280e-05,6.165269771e-05,1,1,0.300827438,-0.000000479,0.000001285,-0.801303767,0.498162205,0.541442969,0.000111534,0.000163916,-1.281112179,0.599677257
0.622500,-0.000420000,-0.056584518,0.034888271,-0.310851000,-0.056584518,0.097118367,7.163071280e-05,9.631828954e-05,1,1,0.300827438,-0.000000479,0.000001285,-0.801303767,0.498162205,0.542383786,0.000112293,0.000164691,-1.282934225,0.599514619
0.625000,-0.000420000,-0.056584518,0.034888271,-0.310851000,-0.056584518,0.097388271,7.163071280e-05,9.097725919e-05,1,1,0.300827438,-0.000000479,0.000001285,-0.801303767,0.498162205,0.543242541,0.000113003,0.000165415,-1.284659723,0.600000000
0.627500,-0.000420000,-0.056584518,0.034888271,-0.310851000,-0.056584518,0.097618207,7.163071280e-05,8.329543522e-05,1,1,0.300827438,-0.000000479,0.000001285,-0.801303767,0.498162205,0.544083048,0.000113702,0.000166127,-1.286239585,0.599781425
0.630000,-0.000420000,-0.056584518,0.034888271,-0.310851000,-0.056584518,0.097807720,7.163071280e-05,8.070676725e-05,1,1,0.300827438,-0.000000479,0.000001285,-0.801303767,0.498162205,0.544762922,0.000114296,0.000166742,-1.287538452,0.599499611
0.632500,-0.000420000,-0.056584518,0.034888271,-0.310851000,-0.056584518,0.097956404,7.163071280e-05,6.558605090e-05,1,1,0.300827438,-0.000000479,0.000001285,-0.801303767,0.498162205,0.545261763,0.000114770,0.000167245,-1.288536507,0.599929839
0.635000,-0.000420000,-0.056584518,0.034888271,-0.310851000,-0.056584518,0.098063903,7.163071280e-05,9.356118424e-05,1,1,0.300827438,-0.000000479,0.000001285,-0.801303767,0.498162205,0.545506913,0.000115003,0.000167494,-1.289045270,0.600000000
0.637500,-0.000420000,-0.056584518,0.034888271,-0.310851000,-0.056584518,0.098129911,7.163071280e-05,9.127619622e-05,1,1,0.300827438,-0.000000479,0.000001285,-0.801303767,0.498162205,0.545806804,0.000115272,0.000167776,-1.289562898,0.599511718
0.640000,-0.000420000,-0.056584518,0.034888271,-0.310851000,-0.056584518,0.098154176,7.163071280e-05,6.655240988e-05,1,1,0.300827438,-0.000000479,0.000001285,-0.801303767,0.498162205,0.545957956,0.000115444,0.000167967,-1.289852502,0.599684258
0.642500,-0.000420000,-0.056584518,0.034888271,-0.310851000,-0.056584518,0.098136496,7.163071280e-05,4.926352752e-05,1,1,0.300827438,-0.000000479,0.000001285,-0.801303767,0.498162205,0.545957956,0.000115444,0.000167967,-1.289852502,0.599684258
0.645000,-0.000420000,-0.056584518,0.034888271,-0.310851000,-0.056584518,0.098076724,7.163071280e-05,1.693565783e-05,1,1,0.300827438,-0.000000479,0.000001285,-0.801303767,0.498162205,0.545957956,0.000115444,0.000167967,-1.289852502,0.599684258
0.647500,-0.000420000,-0.056584518,0.034888271,-0.310851000,-0.056584518,0.097974765,7.163071280e-05,2.927384391e-05,1,1,0.300827438,-0.000000479,0.000001285,-0.801303767,0.498162205,0.545681547,0.000115333,0.000167900,-1.289298502,0.599667818
0.650000,-0.000420000,-0.056584518,0.034888271,-0.310851000,-0.056584518,0.097830580,7.163071280e-05,5.264168662e-05,1,1,0.300827438,-0.000000479,0.000001285,-0.801303767,0.498162205,0.545292838,0.000115144,0.000167765,-1.288527114,0.599602189
0.652500,-0.000420000,-0.056584518,0.034888271,-0.310851000,-0.056584518,0.097644183,7.163071280e-05,7.983302480e-05,1,1,0.300827438,-0.000000479,0.000001285,-0.801303767,0.498162205,0.544780075,0.000114872,0.000167554,-1.287509036,0.599481518
0.655000,-0.000420000,-0.056584518,0.034888271,-0.310851000,-0.056584518,0.097415643,7.163071280e-05,2.648002738e-05,1,1,0.300827438,-0.000000479,0.000001285,-0.801303767,0.498162205,0.543862523,0.000114390,0.000167193,-1.285696749,0.599289332
0.657500,-0.000420000,-0.056584518,0.034888271,-0.310851000,-0.056584518,0.097145086,7.163071280e-05,2.459703120e-05,1,1,0.300827438,-0.000000479,0.000001285,-0.801303767,0.498162205,0.542973945,0.000113923,0.000166840,-1.283943807,0.599109491
0.660000,-0.000420000,-0.056584518,0.034888271,-0.310851000,-0.056584518,0.096832692,7.163071280e-05,3.133270265e-05,1,1,0.300827438,-0.000000479,0.000001285,-0.801303767,0.498162205,0.541980531,0.000113383,0.000166416,-1.281979064,0.598882027
0.662500,-0.000420000,-0.056584518,0.034888271,-0.310851000,-0.056584518,0.096478698,7.163071280e-05,3.957088396e-05,1,1,0.300827438,-0.000000479,0.000001285,-0.801303767,0.498162205,0.540859417,0.000112755,0.000165907,-1.279756608,0.598596953
0.665000,-0.000420000,-0.056584518,0.034888271,-0.310851000,-0.056584518,0.096083396,7.163071280e-05,4.805968829e-05,1,1,0.300827438,-0.000000479,0.000001285,-0.801303767,0.498162205,0.539606847,0.000112037,0.000165309,-1.277269048,0.598252816
0.667500,-0.000420000,-0.056584518,0.034888271,-0.310851000,-0.056584518,0.095647136,7.163071280e-05,5.656422449e-05,1,1,0.300827438,-0.000000479,0.000001285,-0.801303767,0.498162205,0.538222435,0.000111229,0.000164623,-1.274515728,0.597849609
0.670000,-0.000420000,-0.056584518,0.034888271,-0.310851000,-0.056584518,0.095170320,7.163071280e-05,6.503003844e-05,1,1,0.300827438,-0.000000479,0.000001285,-0.801303767,0.498162205,0.536706457,0.000110332,0.000163848,-1.271497321,0.597387558
0.672500,-0.000420000,-0.056584518,0.034888271,-0.310851000,-0.056584518,0.094653411,7.163071280e-05,7.343591841e-05,1,1,0.300827438,-0.000000479,0.000001285,-0.801303767,0.498162205,0.535059399,0.000109347,0.000162983,-1.268214906,0.596866918
0.675000,-0.000420000,-0.056584518,0.034888271,-0.310851000,-0.056584518,0.094096924,7.163071280e-05,8.176753965e-05,1,1,0.300827438,-0.000000479,0.000001285,-0.801303767,0.498162205,0.533281874,0.000108275,0.000162028,-1.264669820,0.596287931
0.677500,-0.000420000,-0.056584518,0.034888271,-0.310851000,-0.056584518,0.093501432,7.163071280e-05,9.001243595e-05,1,1,0.300827438,-0.000000479,0.000001285,-0.801303767,0.498162205,0.531374610,0.000107119,0.000160983,-1.260863629,0.595650831
0.680000,-0.000420000,-0.056584518,0.034888271,-0.310851000,-0.056584518,0.092867562,7.163071280e-05,9.815887709e-05,1,1,0.300827438,-0.000000479,0.000001285,-0.801303767,0.498162205,0.529338454,0.000105879,0.000159849,-1.256798128,0.594955832
0.682500,-0.000420000,-0.056584518,0.034888271,-0.310851000,-0.056584518,0.092195998,7.163071280e-05,2.635731327e-05,1,1,0.300827438,-0.000000479,0.000001285,-0.801303767,0.498162205,0.526896069,0.000104403,0.000158498,-1.251939290,0.594199064
0.685000,-0.000420000,-0.056584518,0.034888271,-0.310851000,-0.056584518,0.091487476,7.163071280e-05,2.414029621e-05,1,1,0.300827438,-0.000000479,0.000001285,-0.801303767,0.498162205,0.524551571,0.000102990,0.000157182,-1.247276589,0.593487726
0.687500,-0.000420000,-0.056584518,0.034888271,-0.310851000,-0.056584518,0.090742787,7.163071280e-05,2.671857924e-05,1,1,0.300827438,-0.000000479,0.000001285,-0.801303767,0.498162205,0.522097663,0.000101508,0.000155780,-1.242393460,0.592725762
0.690000,-0.000420000,-0.056584518,0.034888271,-0.310851000,-0.056584518,0.089962779,7.163071280e-05,2.960634524e-05,1,1,0.300827438,-0.000000479,0.000001285,-0.801303767,0.498162205,0.519520746,0.000099948,0.000154283,-1.237262961,0.591906627
0.692500,-0.000420000,-0.056584518,0.034888271,-0.310851000,-0.056584518,0.089148347,7.163071280e-05,3.248080523e-05,1,1,0.300827438,-0.000000479,0.000001285,-0.801303767,0.498162205,0.516821195,0.000098313,0.000152691,-1.231885982,0.591030145
0.695000,-0.000420000,-0.056584518,0.034888271,-0.310851000,-0.056584518,0.088300444,7.163071280e-05,3.531348047e-05,1,1,0.300827438,-0.000000479,0.000001285,-0.801303767,0.498162205,0.514000509,0.000096605,0.000151004,-1.226265629,0.590096571
0.697500,-0.000420000,-0.056584518,0.034888271,-0.310851000,-0.056584518,0.087420072,7.163071280e-05,3.809749691e-05,1,1,0.300827438,-0.000000479,0.000001285,-0.801303767,0.498162205,0.511060393,0.000094829,0.000149224,-1.220405410,0.589106172
0.700000,-0.000420000,-0.056584518,0.034888271,-0.310851000,-0.056584518,0.086508285,7.163071280e-05,4.082799992e-05,1,1,0.300827438,-0.000000479,0.000001285,-0.801303767,0.498162205,0.508002699,0.000092988,0.000147352,-1.214309115,0.588059194
0.702500,-0.000420000,-0.056584518,0.034888271,-0.310851000,-0.056584518,0.085566186,7.163071280e-05,4.350061596e-05,1,1,0.300827438,-0.000000479,0.000001285,-0.801303767,0.498162205,0.504829422,0.000091084,0.000145388,-1.207980814,0.586955871
0.705000,-0.000420000,-0.056584518,0.034888271,-0.310851000,-0.056584518,0.084594927,7.163071280e-05,4.611125057e-05,1,1,0.300827438,-0.000000479,0.000001285,-0.801303767,0.498162205,0.501542703,0.000089122,0.000143335,-1.201424861,0.585796420
0.707500,-0.000420000,-0.056584518,0.034888271,-0.310851000,-0.056584518,0.083595711,7.163071280e-05,4.865601454e-05,1,1,0.300827438,-0.000000479,0.000001285,-0.801303767,0.498162205,0.498144836,0.000087105,0.000141192,-1.194645904,0.584581050
0.710000,-0.000420000,-0.056584518,0.034888271,-0.310851000,-0.056584518,0.082569784,7.163071280e-05,5.113117964e-05,1,1,0.300827438,-0.000000479,0.000001285,-0.801303767,0.498162205,0.494638271,0.000085037,0.000138963,-1.187648893,0.583309962
0.712500,-0.000420000,-0.056584518,0.034888271,-0.310851000,-0.056584518,0.081518442,7.163071280e-05,5.353314858e-05,1,1,0.300827438,-0.000000479,0.000001285,-0.801303767,0.498162205,0.491025615,0.000082923,0.000136648,-1.180439088,0.581983360
0.715000,-0.000420000,-0.056584518,0.034888271,-0.310851000,-0.056584518,0.080443024,7.163071280e-05,5.585843359e-05,1,1,0.300827438,-0.000000479,0.000001285,-0.801303767,0.498162205,0.487309643,0.000080765,0.000134250,-1.173022068,0.580601451
0.717500,-0.000420000,-0.056584518,0.034888271,-0.310851000,-0.056584518,0.079344914,7.163071280e-05,5.810364130e-05,1,1,0.300827438,-0.000000479,0.000001285,-0.801303767,0.498162205,0.483493299,0.000078570,0.000131771,-1.165403743,0.579164452
0.720000,-0.000420000,-0.056584518,0.034888271,-0.310851000,-0.056584518,0.078225536,7.163071280e-05,6.026546064e-05,1,1,0.300827438,-0.000000479,0.000001285,-0.801303767,0.498162205,0.479579700,0.000076340,0.000129212,-1.157590365,0.577672598
0.722500,-0.000420000,-0.056584518,0.034888271,-0.310851000,-0.056584518,0.077086360,7.163071280e-05,6.234065356e-05,1,1,0.300827438,-0.000000479,0.000001285,-0.801303767,0.498162205,0.475572145,0.000074080,0.000126577,-1.149588535,0.576126149
0.725000,-0.000420000,-0.056584518,0.034888271,-0.310851000,-0.056584518,0.075928891,7.163071280e-05,6.432604666e-05,1,1,0.300827438,-0.000000479,0.000001285,-0.801303767,0.498162205,0.471474123,0.000071794,0.000123868,-1.141405223,0.574525398
0.727500,-0.000420000,-0.056584518,0.034888271,-0.310851000,-0.056584518,0.074754677,7.163071280e-05,6.621852398e-05,1,1,0.300827438,-0.000000479,0.000001285,-0.801303767,0.498162205,0.467289312,0.000069487,0.000121087,-1.133047772,0.572870680
0.730000,-0.000420000,-0.056584518,0.034888271,-0.310851000,-0.056584518,0.073565301,7.163071280e-05,6.801501949e-05,1,1,0.300827438,-0.000000479,0.000001285,-0.801303767,0.498162205,0.463021592,0.000067164,0.000118237,-1.124523919,0.571162381
0.732500,-0.000420000,-0.056584518,0.034888271,-0.310851000,-0.056584518,0.072362383,7.163071280e-05,6.971251045e-05,1,1,0.300827438,-0.000000479,0.000001285,-0.801303767,0.498162205,0.458675051,0.000064828,0.000115323,-1.115841805,0.569400952
0.735000,-0.000420000,-0.056584518,0.034888271,-0.310851000,-0.056584518,0.071147576,7.163071280e-05,7.130800934e-05,1,1,0.300827438,-0.000000479,0.000001285,-0.801303767,0.498162205,0.454253990,0.000062484,0.000112346,-1.107009994,0.567586918
0.737500,-0.000420000,-0.056584518,0.034888271,-0.310851000,-0.056584518,0.069922567,7.163071280e-05,7.279855654e-05,1,1,0.300827438,-0.000000479,0.000001285,-0.801303767,0.498162205,0.449762933,0.000060137,0.000109310,-1.098037486,0.565720891
0.740000,-0.000420000,-0.056584518,0.034888271,-0.310851000,-0.056584518,0.068689076,7.163071280e-05,7.418121080e-05,1,1,0.300827438,-0.000000479,0.000001285,-0.801303767,0.498162205,0.445206635,0.000057791,0.000106219,-1.088933735,0.563803587
0.742500,-0.000420000,-0.056584518,0.034888271,-0.310851000,-0.056584518,0.067448851,7.163071280e-05,7.545304056e-05,1,1,0.300827438,-0.000000479,0.000001285,-0.801303767,0.498162205,0.440590090,0.000055450,0.000103078,-1.079708667,0.561835842
0.745000,-0.000420000,-0.056584518,0.034888271,-0.310851000,-0.056584518,0.066203669,7.163071280e-05,7.661111327e-05,1,1,0.300827438,-0.000000479,0.000001285,-0.801303767,0.498162205,0.435918539,0.000053118,0.000099889,-1.070372699,0.559818624
0.747500,-0.000420000,-0.056584518,0.034888271,-0.310851000,-0.056584518,0.064955335,7.163071280e-05,7.765248366e-05,1,1,0.300827438,-0.000000479,0.000001285,-0.801303767,0.498162205,0.431197482,0.000050801,0.000096658,-1.060936757,0.557753059
0.750000,-0.000420000,-0.056584518,0.034888271,-0.310851000,-0.056584518,0.063705678,7.163071280e-05,7.857418161e-05,1,1,0.300827438,-0.000000479,0.000001285,-0.801303767,0.498162205,0.426432683,0.000048501,0.000093388,-1.051412296,0.555640445
0.752500,-0.000420000,-0.056584518,0.034888271,-0.310851000,-0.056584518,0.062456553,7.163071280e-05,7.937319846e-05,1,1,0.300827438,-0.000000479,0.000001285,-0.801303767,0.498162205,0.421630184,0.000046224,0.000090085,-1.041811321,0.553482278
0.755000,-0.000420000,-0.056584518,0.034888271,-0.310851000,-0.056584518,0.061209837,7.163071280e-05,8.004647157e-05,1,1,0.300827438,-0.000000479,0.000001285,-0.801303767,0.498162205,0.416796312,0.000043973,0.000086753,-1.032146410,0.551280270
0.757500,-0.000420000,-0.056584518,0.034888271,-0.310851000,-0.056584518,0.059967426,7.163071280e-05,8.059086870e-05,1,1,0.300827438,-0.000000479,0.000001285,-0.801303767,0.498162205,0.411937689,0.000041752,0.000083397,-1.022430732,0.549036381
0.760000,-0.000420000,-0.056584518,0.034888271,-0.310851000,-0.056584518,0.058731240,7.163071280e-05,8.100317041e-05,1,1,0.300827438,-0.000000479,0.000001285,-0.801303767,0.498162205,0.407061246,0.000039564,0.000080023,-1.012678069,0.546752840
0.762500,-0.000420000,-0.056584518,0.034888271,-0.310851000,-0.056584518,0.057503212,7.163071280e-05,8.128005078e-05,1,1,0.300827438,-0.000000479,0.000001285,-0.801303767,0.498162205,0.402174225,0.000037414,0.000076636,-1.002902842,0.544432176
0.765000,-0.000420000,-0.056584518,0.034888271,-0.310851000,-0.056584518,0.056285298,7.163071280e-05,8.141805789e-05,1,1,0.300827438,-0.000000479,0.000001285,-0.801303767,0.498162205,0.397284198,0.000035305,0.000073243,-0.993120129,0.542077247
0.767500,-0.000420000,-0.056584518,0.034888271,-0.310851000,-0.056584518,0.055079465,7.163071280e-05,8.141359208e-05,1,1,0.300827438,-0.000000479,0.000001285,-0.801303767,0.498162205,0.392399070,0.000033239,0.000069848,-0.983345687,0.539691270
0.770000,-0.000420000,-0.056584518,0.034888271,-0.310851000,-0.056584518,0.053887698,7.163071280e-05,8.126288377e-05,1,1,0.300827438,-0.000000479,0.000001285,-0.801303767,0.498162205,0.387527091,0.000031221,0.000066457,-0.973595975,0.537277857
0.772500,-0.000420000,-0.056584518,0.034888271,-0.310851000,-0.056584518,0.052711995,7.163071280e-05,8.096196881e-05,1,1,0.300827438,-0.000000479,0.000001285,-0.801303767,0.498162205,0.382676864,0.000029253,0.000063079,-0.963888174,0.534841045
0.775000,-0.000420000,-0.056584518,0.034888271,-0.310851000,-0.056584518,0.051554367,7.163071280e-05,8.050666414e-05,1,1,0.300827438,-0.000000479,0.000001285,-0.801303767,0.498162205,0.377857357,0.000027339,0.000059718,-0.954240206,0.532385333
0.777500,-0.000420000,-0.056584518,0.034888271,-0.310851000,-0.056584518,0.050416837,7.163071280e-05,7.989254124e-05,1,1,0.300827438,-0.000000479,0.000001285,-0.801303767,0.498162205,0.373077904,0.000025480,0.000056382,-0.944670753,0.529915719
0.780000,-0.000420000,-0.056584518,0.034888271,-0.310851000,-0.056584518,0.049301441,7.163071280e-05,7.911489856e-05,1,1,0.300827438,-0.000000479,0.000001285,-0.801303767,0.498162205,0.368348216,0.000023679,0.000053078,-0.935199274,0.527437731
0.782500,-0.000420000,-0.056584518,0.034888271,-0.310851000,-0.056584518,0.048210226,7.163071280e-05,7.816873311e-05,1,1,0.300827438,-0.000000479,0.000001285,-0.801303767,0.498162205,0.363678390,0.000021939,0.000049812,-0.925846022,0.524957468
0.785000,-0.000420000,-0.056584518,0.034888271,-0.310851000,-0.056584518,0.047145254,7.163071280e-05,7.704870898e-05,1,1,0.300827438,-0.000000479,0.000001285,-0.801303767,0.498162205,0.359078908,0.000020261,0.000046593,-0.916632056,0.522481630
0.787500,-0.000420000,-0.056584518,0.034888271,-0.310851000,-0.056584518,0.046108596,7.163071280e-05,7.574912493e-05,1,1,0.300827438,-0.000000479,0.000001285,-0.801303767,0.498162205,0.354560644,0.000018648,0.000043429,-0.907579253,0.520017556
0.790000,-0.000420000,-0.056584518,0.034888271,-0.310851000,-0.056584518,0.045102341,7.163071280e-05,7.426387836e-05,1,1,0.300827438,-0.000000479,0.000001285,-0.801303767,0.498162205,0.350134869,0.000017102,0.000040326,-0.898710324,0.517573254
0.792500,-0.000420000,-0.056584518,0.034888271,-0.310851000,-0.056584518,0.044128591,7.163071280e-05,7.258642409e-05,1,1,0.300827438,-0.000000479,0.000001285,-0.801303767,0.498162205,0.345813254,0.000015623,0.000037293,-0.890048814,0.515157431
0.795000,-0.000420000,-0.056584518,0.034888271,-0.310851000,-0.056584518,0.043189468,7.163071280e-05,7.070972602e-05,1,1,0.300827438,-0.000000479,0.000001285,-0.801303767,0.498162205,0.341607869,0.000014213,0.000034339,-0.881619120,0.512779519
0.797500,-0.000420000,-0.056584518,0.034888271,-0.310851000,-0.056584518,0.042287117,7.163071280e-05,6.862619874e-05,1,1,0.300827438,-0.000000479,0.000001285,-0.801303767,0.498162205,0.337531190,0.000012875,0.000031472,-0.873446496,0.510449700
0.800000,-0.000420000,-0.056584518,0.034888271,-0.310851000,-0.056584518,0.041423708,7.163071280e-05,6.632763030e-05,1,1,0.300827438,-0.000000479,0.000001285,-0.801303767,0.498162205,0.333596103,0.000011608,0.000028700,-0.865557068,0.508178925
0.802500,-0.000420000,-0.056584518,0.034888271,-0.310851000,-0.056584518,0.040601448,7.163071280e-05,6.380508230e-05,1,1,0.300827438,-0.000000479,0.000001285,-0.801303767,0.498162205,0.329815911,0.000010414,0.000026033,-0.857977852,0.505978931
0.805000,-0.000420000,-0.056584518,0.034888271,-0.310851000,-0.056584518,0.039822584,7.163071280e-05,6.104874748e-05,1,1,0.300827438,-0.000000479,0.000001285,-0.801303767,0.498162205,0.326204349,0.000009293,0.000023479,-0.850736781,0.503862253
0.807500,-0.000420000,-0.056584518,0.034888271,-0.310851000,-0.056584518,0.039089420,7.163071280e-05,5.804774857e-05,1,1,0.300827438,-0.000000479,0.000001285,-0.801303767,0.498162205,0.322775604,0.000008247,0.000021049,-0.843862757,0.501842237
0.810000,-0.000420000,-0.056584518,0.034888271,-0.310851000,-0.056584518,0.038404333,7.163071280e-05,5.478984083e-05,1,1,0.300827438,-0.000000479,0.000001285,-0.801303767,0.498162205,0.319544355,0.000007277,0.000018751,-0.837385722,0.499933053
0.812500,-0.000420000,-0.056584518,0.034888271,-0.310851000,-0.056584518,0.037769792,7.163071280e-05,5.126096194e-05,1,1,0.300827438,-0.000000479,0.000001285,-0.801303767,0.498162205,0.316525832,0.000006383,0.000016597,-0.831336782,0.498149719
0.815000,-0.000420000,-0.056584518,0.034888271,-0.310851000,-0.056584518,0.037188395,7.163071280e-05,4.744453187e-05,1,1,0.300827438,-0.000000479,0.000001285,-0.801303767,0.498162205,0.313735912,0.000005567,0.000014595,-0.825748406,0.496508138
0.817500,-0.000420000,-0.056584518,0.034888271,-0.310851000,-0.056584518,0.036662911,7.163071280e-05,4.332032451e-05,1,1,0.300827438,-0.000000479,0.000001285,-0.801303767,0.498162205,0.311191279,0.000004829,0.000012758,-0.820654738,0.495025176
0.820000,-0.000420000,-0.056584518,0.034888271,-0.310851000,-0.056584518,0.036196358,7.163071280e-05,9.252630463e-05,1,1,0.300827438,-0.000000479,0.000001285,-0.801303767,0.498162205,0.309191605,0.000004273,0.000011339,-0.816638275,0.493779241
0.822500,-0.000420000,-0.056584518,0.034888271,-0.310851000,-0.056584518,0.035792104,7.163071280e-05,9.055556240e-05,1,1,0.300827438,-0.000000479,0.000001285,-0.801303767,0.498162205,0.307236195,0.000003731,0.000009953,-0.812711818,0.492552693
0.825000,-0.000420000,-0.056584518,0.034888271,-0.310851000,-0.056584518,0.035454072,7.163071280e-05,7.835792283e-05,1,1,0.300827438,-0.000000479,0.000001285,-0.801303767,0.498162205,0.305536537,0.000003258,0.000008736,-0.809304480,0.491514355
0.827500,-0.000420000,-0.056584518,0.034888271,-0.310851000,-0.056584518,0.035187096,7.163071280e-05,6.329635466e-05,1,1,0.300827438,-0.000000479,0.000001285,-0.801303767,0.498162205,0.304152974,0.000002868,0.000007724,-0.806538608,0.490715396
0.830000,-0.000420000,-0.056584518,0.034888271,-0.310851000,-0.056584518,0.034997775,7.163071280e-05,4.640298237e-05,1,1,0.300827438,-0.000000479,0.000001285,-0.801303767,0.498162205,0.303124194,0.000002568,0.000006943,-0.804492976,0.490190079
0.832500,-0.000420000,-0.056584518,0.034888271,-0.310851000,-0.056584518,0.034897331,7.163071280e-05,6.299440973e-05,1,1,0.300827438,-0.000000479,0.000001285,-0.801303767,0.498162205,0.302700549,0.000002443,0.000006612,-0.803653830,0.489996720
0.835000,-0.000420000,-0.056584518,0.034919912,-0.310851000,-0.056584518,0.034888271,3.999355390e-05,7.205315314e-05,1,1,0.300827438,-0.000000479,0.000001285,-0.801303767,0.498162205,0.302700549,0.000002443,0.000006612,-0.803653830,0.489996720
0.837500,-0.000420000,-0.056584518,0.035053363,-0.310851000,-0.056584518,0.034888271,9.346878459e-05,7.205315314e-05,1,1,0.300827438,-0.000000479,0.000001285,-0.801303767,0.498162205,0.302700549,0.000002443,0.000006612,-0.803653830,0.489996720
0.840000,-0.000420000,-0.056584518,0.035273959,-0.310851000,-0.056584518,0.034888271,5.798271738e-05,7.205315314e-05,1,1,0.302018428,-0.000000739,0.000002039,-0.803744155,0.499200606,0.302700549,0.000002443,0.000006612,-0.803653830,0.489996720
0.842500,-0.000420000,-0.056584518,0.035574041,-0.310851000,-0.056584518,0.034888271,6.624984909e-05,7.205315314e-05,1,1,0.303376560,-0.000001054,0.000002896,-0.806520243,0.500369519,0.302700549,0.000002443,0.000006612,-0.803653830,0.489996720
0.845000,-0.000420000,-0.056584518,0.035948996,-0.310851000,-0.056584518,0.034888271,8.169416120e-05,7.205315314e-05,1,1,0.305047566,-0.000001448,0.000003955,-0.809932718,0.501787086,0.302700549,0.000002443,0.000006612,-0.803653830,0.489996720
0.847500,-0.000420000,-0.056584518,0.036395518,-0.310851000,-0.056584518,0.034888271,9.783840923e-05,7.205315314e-05,1,1,0.307042773,-0.000001926,0.000005222,-0.814004731,0.503459031,0.302700549,0.000002443,0.000006612,-0.803653830,0.489996720
0.850000,-0.000420000,-0.056584518,0.036911002,-0.310851000,-0.056584518,0.034888271,4.975806017e-05,7.205315314e-05,1,1,0.309643270,-0.000002566,0.000006868,-0.819309245,0.505631012,0.302700549,0.000002443,0.000006612,-0.803653830,0.489996720
0.852500,-0.000420000,-0.056584518,0.037493257,-0.310851000,-0.056584518,0.034888271,5.161150804e-05,7.205315314e-05,1,1,0.312307057,-0.000003228,0.000008557,-0.824742976,0.507834403,0.302700549,0.000002443,0.000006612,-0.803653830,0.489996720
0.855000,-0.000420000,-0.056584518,0.038140355,-0.310851000,-0.056584518,0.034888271,5.721277223e-05,7.205315314e-05,1,1,0.315236348,-0.000003967,0.000010419,-0.830715947,0.510227549,0.302700549,0.000002443,0.000006612,-0.803653830,0.489996720
0.857500,-0.000420000,-0.056584518,0.038850538,-0.310851000,-0.056584518,0.034888271,6.296996116e-05,7.205315314e-05,1,1,0.318434998,-0.000004791,0.000012455,-0.837235296,0.512807938,0.302700549,0.000002443,0.000006612,-0.803653830,0.489996720
0.860000,-0.000420000,-0.056584518,0.039622160,-0.310851000,-0.056584518,0.034888271,6.860820925e-05,7.205315314e-05,1,1,0.321891717,-0.000005699,0.000014659,-0.844277645,0.515560814,0.302700549,0.000002443,0.000006612,-0.803653830,0.489996720
0.862500,-0.000420000,-0.056584518,0.040453644,-0.310851000,-0.056584518,0.034888271,7.410821998e-05,7.205315314e-05,1,1,0.325594286,-0.000006694,0.000017022,-0.851817757,0.518470652,0.302700549,0.000002443,0.000006612,-0.803653830,0.489996720
0.865000,-0.000420000,-0.056584518,0.041343459,-0.310851000,-0.056584518,0.034888271,7.946894212e-05,7.205315314e-05,1,1,0.329530598,-0.000007775,0.000019536,-0.859830627,0.521522061,0.302700549,0.000002443,0.000006612,-0.803653830,0.489996720
0.867500,-0.000420000,-0.056584518,0.042290093,-0.310851000,-0.056584518,0.034888271,8.468973375e-05,7.205315314e-05,1,1,0.333688695,-0.000008944,0.000022195,-0.868291570,0.524699898,0.302700549,0.000002443,0.000006612,-0.803653830,0.489996720
0.870000,-0.000420000,-0.056584518,0.043292045,-0.310851000,-0.056584518,0.034888271,8.976936099e-05,7.205315314e-05,1,1,0.338056761,-0.000010203,0.000024991,-0.877176190,0.527989320,0.302700549,0.000002443,0.000006612,-0.803653830,0.489996720
0.872500,-0.000420000,-0.056584518,0.044347810,-0.310851000,-0.056584518,0.034888271,9.470617395e-05,7.205315314e-05,1,1,0.342623108,-0.000011551,0.000027916,-0.886460377,0.531375845,0.302700549,0.000002443,0.000006612,-0.803653830,0.489996720
0.875000,-0.000420000,-0.056584518,0.045455870,-0.310851000,-0.056584518,0.034888271,9.949828903e-05,7.205315314e-05,1,1,0.347376182,-0.000012990,0.000030963,-0.896120309,0.534845402,0.302700549,0.000002443,0.000006612,-0.803653830,0.489996720
0.877500,-0.000420000,-0.056584518,0.046614689,-0.310851000,-0.056584518,0.034888271,4.991556826e-05,7.205315314e-05,1,1,0.352538765,-0.000014606,0.000034275,-0.906603178,0.538539910,0.302700549,0.000002443,0.000006612,-0.803653830,0.489996720
0.880000,-0.000420000,-0.056584518,0.047822708,-0.310851000,-0.056584518,0.034888271,5.055443229e-05,7.205315314e-05,1,1,0.357648651,-0.000016241,0.000037561,-0.916976568,0.542127266,0.302700549,0.000002443,0.000006612,-0.803653830,0.489996720
0.882500,-0.000420000,-0.056584518,0.049078342,-0.310851000,-0.056584518,0.034888271,5.272730394e-05,7.205315314e-05,1,1,0.362904981,-0.000017968,0.000040946,-0.927642295,0.545748017,0.302700549,0.000002443,0.000006612,-0.803653830,0.489996720
0.885000,-0.000420000,-0.056584518,0.050379975,-0.310851000,-0.056584518,0.034888271,5.488752421e-05,7.205315314e-05,1,1,0.368303535,-0.000019791,0.000044429,-0.938591288,0.549394786,0.302700549,0.000002443,0.000006612,-0.803653830,0.489996720
0.887500,-0.000420000,-0.056584518,0.051725958,-0.310851000,-0.056584518,0.034888271,5.698439945e-05,7.205315314e-05,1,1,0.373833817,-0.000021710,0.000048002,-0.949801953,0.553056191,0.302700549,0.000002443,0.000006612,-0.803653830,0.489996720
0.890000,-0.000420000,-0.056584518,0.053114612,-0.310851000,-0.056584518,0.034888271,5.901468913e-05,7.205315314e-05,1,1,0.379485321,-0.000023726,0.000051660,-0.961252715,0.556721344,0.302700549,0.000002443,0.000006612,-0.803653830,0.489996720
0.892500,-0.000420000,-0.056584518,0.054544221,-0.310851000,-0.056584518,0.034888271,6.097681190e-05,7.205315314e-05,1,1,0.385247739,-0.000025840,0.000055396,-0.972922430,0.560380005,0.302700549,0.000002443,0.000006612,-0.803653830,0.489996720
0.895000,-0.000420000,-0.056584518,0.056013035,-0.310851000,-0.056584518,0.034888271,6.286939582e-05,7.205315314e-05,1,1,0.391110972,-0.000028052,0.000059204,-0.984790413,0.564022586,0.302700549,0.000002443,0.000006612,-0.803653830,0.489996720
0.897500,-0.000420000,-0.056584518,0.057519270,-0.310851000,-0.056584518,0.034888271,6.469122297e-05,7.205315314e-05,1,1,0.397065140,-0.000030362,0.000063078,-0.996836449,0.567640157,0.302700549,0.000002443,0.000006612,-0.803653830,0.489996720
0.900000,-0.000420000,-0.056584518,0.059061106,-0.310851000,-0.056584518,0.034888271,6.644121725e-05,7.205315314e-05,1,1,0.403100587,-0.000032770,0.000067013,-1.009040806,0.571224437,0.302700549,0.000002443,0.000006612,-0.803653830,0.489996720
0.902500,-0.000420000,-0.056584518,0.060636689,-0.310851000,-0.056584518,0.034888271,6.811843388e-05,7.205315314e-05,1,1,0.409207882,-0.000035275,0.000071004,-1.021384240,0.574767783,0.302700549,0.000002443,0.000006612,-0.803653830,0.489996720
0.905000,-0.000420000,-0.056584518,0.062244132,-0.310851000,-0.056584518,0.034888271,6.972204862e-05,7.205315314e-05,1,1,0.415377826,-0.000037878,0.000075044,-1.033847999,0.578263180,0.302700549,0.000002443,0.000006612,-0.803653830,0.489996720
0.907500,-0.000420000,-0.056584518,0.063881515,-0.310851000,-0.056584518,0.034888271,7.125134818e-05,7.205315314e-05,1,1,0.421601448,-0.000040577,0.000079129,-1.046413825,0.581704219,0.302700549,0.000002443,0.000006612,-0.803653830,0.489996720
0.910000,-0.000420000,-0.056584518,0.065546887,-0.310851000,-0.056584518,0.034888271,7.270572120e-05,7.205315314e-05,1,1,0.427870010,-0.000043373,0.000083253,-1.059063950,0.585085080,0.302700549,0.000002443,0.000006612,-0.803653830,0.489996720
0.912500,-0.000420000,-0.056584518,0.067238266,-0.310851000,-0.056584518,0.034888271,7.408464943e-05,7.205315314e-05,1,1,0.434175002,-0.000046263,0.000087412,-1.071781098,0.588400508,0.302700549,0.000002443,0.000006612,-0.803653830,0.489996720
0.915000,-0.000420000,-0.056584518,0.068953639,-0.310851000,-0.056584518,0.034888271,7.538770074e-05,7.205315314e-05,1,1,0.440508145,-0.000049247,0.000091601,-1.084548474,0.591645791,0.302700549,0.000002443,0.000006612,-0.803653830,0.489996720
0.917500,-0.000420000,-0.056584518,0.070690969,-0.310851000,-0.056584518,0.034888271,7.661452225e-05,7.205315314e-05,1,1,0.446861383,-0.000052324,0.000095814,-1.097349763,0.594816734,0.302700549,0.000002443,0.000006612,-0.803653830,0.489996720
0.920000,-0.000420000,-0.056584518,0.072448190,-0.310851000,-0.056584518,0.034888271,7.776483428e-05,7.205315314e-05,1,1,0.453226883,-0.000055491,0.000100048,-1.110169116,0.597909632,0.302700549,0.000002443,0.000006612,-0.803653830,0.489996720
0.922500,-0.000420000,-0.056584518,0.074223214,-0.310851000,-0.056584518,0.034888271,8.476974467e-05,7.205315314e-05,1,1,0.459801467,-0.000058847,0.000104427,-1.123195720,0.599594364,0.302700549,0.000002443,0.000006612,-0.803653830,0.489996720
0.925000,-0.000420000,-0.056584518,0.076013929,-0.310851000,-0.056584518,0.034888271,9.369936257e-05,7.205315314e-05,1,1,0.466681397,-0.000062450,0.000109010,-1.136512342,0.599440841,0.302700549,0.000002443,0.000006612,-0.803653830,0.489996720
0.927500,-0.000420000,-0.056584518,0.077818204,-0.310851000,-0.056584518,0.034888271,9.434970133e-05,7.205315314e-05,1,1,0.473545476,-0.000066148,0.000113595,-1.149784493,0.599449796,0.302700549,0.000002443,0.000006612,-0.803653830,0.489996720
0.930000,-0.000420000,-0.056584518,0.079633887,-0.310851000,-0.056584518,0.034888271,9.502923554e-05,7.205315314e-05,1,1,0.480369047,-0.000069927,0.000118168,-1.162980222,0.599458348,0.302700549,0.000002443,0.000006612,-0.803653830,0.489996720
0.932500,-0.000420000,-0.056584518,0.081458813,-0.310851000,-0.056584518,0.034888271,9.562432519e-05,7.205315314e-05,1,1,0.487146459,-0.000073786,0.000122724,-1.176087918,0.599466362,0.302700549,0.000002443,0.000006612,-0.803653830,0.489996720
0.935000,-0.000420000,-0.056584518,0.083290799,-0.310851000,-0.056584518,0.034888271,9.613219173e-05,7.205315314e-05,1,1,0.493871641,-0.000077721,0.000127261,-1.189095773,0.599473857,0.302700549,0.000002443,0.000006612,-0.803653830,0.489996720
0.937500,-0.000420000,-0.056584518,0.085127652,-0.310851000,-0.056584518,0.034888271,9.655437283e-05,7.205315314e-05,1,1,0.500538710,-0.000081728,0.000131776,-1.201992361,0.599480856,0.302700549,0.000002443,0.000006612,-0.803653830,0.489996720
0.940000,-0.000420000,-0.056584518,0.086967170,-0.310851000,-0.056584518,0.034888271,9.689249176e-05,7.205315314e-05,1,1,0.507141982,-0.000085803,0.000136264,-1.214766640,0.599487384,0.302700549,0.000002443,0.000006612,-0.803653830,0.489996720
0.942500,-0.000420000,-0.056584518,0.088807142,-0.310851000,-0.056584518,0.034888271,9.714809946e-05,7.205315314e-05,1,1,0.513675963,-0.000089942,0.000140723,-1.227407931,0.599493464,0.302700549,0.000002443,0.000006612,-0.803653830,0.489996720
0.945000,-0.000420000,-0.056584518,0.090645351,-0.310851000,-0.056584518,0.034888271,9.732267688e-05,7.205315314e-05,1,1,0.520135338,-0.000094142,0.000145149,-1.239905901,0.599499118,0.302700549,0.000002443,0.000006612,-0.803653830,0.489996720
0.947500,-0.000420000,-0.056584518,0.092479580,-0.310851000,-0.056584518,0.034888271,9.741764344e-05,7.205315314e-05,1,1,0.526514964,-0.000098397,0.000149540,-1.252250546,0.599504366,0.302700549,0.000002443,0.000006612,-0.803653830,0.489996720
0.950000,-0.000420000,-0.056584518,0.094307608,-0.310851000,-0.056584518,0.034888271,9.743436521e-05,7.205315314e-05,1,1,0.532809859,-0.000102703,0.000153892,-1.264432172,0.599509230,0.302700549,0.000002443,0.000006612,-0.803653830,0.489996720
0.952500,-0.000420000,-0.056584518,0.096127219,-0.310851000,-0.056584518,0.034888271,9.737416286e-05,7.205315314e-05,1,1,0.539015198,-0.000107054,0.000158203,-1.276441384,0.599513728,0.302700549,0.000002443,0.000006612,-0.803653830,0.489996720
0.955000,-0.000420000,-0.056584518,0.097936200,-0.310851000,-0.056584518,0.034888271,9.723831834e-05,7.205315314e-05,1,1,0.545126299,-0.000111447,0.000162469,-1.288269070,0.599517881,0.302700549,0.000002443,0.000006612,-0.803653830,0.489996720
0.957500,-0.000420000,-0.056584518,0.099732346,-0.310851000,-0.056584518,0.034888271,9.702808253e-05,7.205315314e-05,1,1,0.551138625,-0.000115874,0.000166688,-1.299906392,0.599521705,0.302700549,0.000002443,0.000006612,-0.803653830,0.489996720
0.960000,-0.000420000,-0.056584518,0.101513460,-0.310851000,-0.056584518,0.034888271,9.674468089e-05,7.205315314e-05,1,1,0.557047773,-0.000120332,0.000170857,-1.311344770,0.599525218,0.302700549,0.000002443,0.000006612,-0.803653830,0.489996720
0.962500,-0.000420000,-0.056584518,0.103277360,-0.310851000,-0.056584518,0.034888271,9.638931988e-05,7.205315314e-05,1,1,0.562849469,-0.000124813,0.000174974,-1.322575878,0.599528436,0.302700549,0.000002443,0.000006612,-0.803653830,0.489996720
0.965000,-0.000420000,-0.056584518,0.105021875,-0.310851000,-0.056584518,0.034888271,9.596319220e-05,7.205315314e-05,1,1,0.568539565,-0.000129311,0.000179035,-1.333591629,0.599531376,0.302700549,0.000002443,0.000006612,-0.803653830,0.489996720
0.967500,-0.000420000,-0.056584518,0.106744853,-0.310851000,-0.056584518,0.034888271,9.546748208e-05,7.205315314e-05,1,1,0.574114033,-0.000133822,0.000183039,-1.344384173,0.599534052,0.302700549,0.000002443,0.000006612,-0.803653830,0.489996720
0.970000,-0.000420000,-0.056584518,0.108444163,-0.310851000,-0.056584518,0.034888271,9.490336999e-05,7.205315314e-05,1,1,0.579568964,-0.000138338,0.000186982,-1.354945884,0.599536478,0.302700549,0.000002443,0.000006612,-0.803653830,0.489996720
0.972500,-0.000420000,-0.056584518,0.110117694,-0.310851000,-0.056584518,0.034888271,9.427203685e-05,7.205315314e-05,1,1,0.584900559,-0.000142852,0.000190862,-1.365269357,0.599538668,0.302700549,0.000002443,0.000006612,-0.803653830,0.489996720
0.975000,-0.000420000,-0.056584518,0.111763361,-0.310851000,-0.056584518,0.034888271,9.357466831e-05,7.205315314e-05,1,1,0.590105133,-0.000147358,0.000194677,-1.375347402,0.599540636,0.302700549,0.000002443,0.000006612,-0.803653830,0.489996720
0.977500,-0.000420000,-0.056584518,0.113379106,-0.310851000,-0.056584518,0.034888271,9.281245812e-05,7.205315314e-05,1,1,0.595179107,-0.000151849,0.000198425,-1.385173039,0.599542392,0.302700549,0.000002443,0.000006612,-0.803653830,0.489996720
0.980000,-0.000420000,-0.056584518,0.114962900,-0.310851000,-0.056584518,0.034888271,9.198661174e-05,7.205315314e-05,1,1,0.600119008,-0.000156318,0.000202102,-1.394739492,0.599543950,0.302700549,0.000002443,0.000006612,-0.803653830,0.489996720
0.982500,-0.000420000,-0.056584518,0.116512749,-0.310851000,-0.056584518,0.034888271,9.109834916e-05,7.205315314e-05,1,1,0.604921466,-0.000160757,0.000205707,-1.404040186,0.599545320,0.302700549,0.000002443,0.000006612,-0.803653830,0.489996720
0.985000,-0.000420000,-0.056584518,0.118026691,-0.310851000,-0.056584518,0.034888271,9.014890789e-05,7.205315314e-05,1,1,0.609583214,-0.000165160,0.000209238,-1.413068746,0.599546512,0.302700549,0.000002443,0.000006612,-0.803653830,0.489996720
0.987500,-0.000420000,-0.056584518,0.119502802,-0.310851000,-0.056584518,0.034888271,8.913954502e-05,7.205315314e-05,1,1,0.614101084,-0.000169518,0.000212691,-1.421818990,0.599547537,0.302700549,0.000002443,0.000006612,-0.803653830,0.489996720
0.990000,-0.000420000,-0.056584518,0.120939200,-0.310851000,-0.056584518,0.034888271,8.807153985e-05,7.205315314e-05,1,1,0.618472008,-0.000173825,0.000216066,-1.430284930,0.599548403,0.302700549,0.000002443,0.000006612,-0.803653830,0.489996720
0.992500,-0.000420000,-0.056584518,0.122334040,-0.310851000,-0.056584518,0.034888271,8.694619559e-05,7.205315314e-05,1,1,0.622693014,-0.000178072,0.000219360,-1.438460771,0.599549120,0.302700549,0.000002443,0.000006612,-0.803653830,0.489996720
0.995000,-0.000420000,-0.056584518,0.123685528,-0.310851000,-0.056584518,0.034888271,8.576484107e-05,7.205315314e-05,1,1,0.626761231,-0.000182252,0.000222571,-1.446340905,0.599549695,0.302700549,0.000002443,0.000006612,-0.803653830,0.489996720
0.997500,-0.000420000,-0.056584518,0.124991911,-0.310851000,-0.056584518,0.034888271,8.452883231e-05,7.205315314e-05,1,1,0.630673881,-0.000186358,0.000225696,-1.453919915,0.599550136,0.302700549,0.000002443,0.000006612,-0.803653830,0.489996720
1.000000,-0.000420000,-0.056584518,0.126251489,-0.310851000,-0.056584518,0.034888271,8.323955350e-05,7.205315314e-05,1,1,0.634428284,-0.000190381,0.000228734,-1.461192569,0.599550451,0.302700549,0.000002443,0.000006612,-0.803653830,0.489996720
1.002500,-0.000420000,-0.056584518,0.127231752,-0.310851000,-0.056584518,0.034888271,7.590254215e-05,7.205315314e-05,1,1,0.637286458,-0.000193674,0.000231277,-1.466822670,0.600000000,0.302700549,0.000002443,0.000006612,-0.803653830,0.489996720
1.005000,-0.000420000,-0.056584518,0.128157335,-0.310851000,-0.056584518,0.034888271,6.949906302e-05,7.205315314e-05,1,1,0.640076429,-0.000196929,0.000233776,-1.472161959,0.599855919,0.302700549,0.000002443,0.000006612,-0.803653830,0.489996720
1.007500,-0.000420000,-0.056584518,0.129027114,-0.310851000,-0.056584518,0.034888271,7.272322372e-05,7.205315314e-05,1,1,0.642592278,-0.000199967,0.000236117,-1.477101514,0.600000000,0.302700549,0.000002443,0.000006612,-0.803653830,0.489996720
1.010000,-0.000420000,-0.056584518,0.129840036,-0.310851000,-0.056584518,0.034888271,6.638891301e-05,7.205315314e-05,1,1,0.645034528,-0.000202956,0.000238408,-1.481765852,0.599850001,0.302700549,0.000002443,0.000006612,-0.803653830,0.489996720
1.012500,-0.000420000,-0.056584518,0.130595116,-0.310851000,-0.056584518,0.034888271,9.660149386e-05,7.205315314e-05,1,1,0.647135211,-0.000205445,0.000240265,-1.485865338,0.599950171,0.302700549,0.000002443,0.000006612,-0.803653830,0.489996720
1.015000,-0.000420000,-0.056584518,0.131291439,-0.310851000,-0.056584518,0.034888271,9.514261305e-05,7.205315314e-05,1,1,0.649171532,-0.000207893,0.000242081,-1.489813930,0.599947208,0.302700549,0.000002443,0.000006612,-0.803653830,0.489996720
