triton-droids/embedded/trajectory_generation/ik_standing_leg_swing_fast_tall.csv
t,pL_tx,pL_ty,pL_tz,pR_tx,pR_ty,pR_tz,ik_err_L,ik_err_R,ik_ok_L,ik_ok_R,left_hip1_joint,left_hip2_joint,left_thigh_joint,left_knee_joint,left_ankle_joint,right_hip1_joint,right_hip2_joint,right_thigh_joint,right_knee_joint,right_ankle_joint
0.000000,-0.000420000,-0.056584518,0.034888271,-0.310851000,-0.056584518,0.034888271,0.000000000e+00,0.000000000e+00,1,1,0.300000000,0.000000000,0.000000000,-0.800000000,0.500000000,0.300000000,0.000000000,0.000000000,-0.800000000,0.500000000
0.002500,-0.000420000,-0.056584518,0.034888554,-0.310851000,-0.056584518,0.034888271,2.831089737e-07,0.000000000e+00,1,1,0.300000000,0.000000000,0.000000000,-0.800000000,0.500000000,0.300000000,0.000000000,0.000000000,-0.800000000,0.500000000
0.005000,-0.000420000,-0.056584518,0.034890243,-0.310851000,-0.056584518,0.034888271,1.971247598e-06,0.000000000e+00,1,1,0.300000000,0.000000000,0.000000000,-0.800000000,0.500000000,0.300000000,0.000000000,0.000000000,-0.800000000,0.500000000
0.007500,-0.000420000,-0.056584518,0.034894404,-0.310851000,-0.056584518,0.034888271,6.132477289e-06,0.000000000e+00,1,1,0.300000000,0.000000000,0.000000000,-0.800000000,0.500000000,0.300000000,0.000000000,0.000000000,-0.800000000,0.500000000
0.010000,-0.000420000,-0.056584518,0.034901988,-0.310851000,-0.056584518,0.034888271,1.371637447e-05,0.000000000e+00,1,1,0.300000000,0.000000000,0.000000000,-0.800000000,0.500000000,0.300000000,0.000000000,0.000000000,-0.800000000,0.500000000
0.012500,-0.000420000,-0.056584518,0.034913875,-0.310851000,-0.056584518,0.034888271,2.560341796e-05,0.000000000e+00,1,1,0.300000000,0.000000000,0.000000000,-0.800000000,0.500000000,0.300000000,0.000000000,0.000000000,-0.800000000,0.500000000
0.015000,-0.000420000,-0.056584518,0.034930895,-0.310851000,-0.056584518,0.034888271,4.262374807e-05,0.000000000e+00,1,1,0.300000000,0.000000000,0.000000000,-0.800000000,0.500000000,0.300000000,0.000000000,0.000000000,-0.800000000,0.500000000
0.017500,-0.000420000,-0.056584518,0.034953838,-0.310851000,-0.056584518,0.034888271,6.556686804e-05,0.000000000e+00,1,1,0.300000000,0.000000000,0.000000000,-0.800000000,0.500000000,0.300000000,0.000000000,0.000000000,-0.800000000,0.500000000
0.020000,-0.000420000,-0.056584518,0.034983459,-0.310851000,-0.056584518,0.034888271,9.518734893e-05,0.000000000e+00,1,1,0.300000000,0.000000000,0.000000000,-0.800000000,0.500000000,0.300000000,0.000000000,0.000000000,-0.800000000,0.500000000
0.022500,-0.000420000,-0.056584518,0.035020480,-0.310851000,-0.056584518,0.034888271,5.676606466e-05,0.000000000e+00,1,1,0.300354934,-0.000000079,0.000000230,-0.800724788,0.500293331,0.300000000,0.000000000,0.000000000,-0.800000000,0.500000000
0.025000,-0.000420000,-0.056584518,0.035065596,-0.310851000,-0.056584518,0.034888271,4.379293309e-05,0.000000000e+00,1,1,0.300628579,-0.000000142,0.000000406,-0.801282584,0.500518965,0.300000000,0.000000000,0.000000000,-0.800000000,0.500000000
0.027500,-0.000420000,-0.056584518,0.035119473,-0.310851000,-0.056584518,0.034888271,9.766876353e-05,0.000000000e+00,1,1,0.300628579,-0.000000142,0.000000406,-0.801282584,0.500518965,0.300000000,0.000000000,0.000000000,-0.800000000,0.500000000
0.030000,-0.000420000,-0.056584518,0.035182753,-0.310851000,-0.056584518,0.034888271,6.916572462e-05,0.000000000e+00,1,1,0.301060403,-0.000000242,0.000000685,-0.802163192,0.500874867,0.300000000,0.000000000,0.000000000,-0.800000000,0.500000000
0.032500,-0.000420000,-0.056584518,0.035256050,-0.310851000,-0.056584518,0.034888271,6.128244284e-05,0.000000000e+00,1,1,0.301442357,-0.000000332,0.000000931,-0.802941443,0.501189087,0.300000000,0.000000000,0.000000000,-0.800000000,0.500000000
0.035000,-0.000420000,-0.056584518,0.035339954,-0.310851000,-0.056584518,0.034888271,6.249058724e-05,0.000000000e+00,1,1,0.301831141,-0.000000424,0.000001181,-0.803733555,0.501508560,0.300000000,0.000000000,0.000000000,-0.800000000,0.500000000
0.037500,-0.000420000,-0.056584518,0.035435029,-0.310851000,-0.056584518,0.034888271,6.783971166e-05,0.000000000e+00,1,1,0.302252565,-0.000000523,0.000001452,-0.804592243,0.501854489,0.300000000,0.000000000,0.000000000,-0.800000000,0.500000000
0.040000,-0.000420000,-0.056584518,0.035541815,-0.310851000,-0.056584518,0.034888271,7.519690101e-05,0.000000000e+00,1,1,0.302719083,-0.000000633,0.000001753,-0.805542868,0.502236988,0.300000000,0.000000000,0.000000000,-0.800000000,0.500000000
0.042500,-0.000420000,-0.056584518,0.035660827,-0.310851000,-0.056584518,0.034888271,8.363674305e-05,0.000000000e+00,1,1,0.303237328,-0.000000756,0.000002087,-0.806598902,0.502661332,0.300000000,0.000000000,0.000000000,-0.800000000,0.500000000
0.045000,-0.000420000,-0.056584518,0.035792556,-0.310851000,-0.056584518,0.034888271,9.275133809e-05,0.000000000e+00,1,1,0.303811346,-0.000000893,0.000002456,-0.807768554,0.503130634,0.300000000,0.000000000,0.000000000,-0.800000000,0.500000000
0.047500,-0.000420000,-0.056584518,0.035937466,-0.310851000,-0.056584518,0.034888271,4.445298084e-05,0.000000000e+00,1,1,0.304715416,-0.000001113,0.000003037,-0.809608937,0.503867464,0.300000000,0.000000000,0.000000000,-0.800000000,0.500000000
0.050000,-0.000420000,-0.056584518,0.036095997,-0.310851000,-0.056584518,0.034888271,8.758679140e-05,0.000000000e+00,1,1,0.305253877,-0.000001242,0.000003384,-0.810706267,0.504305788,0.300000000,0.000000000,0.000000000,-0.800000000,0.500000000
0.052500,-0.000420000,-0.056584518,0.036268564,-0.310851000,-0.056584518,0.034888271,4.879691675e-05,0.000000000e+00,1,1,0.306239499,-0.000001483,0.000004017,-0.812713101,0.505105677,0.300000000,0.000000000,0.000000000,-0.800000000,0.500000000
0.055000,-0.000420000,-0.056584518,0.036455555,-0.310851000,-0.056584518,0.034888271,4.446588039e-05,0.000000000e+00,1,1,0.307129959,-0.000001701,0.000004590,-0.814526112,0.505826037,0.300000000,0.000000000,0.000000000,-0.800000000,0.500000000
0.057500,-0.000420000,-0.056584518,0.036657334,-0.310851000,-0.056584518,0.034888271,4.651461096e-05,0.000000000e+00,1,1,0.308057633,-0.000001929,0.000005187,-0.816415135,0.506574472,0.300000000,0.000000000,0.000000000,-0.800000000,0.500000000
0.060000,-0.000420000,-0.056584518,0.036874238,-0.310851000,-0.056584518,0.034888271,4.979759375e-05,0.000000000e+00,1,1,0.309047825,-0.000002174,0.000005824,-0.818431433,0.507371026,0.300000000,0.000000000,0.000000000,-0.800000000,0.500000000
0.062500,-0.000420000,-0.056584518,0.037106577,-0.310851000,-0.056584518,0.034888271,5.336760629e-05,0.000000000e+00,1,1,0.310106019,-0.000002437,0.000006506,-0.820586052,0.508219611,0.300000000,0.000000000,0.000000000,-0.800000000,0.500000000
0.065000,-0.000420000,-0.056584518,0.037354637,-0.310851000,-0.056584518,0.034888271,5.704595819e-05,0.000000000e+00,1,1,0.311233929,-0.000002719,0.000007232,-0.822882420,0.509121052,0.300000000,0.000000000,0.000000000,-0.800000000,0.500000000
0.067500,-0.000420000,-0.056584518,0.037618674,-0.310851000,-0.056584518,0.034888271,6.079453680e-05,0.000000000e+00,1,1,0.312432446,-0.000003020,0.000008003,-0.825322306,0.510075469,0.300000000,0.000000000,0.000000000,-0.800000000,0.500000000
0.070000,-0.000420000,-0.056584518,0.037898921,-0.310851000,-0.056584518,0.034888271,6.460089027e-05,0.000000000e+00,1,1,0.313702181,-0.000003342,0.000008821,-0.827906910,0.511082715,0.300000000,0.000000000,0.000000000,-0.800000000,0.500000000
0.072500,-0.000420000,-0.056584518,0.038195580,-0.310851000,-0.056584518,0.034888271,6.845721608e-05,0.000000000e+00,1,1,0.315043562,-0.000003685,0.000009684,-0.830637059,0.512142457,0.300000000,0.000000000,0.000000000,-0.800000000,0.500000000
0.075000,-0.000420000,-0.056584518,0.038508829,-0.310851000,-0.056584518,0.034888271,7.235652941e-05,0.000000000e+00,1,1,0.316456857,-0.000004050,0.000010595,-0.833513249,0.513254189,0.300000000,0.000000000,0.000000000,-0.800000000,0.500000000
0.077500,-0.000420000,-0.056584518,0.038838816,-0.310851000,-0.056584518,0.034888271,7.629197241e-05,0.000000000e+00,1,1,0.317942175,-0.000004436,0.000011551,-0.836535651,0.514417245,0.300000000,0.000000000,0.000000000,-0.800000000,0.500000000
0.080000,-0.000420000,-0.056584518,0.039185664,-0.310851000,-0.056584518,0.034888271,8.025669777e-05,0.000000000e+00,1,1,0.319499469,-0.000004845,0.000012554,-0.839704115,0.515630801,0.300000000,0.000000000,0.000000000,-0.800000000,0.500000000
0.082500,-0.000420000,-0.056584518,0.039549467,-0.310851000,-0.056584518,0.034888271,8.424385736e-05,0.000000000e+00,1,1,0.321128537,-0.000005276,0.000013603,-0.843018178,0.516893877,0.300000000,0.000000000,0.000000000,-0.800000000,0.500000000
0.085000,-0.000420000,-0.056584518,0.039930291,-0.310851000,-0.056584518,0.034888271,8.824660933e-05,0.000000000e+00,1,1,0.322829027,-0.000005731,0.000014699,-0.846477065,0.518205346,0.300000000,0.000000000,0.000000000,-0.800000000,0.500000000
0.087500,-0.000420000,-0.056584518,0.040328175,-0.310851000,-0.056584518,0.034888271,9.225812948e-05,0.000000000e+00,1,1,0.324600437,-0.000006210,0.000015840,-0.850079695,0.519563940,0.300000000,0.000000000,0.000000000,-0.800000000,0.500000000
0.090000,-0.000420000,-0.056584518,0.040743131,-0.310851000,-0.056584518,0.034888271,9.627162203e-05,0.000000000e+00,1,1,0.326442120,-0.000006713,0.000017027,-0.853824690,0.520968256,0.300000000,0.000000000,0.000000000,-0.800000000,0.500000000
0.092500,-0.000420000,-0.056584518,0.041175141,-0.310851000,-0.056584518,0.034888271,4.605626844e-05,0.000000000e+00,1,1,0.328597611,-0.000007316,0.000018415,-0.858203533,0.522593376,0.300000000,0.000000000,0.000000000,-0.800000000,0.500000000
0.095000,-0.000420000,-0.056584518,0.041624161,-0.310851000,-0.056584518,0.034888271,9.450620296e-05,0.000000000e+00,1,1,0.330378618,-0.000007809,0.000019565,-0.861825201,0.523932440,0.300000000,0.000000000,0.000000000,-0.800000000,0.500000000
0.097500,-0.000420000,-0.056584518,0.042090118,-0.310851000,-0.056584518,0.034888271,4.909519639e-05,0.000000000e+00,1,1,0.332646801,-0.000008456,0.000021028,-0.866431950,0.525618866,0.300000000,0.000000000,0.000000000,-0.800000000,0.500000000
0.100000,-0.000420000,-0.056584518,0.042572913,-0.310851000,-0.056584518,0.034888271,4.720876575e-05,0.000000000e+00,1,1,0.334787621,-0.000009071,0.000022411,-0.870779867,0.527195443,0.300000000,0.000000000,0.000000000,-0.800000000,0.500000000
0.102500,-0.000420000,-0.056584518,0.043072418,-0.310851000,-0.056584518,0.034888271,4.864362097e-05,0.000000000e+00,1,1,0.336978538,-0.000009707,0.000023827,-0.875228940,0.528796470,0.300000000,0.000000000,0.000000000,-0.800000000,0.500000000
0.105000,-0.000420000,-0.056584518,0.043588479,-0.310851000,-0.056584518,0.034888271,5.032146105e-05,0.000000000e+00,1,1,0.339231839,-0.000010369,0.000025285,-0.879803789,0.530430174,0.300000000,0.000000000,0.000000000,-0.800000000,0.500000000
0.107500,-0.000420000,-0.056584518,0.044120912,-0.310851000,-0.056584518,0.034888271,5.200451196e-05,0.000000000e+00,1,1,0.341547013,-0.000011058,0.000026783,-0.884503264,0.532095140,0.300000000,0.000000000,0.000000000,-0.800000000,0.500000000
0.110000,-0.000420000,-0.056584518,0.044669509,-0.310851000,-0.056584518,0.034888271,5.367216901e-05,0.000000000e+00,1,1,0.343922469,-0.000011774,0.000028321,-0.889324047,0.533789160,0.300000000,0.000000000,0.000000000,-0.800000000,0.500000000
0.112500,-0.000420000,-0.056584518,0.045234033,-0.310851000,-0.056584518,0.034888271,5.532044738e-05,0.000000000e+00,1,1,0.346356433,-0.000012518,0.000029897,-0.894262460,0.535509918,0.300000000,0.000000000,0.000000000,-0.800000000,0.500000000
0.115000,-0.000420000,-0.056584518,0.045814221,-0.310851000,-0.056584518,0.034888271,5.694667643e-05,0.000000000e+00,1,1,0.348847026,-0.000013288,0.000031512,-0.899314608,0.537255047,0.300000000,0.000000000,0.000000000,-0.800000000,0.500000000
0.117500,-0.000420000,-0.056584518,0.046409784,-0.310851000,-0.056584518,0.034888271,5.854833626e-05,0.000000000e+00,1,1,0.351392274,-0.000014087,0.000033162,-0.904476406,0.539022143,0.300000000,0.000000000,0.000000000,-0.800000000,0.500000000
0.120000,-0.000420000,-0.056584518,0.047020407,-0.310851000,-0.056584518,0.034888271,6.012297207e-05,0.000000000e+00,1,1,0.353990112,-0.000014913,0.000034848,-0.909743588,0.540808777,0.300000000,0.000000000,0.000000000,-0.800000000,0.500000000
0.122500,-0.000420000,-0.056584518,0.047645747,-0.310851000,-0.056584518,0.034888271,6.166818979e-05,0.000000000e+00,1,1,0.356638390,-0.000015766,0.000036568,-0.915111719,0.542612499,0.300000000,0.000000000,0.000000000,-0.800000000,0.500000000
0.125000,-0.000420000,-0.056584518,0.048285440,-0.310851000,-0.056584518,0.034888271,6.318165775e-05,0.000000000e+00,1,1,0.359334882,-0.000016648,0.000038320,-0.920576207,0.544430852,0.300000000,0.000000000,0.000000000,-0.800000000,0.500000000
0.127500,-0.000420000,-0.056584518,0.048939091,-0.310851000,-0.056584518,0.034888271,6.466110907e-05,0.000000000e+00,1,1,0.362077284,-0.000017557,0.000040103,-0.926132312,0.546261377,0.300000000,0.000000000,0.000000000,-0.800000000,0.500000000
0.130000,-0.000420000,-0.056584518,0.049606287,-0.310851000,-0.056584518,0.034888271,6.610434303e-05,0.000000000e+00,1,1,0.364863228,-0.000018494,0.000041916,-0.931775162,0.548101622,0.300000000,0.000000000,0.000000000,-0.800000000,0.500000000
0.132500,-0.000420000,-0.056584518,0.050286585,-0.310851000,-0.056584518,0.034888271,6.750922658e-05,0.000000000e+00,1,1,0.367690280,-0.000019459,0.000043758,-0.937499758,0.549949149,0.300000000,0.000000000,0.000000000,-0.800000000,0.500000000
0.135000,-0.000420000,-0.056584518,0.050979522,-0.310851000,-0.056584518,0.034888271,6.887369563e-05,0.000000000e+00,1,1,0.370555951,-0.000020450,0.000045626,-0.943300989,0.551801543,0.300000000,0.000000000,0.000000000,-0.800000000,0.500000000
0.137500,-0.000420000,-0.056584518,0.051684610,-0.310851000,-0.056584518,0.034888271,7.019575606e-05,0.000000000e+00,1,1,0.373457697,-0.000021469,0.000047520,-0.949173643,0.553656415,0.300000000,0.000000000,0.000000000,-0.800000000,0.500000000
0.140000,-0.000420000,-0.056584518,0.052401339,-0.310851000,-0.056584518,0.034888271,7.147348457e-05,0.000000000e+00,1,1,0.376392928,-0.000022515,0.000049437,-0.955112415,0.555511413,0.300000000,0.000000000,0.000000000,-0.800000000,0.500000000
0.142500,-0.000420000,-0.056584518,0.053129177,-0.310851000,-0.056584518,0.034888271,7.270502917e-05,0.000000000e+00,1,1,0.379359013,-0.000023588,0.000051376,-0.961111918,0.557364225,0.300000000,0.000000000,0.000000000,-0.800000000,0.500000000
0.145000,-0.000420000,-0.056584518,0.053867569,-0.310851000,-0.056584518,0.034888271,7.388860984e-05,0.000000000e+00,1,1,0.382353280,-0.000024687,0.000053336,-0.967166691,0.559212582,0.300000000,0.000000000,0.000000000,-0.800000000,0.500000000
0.147500,-0.000420000,-0.056584518,0.054615941,-0.310851000,-0.056584518,0.034888271,7.502251888e-05,0.000000000e+00,1,1,0.385373026,-0.000025811,0.000055315,-0.973271215,0.561054269,0.300000000,0.000000000,0.000000000,-0.800000000,0.500000000
0.150000,-0.000420000,-0.056584518,0.055373698,-0.310851000,-0.056584518,0.034888271,7.610512116e-05,0.000000000e+00,1,1,0.388415520,-0.000026961,0.000057311,-0.979419915,0.562887123,0.300000000,0.000000000,0.000000000,-0.800000000,0.500000000
0.152500,-0.000420000,-0.056584518,0.056140225,-0.310851000,-0.056584518,0.034888271,7.713485422e-05,0.000000000e+00,1,1,0.391478006,-0.000028136,0.000059323,-0.985607171,0.564709043,0.300000000,0.000000000,0.000000000,-0.800000000,0.500000000
0.155000,-0.000420000,-0.056584518,0.056914887,-0.310851000,-0.056584518,0.034888271,7.811022836e-05,0.000000000e+00,1,1,0.394557707,-0.000029335,0.000061348,-0.991827329,0.566517985,0.300000000,0.000000000,0.000000000,-0.800000000,0.500000000
0.157500,-0.000420000,-0.056584518,0.057697033,-0.310851000,-0.056584518,0.034888271,7.902982694e-05,0.000000000e+00,1,1,0.397651834,-0.000030557,0.000063386,-0.998074708,0.568311975,0.300000000,0.000000000,0.000000000,-0.800000000,0.500000000
0.160000,-0.000420000,-0.056584518,0.058485992,-0.310851000,-0.056584518,0.034888271,7.989230584e-05,0.000000000e+00,1,1,0.400757580,-0.000031802,0.000065434,-1.004343604,0.570089103,0.300000000,0.000000000,0.000000000,-0.800000000,0.500000000
0.162500,-0.000420000,-0.056584518,0.059281078,-0.310851000,-0.056584518,0.034888271,8.069639384e-05,0.000000000e+00,1,1,0.403872136,-0.000033070,0.000067491,-1.010628303,0.571847531,0.300000000,0.000000000,0.000000000,-0.800000000,0.500000000
0.165000,-0.000420000,-0.056584518,0.060081589,-0.310851000,-0.056584518,0.034888271,8.144089235e-05,0.000000000e+00,1,1,0.406992683,-0.000034358,0.000069556,-1.016923088,0.573585491,0.300000000,0.000000000,0.000000000,-0.800000000,0.500000000
0.167500,-0.000420000,-0.056584518,0.060886805,-0.310851000,-0.056584518,0.034888271,8.212467531e-05,0.000000000e+00,1,1,0.410116404,-0.000035668,0.000071625,-1.023222240,0.575301289,0.300000000,0.000000000,0.000000000,-0.800000000,0.500000000
0.170000,-0.000420000,-0.056584518,0.061695995,-0.310851000,-0.056584518,0.034888271,8.274668908e-05,0.000000000e+00,1,1,0.413240483,-0.000036996,0.000073699,-1.029520050,0.576993302,0.300000000,0.000000000,0.000000000,-0.800000000,0.500000000
0.172500,-0.000420000,-0.056584518,0.062508412,-0.310851000,-0.056584518,0.034888271,8.330595242e-05,0.000000000e+00,1,1,0.416362107,-0.000038343,0.000075774,-1.035810823,0.578659984,0.300000000,0.000000000,0.000000000,-0.800000000,0.500000000
0.175000,-0.000420000,-0.056584518,0.063323298,-0.310851000,-0.056584518,0.034888271,8.380155607e-05,0.000000000e+00,1,1,0.419478472,-0.000039707,0.000077849,-1.042088885,0.580299861,0.300000000,0.000000000,0.000000000,-0.800000000,0.500000000
0.177500,-0.000420000,-0.056584518,0.064139881,-0.310851000,-0.056584518,0.034888271,8.423266289e-05,0.000000000e+00,1,1,0.422586787,-0.000041088,0.000079924,-1.048348587,0.581911536,0.300000000,0.000000000,0.000000000,-0.800000000,0.500000000
0.180000,-0.000420000,-0.056584518,0.064957379,-0.310851000,-0.056584518,0.034888271,8.459850765e-05,0.000000000e+00,1,1,0.425684269,-0.000042483,0.000081994,-1.054584309,0.583493684,0.300000000,0.000000000,0.000000000,-0.800000000,0.500000000
0.182500,-0.000420000,-0.056584518,0.065775000,-0.310851000,-0.056584518,0.034888271,8.489839694e-05,0.000000000e+00,1,1,0.428768155,-0.000043893,0.000084060,-1.060790471,0.585045055,0.300000000,0.000000000,0.000000000,-0.800000000,0.500000000
0.185000,-0.000420000,-0.056584518,0.066591944,-0.310851000,-0.056584518,0.034888271,8.513170895e-05,0.000000000e+00,1,1,0.431835697,-0.000045315,0.000086120,-1.066961529,0.586564471,0.300000000,0.000000000,0.000000000,-0.800000000,0.500000000
0.187500,-0.000420000,-0.056584518,0.067407399,-0.310851000,-0.056584518,0.034888271,8.529789343e-05,0.000000000e+00,1,1,0.434884168,-0.000046748,0.000088171,-1.073091986,0.588050827,0.300000000,0.000000000,0.000000000,-0.800000000,0.500000000
0.190000,-0.000420000,-0.056584518,0.068220550,-0.310851000,-0.056584518,0.034888271,8.539647172e-05,0.000000000e+00,1,1,0.437910864,-0.000048191,0.000090212,-1.079176393,0.589503087,0.300000000,0.000000000,0.000000000,-0.800000000,0.500000000
0.192500,-0.000420000,-0.056584518,0.069030572,-0.310851000,-0.056584518,0.034888271,8.542703626e-05,0.000000000e+00,1,1,0.440913103,-0.000049642,0.000092241,-1.085209353,0.590920286,0.300000000,0.000000000,0.000000000,-0.800000000,0.500000000
0.195000,-0.000420000,-0.056584518,0.069836637,-0.310851000,-0.056584518,0.034888271,8.538925099e-05,0.000000000e+00,1,1,0.443888231,-0.000051101,0.000094257,-1.091185527,0.592301525,0.300000000,0.000000000,0.000000000,-0.800000000,0.500000000
0.197500,-0.000420000,-0.056584518,0.070637911,-0.310851000,-0.056584518,0.034888271,8.528285101e-05,0.000000000e+00,1,1,0.446833620,-0.000052564,0.000096259,-1.097099633,0.593645974,0.300000000,0.000000000,0.000000000,-0.800000000,0.500000000
0.200000,-0.000420000,-0.056584518,0.071433558,-0.310851000,-0.056584518,0.034888271,8.510764226e-05,0.000000000e+00,1,1,0.449746671,-0.000054032,0.000098243,-1.102946453,0.594952864,0.300000000,0.000000000,0.000000000,-0.800000000,0.500000000
0.202500,-0.000420000,-0.056584518,0.072222738,-0.310851000,-0.056584518,0.034888271,8.486350193e-05,0.000000000e+00,1,1,0.452624817,-0.000055501,0.000100209,-1.108720836,0.596221490,0.300000000,0.000000000,0.000000000,-0.800000000,0.500000000
0.205000,-0.000420000,-0.056584518,0.073004611,-0.310851000,-0.056584518,0.034888271,8.455037790e-05,0.000000000e+00,1,1,0.455465522,-0.000056970,0.000102156,-1.114417698,0.597451209,0.300000000,0.000000000,0.000000000,-0.800000000,0.500000000
0.207500,-0.000420000,-0.056584518,0.073778335,-0.310851000,-0.056584518,0.034888271,8.416828887e-05,0.000000000e+00,1,1,0.458266285,-0.000058439,0.000104081,-1.120032026,0.598641434,0.300000000,0.000000000,0.000000000,-0.800000000,0.500000000
0.210000,-0.000420000,-0.056584518,0.074543069,-0.310851000,-0.056584518,0.034888271,8.371732396e-05,0.000000000e+00,1,1,0.461024637,-0.000059904,0.000105982,-1.125558881,0.599791637,0.300000000,0.000000000,0.000000000,-0.800000000,0.500000000
0.212500,-0.000420000,-0.056584518,0.075297974,-0.310851000,-0.056584518,0.034888271,8.856941737e-05,0.000000000e+00,1,1,0.463934342,-0.000061461,0.000107983,-1.131188060,0.599629810,0.300000000,0.000000000,0.000000000,-0.800000000,0.500000000
0.215000,-0.000420000,-0.056584518,0.076042215,-0.310851000,-0.056584518,0.034888271,8.755811974e-05,0.000000000e+00,1,1,0.466796562,-0.000063014,0.000109957,-1.136719242,0.599631194,0.300000000,0.000000000,0.000000000,-0.800000000,0.500000000
0.217500,-0.000420000,-0.056584518,0.076774957,-0.310851000,-0.056584518,0.034888271,8.678881671e-05,0.000000000e+00,1,1,0.469598192,-0.000064555,0.000111896,-1.142135753,0.599634164,0.300000000,0.000000000,0.000000000,-0.800000000,0.500000000
0.220000,-0.000420000,-0.056584518,0.077495373,-0.310851000,-0.056584518,0.034888271,8.598276883e-05,0.000000000e+00,1,1,0.472339188,-0.000066083,0.000113800,-1.147435365,0.599636755,0.300000000,0.000000000,0.000000000,-0.800000000,0.500000000
0.222500,-0.000420000,-0.056584518,0.078202640,-0.310851000,-0.056584518,0.034888271,8.510999708e-05,0.000000000e+00,1,1,0.475017574,-0.000067595,0.000115668,-1.152614034,0.599638768,0.300000000,0.000000000,0.000000000,-0.800000000,0.500000000
0.225000,-0.000420000,-0.056584518,0.078895942,-0.310851000,-0.056584518,0.034888271,8.416785311e-05,0.000000000e+00,1,1,0.477631214,-0.000069090,0.000117499,-1.157667589,0.599640195,0.300000000,0.000000000,0.000000000,-0.800000000,0.500000000
0.227500,-0.000420000,-0.056584518,0.079574472,-0.310851000,-0.056584518,0.034888271,8.315672169e-05,0.000000000e+00,1,1,0.480177992,-0.000070566,0.000119291,-1.162591924,0.599641046,0.300000000,0.000000000,0.000000000,-0.800000000,0.500000000
0.230000,-0.000420000,-0.056584518,0.080237429,-0.310851000,-0.056584518,0.034888271,8.207736481e-05,0.000000000e+00,1,1,0.482655836,-0.000072020,0.000121042,-1.167383017,0.599641334,0.300000000,0.000000000,0.000000000,-0.800000000,0.500000000
0.232500,-0.000420000,-0.056584518,0.080884025,-0.310851000,-0.056584518,0.034888271,8.093063349e-05,0.000000000e+00,1,1,0.485062717,-0.000073450,0.000122752,-1.172036931,0.599641073,0.300000000,0.000000000,0.000000000,-0.800000000,0.500000000
0.235000,-0.000420000,-0.056584518,0.081513480,-0.310851000,-0.056584518,0.034888271,7.971743640e-05,0.000000000e+00,1,1,0.487396653,-0.000074855,0.000124418,-1.176549821,0.599640272,0.300000000,0.000000000,0.000000000,-0.800000000,0.500000000
0.237500,-0.000420000,-0.056584518,0.082125028,-0.310851000,-0.056584518,0.034888271,7.843873625e-05,0.000000000e+00,1,1,0.489655710,-0.000076232,0.000126040,-1.180917929,0.599638944,0.300000000,0.000000000,0.000000000,-0.800000000,0.500000000
0.240000,-0.000420000,-0.056584518,0.082717915,-0.310851000,-0.056584518,0.034888271,7.709554935e-05,0.000000000e+00,1,1,0.491837998,-0.000077578,0.000127617,-1.185137586,0.599637100,0.300000000,0.000000000,0.000000000,-0.800000000,0.500000000
0.242500,-0.000420000,-0.056584518,0.083291400,-0.310851000,-0.056584518,0.034888271,7.568894514e-05,0.000000000e+00,1,1,0.493941674,-0.000078892,0.000129146,-1.189205217,0.599634748,0.300000000,0.000000000,0.000000000,-0.800000000,0.500000000
0.245000,-0.000420000,-0.056584518,0.083844759,-0.310851000,-0.056584518,0.034888271,7.422004579e-05,0.000000000e+00,1,1,0.495964943,-0.000080172,0.000130627,-1.193117334,0.599631898,0.300000000,0.000000000,0.000000000,-0.800000000,0.500000000
0.247500,-0.000420000,-0.056584518,0.084377280,-0.310851000,-0.056584518,0.034888271,7.269002591e-05,0.000000000e+00,1,1,0.497906056,-0.000081415,0.000132058,-1.196870545,0.599628560,0.300000000,0.000000000,0.000000000,-0.800000000,0.500000000
0.250000,-0.000420000,-0.056584518,0.084888271,-0.310851000,-0.056584518,0.034888271,7.110011190e-05,0.000000000e+00,1,1,0.499763315,-0.000082620,0.000133438,-1.200461549,0.599624740,0.300000000,0.000000000,0.000000000,-0.800000000,0.500000000
0.252500,-0.000420000,-0.056584518,0.085377058,-0.310851000,-0.056584518,0.034888271,6.945158167e-05,0.000000000e+00,1,1,0.501535067,-0.000083783,0.000134766,-1.203887139,0.599620445,0.300000000,0.000000000,0.000000000,-0.800000000,0.500000000
0.255000,-0.000420000,-0.056584518,0.085842982,-0.310851000,-0.056584518,0.034888271,6.774576401e-05,0.000000000e+00,1,1,0.503219710,-0.000084905,0.000136041,-1.207144204,0.599615683,0.300000000,0.000000000,0.000000000,-0.800000000,0.500000000
0.257500,-0.000420000,-0.056584518,0.086285408,-0.310851000,-0.056584518,0.034888271,6.598403806e-05,0.000000000e+00,1,1,0.504815691,-0.000085981,0.000137261,-1.210229725,0.599610460,0.300000000,0.000000000,0.000000000,-0.800000000,0.500000000
0.260000,-0.000420000,-0.056584518,0.086703719,-0.310851000,-0.056584518,0.034888271,6.416783277e-05,0.000000000e+00,1,1,0.506321504,-0.000087010,0.000138425,-1.213140783,0.599604779,0.300000000,0.000000000,0.000000000,-0.800000000,0.500000000
0.262500,-0.000420000,-0.056584518,0.087097319,-0.310851000,-0.056584518,0.034888271,6.229862625e-05,0.000000000e+00,1,1,0.507735696,-0.000087991,0.000139532,-1.215874555,0.599598647,0.300000000,0.000000000,0.000000000,-0.800000000,0.500000000
0.265000,-0.000420000,-0.056584518,0.087465635,-0.310851000,-0.056584518,0.034888271,6.787301070e-05,0.000000000e+00,1,1,0.509038796,-0.000088911,0.000140570,-1.218411677,0.599452953,0.300000000,0.000000000,0.000000000,-0.800000000,0.500000000
0.267500,-0.000420000,-0.056584518,0.087808117,-0.310851000,-0.056584518,0.034888271,9.404904395e-05,0.000000000e+00,1,1,0.510087299,-0.000089630,0.000141373,-1.220486975,0.600000000,0.300000000,0.000000000,0.000000000,-0.800000000,0.500000000
0.270000,-0.000420000,-0.056584518,0.088124239,-0.310851000,-0.056584518,0.034888271,9.644052584e-05,0.000000000e+00,1,1,0.511235968,-0.000090413,0.000142236,-1.222676140,0.599783147,0.300000000,0.000000000,0.000000000,-0.800000000,0.500000000
0.272500,-0.000420000,-0.056584518,0.088413500,-0.310851000,-0.056584518,0.034888271,9.867812188e-05,0.000000000e+00,1,1,0.512285209,-0.000091141,0.000143038,-1.224696325,0.599493975,0.300000000,0.000000000,0.000000000,-0.800000000,0.500000000
0.275000,-0.000420000,-0.056584518,0.088675424,-0.310851000,-0.056584518,0.034888271,8.589557083e-05,0.000000000e+00,1,1,0.513193530,-0.000091787,0.000143753,-1.226493088,0.599989432,0.300000000,0.000000000,0.000000000,-0.800000000,0.500000000
0.277500,-0.000420000,-0.056584518,0.088909562,-0.310851000,-0.056584518,0.034888271,8.973210680e-05,0.000000000e+00,1,1,0.514070053,-0.000092416,0.000144449,-1.228157410,0.599484777,0.300000000,0.000000000,0.000000000,-0.800000000,0.500000000
0.280000,-0.000420000,-0.056584518,0.089115491,-0.310851000,-0.056584518,0.034888271,7.487664734e-05,0.000000000e+00,1,1,0.514801373,-0.000092960,0.000145055,-1.229589125,0.599901296,0.300000000,0.000000000,0.000000000,-0.800000000,0.500000000
0.282500,-0.000420000,-0.056584518,0.089292817,-0.310851000,-0.056584518,0.034888271,7.692824957e-05,0.000000000e+00,1,1,0.515474173,-0.000093468,0.000145625,-1.230861734,0.599470524,0.300000000,0.000000000,0.000000000,-0.800000000,0.500000000
0.285000,-0.000420000,-0.056584518,0.089441173,-0.310851000,-0.056584518,0.034888271,6.300961969e-05,0.000000000e+00,1,1,0.516009248,-0.000093894,0.000146109,-1.231905929,0.599800543,0.300000000,0.000000000,0.000000000,-0.800000000,0.500000000
0.287500,-0.000420000,-0.056584518,0.089560222,-0.310851000,-0.056584518,0.034888271,9.259460182e-05,0.000000000e+00,1,1,0.516296031,-0.000094118,0.000146363,-1.232486905,0.599976359,0.300000000,0.000000000,0.000000000,-0.800000000,0.500000000
0.290000,-0.000420000,-0.056584518,0.089649658,-0.310851000,-0.056584518,0.034888271,9.634031546e-05,0.000000000e+00,1,1,0.516581519,-0.000094341,0.000146615,-1.233068408,0.600000000,0.300000000,0.000000000,0.000000000,-0.800000000,0.500000000
0.292500,-0.000420000,-0.056584518,0.089709204,-0.310851000,-0.056584518,0.034888271,8.912395214e-05,0.000000000e+00,1,1,0.516892960,-0.000094580,0.000146883,-1.233607877,0.599486471,0.300000000,0.000000000,0.000000000,-0.800000000,0.500000000
0.295000,-0.000420000,-0.056584518,0.089738614,-0.310851000,-0.056584518,0.034888271,6.642433396e-05,0.000000000e+00,1,1,0.517070004,-0.000094739,0.000147068,-1.233937565,0.599610273,0.300000000,0.000000000,0.000000000,-0.800000000,0.500000000
0.297500,-0.000420000,-0.056584518,0.089737674,-0.310851000,-0.056584518,0.034888271,6.549849535e-05,0.000000000e+00,1,1,0.517070004,-0.000094739,0.000147068,-1.233937565,0.599610273,0.300000000,0.000000000,0.000000000,-0.800000000,0.500000000
0.300000,-0.000420000,-0.056584518,0.089706202,-0.310851000,-0.056584518,0.034888271,3.494671830e-05,0.000000000e+00,1,1,0.517070004,-0.000094739,0.000147068,-1.233937565,0.599610273,0.300000000,0.000000000,0.000000000,-0.800000000,0.500000000
0.302500,-0.000420000,-0.056584518,0.089644049,-0.310851000,-0.056584518,0.034888271,3.130243937e-05,0.000000000e+00,1,1,0.517070004,-0.000094739,0.000147068,-1.233937565,0.599610273,0.300000000,0.000000000,0.000000000,-0.800000000,0.500000000
0.305000,-0.000420000,-0.056584518,0.089551100,-0.310851000,-0.056584518,0.034888271,3.384680489e-05,0.000000000e+00,1,1,0.516782701,-0.000094619,0.000146968,-1.233348222,0.599513970,0.300000000,0.000000000,0.000000000,-0.800000000,0.500000000
0.307500,-0.000420000,-0.056584518,0.089427271,-0.310851000,-0.056584518,0.034888271,4.777794168e-05,0.000000000e+00,1,1,0.516423850,-0.000094452,0.000146824,-1.232624010,0.599385068,0.300000000,0.000000000,0.000000000,-0.800000000,0.500000000
0.310000,-0.000420000,-0.056584518,0.089272515,-0.310851000,-0.056584518,0.034888271,6.639370643e-05,0.000000000e+00,1,1,0.515976330,-0.000094230,0.000146624,-1.231724484,0.599214559,0.300000000,0.000000000,0.000000000,-0.800000000,0.500000000
0.312500,-0.000420000,-0.056584518,0.089086818,-0.310851000,-0.056584518,0.034888271,8.692158753e-05,0.000000000e+00,1,1,0.515432835,-0.000093949,0.000146364,-1.230632614,0.598998691,0.300000000,0.000000000,0.000000000,-0.800000000,0.500000000
0.315000,-0.000420000,-0.056584518,0.088870200,-0.310851000,-0.056584518,0.034888271,2.778362166e-05,0.000000000e+00,1,1,0.514518908,-0.000093485,0.000145947,-1.228802737,0.598652698,0.300000000,0.000000000,0.000000000,-0.800000000,0.500000000
0.317500,-0.000420000,-0.056584518,0.088622718,-0.310851000,-0.056584518,0.034888271,9.651152414e-05,0.000000000e+00,1,1,0.513929852,-0.000093175,0.000145654,-1.227619929,0.598416389,0.300000000,0.000000000,0.000000000,-0.800000000,0.500000000
0.320000,-0.000420000,-0.056584518,0.088344463,-0.310851000,-0.056584518,0.034888271,3.998933911e-05,0.000000000e+00,1,1,0.512820595,-0.000092589,0.000145107,-1.225396387,0.597979685,0.300000000,0.000000000,0.000000000,-0.800000000,0.500000000
0.322500,-0.000420000,-0.056584518,0.088035561,-0.310851000,-0.056584518,0.034888271,3.566339494e-05,0.000000000e+00,1,1,0.511779956,-0.000092043,0.000144594,-1.223311973,0.597578160,0.300000000,0.000000000,0.000000000,-0.800000000,0.500000000
0.325000,-0.000420000,-0.056584518,0.087696177,-0.310851000,-0.056584518,0.034888271,4.019853190e-05,0.000000000e+00,1,1,0.510666821,-0.000091451,0.000144029,-1.221081202,0.597143481,0.300000000,0.000000000,0.000000000,-0.800000000,0.500000000
0.327500,-0.000420000,-0.056584518,0.087326510,-0.310851000,-0.056584518,0.034888271,4.623848367e-05,0.000000000e+00,1,1,0.509456921,-0.000090799,0.000143397,-1.218655368,0.596663990,0.300000000,0.000000000,0.000000000,-0.800000000,0.500000000
0.330000,-0.000420000,-0.056584518,0.086926794,-0.310851000,-0.056584518,0.034888271,5.251765775e-05,0.000000000e+00,1,1,0.508146205,-0.000090085,0.000142696,-1.216026456,0.596137779,0.300000000,0.000000000,0.000000000,-0.800000000,0.500000000
0.332500,-0.000420000,-0.056584518,0.086497301,-0.310851000,-0.056584518,0.034888271,5.881109130e-05,0.000000000e+00,1,1,0.506734169,-0.000089310,0.000141925,-1.213193546,0.595564607,0.300000000,0.000000000,0.000000000,-0.800000000,0.500000000
0.335000,-0.000420000,-0.056584518,0.086038340,-0.310851000,-0.056584518,0.034888271,6.507301711e-05,0.000000000e+00,1,1,0.505220992,-0.000088474,0.000141085,-1.210157067,0.594944516,0.300000000,0.000000000,0.000000000,-0.800000000,0.500000000
0.337500,-0.000420000,-0.056584518,0.085550255,-0.310851000,-0.056584518,0.034888271,7.128885972e-05,0.000000000e+00,1,1,0.503607031,-0.000087578,0.000140174,-1.206917810,0.594277592,0.300000000,0.000000000,0.000000000,-0.800000000,0.500000000
0.340000,-0.000420000,-0.056584518,0.085033428,-0.310851000,-0.056584518,0.034888271,7.744967346e-05,0.000000000e+00,1,1,0.501892746,-0.000086624,0.000139193,-1.203476764,0.593563920,0.300000000,0.000000000,0.000000000,-0.800000000,0.500000000
0.342500,-0.000420000,-0.056584518,0.084488276,-0.310851000,-0.056584518,0.034888271,8.354765611e-05,0.000000000e+00,1,1,0.500078682,-0.000085612,0.000138142,-1.199835087,0.592803581,0.300000000,0.000000000,0.000000000,-0.800000000,0.500000000
0.345000,-0.000420000,-0.056584518,0.083915254,-0.310851000,-0.056584518,0.034888271,8.957532024e-05,0.000000000e+00,1,1,0.498165473,-0.000084543,0.000137020,-1.195994109,0.591996654,0.300000000,0.000000000,0.000000000,-0.800000000,0.500000000
0.347500,-0.000420000,-0.056584518,0.083314853,-0.310851000,-0.056584518,0.034888271,9.552531613e-05,0.000000000e+00,1,1,0.496153836,-0.000083420,0.000135830,-1.191955332,0.591143208,0.300000000,0.000000000,0.000000000,-0.800000000,0.500000000
0.350000,-0.000420000,-0.056584518,0.082687600,-0.310851000,-0.056584518,0.034888271,2.613742778e-05,0.000000000e+00,1,1,0.493776658,-0.000082098,0.000134424,-1.187195935,0.590188887,0.300000000,0.000000000,0.000000000,-0.800000000,0.500000000
0.352500,-0.000420000,-0.056584518,0.082034059,-0.310851000,-0.056584518,0.034888271,9.418788214e-05,0.000000000e+00,1,1,0.491781626,-0.000080992,0.000133221,-1.183190962,0.589346974,0.300000000,0.000000000,0.000000000,-0.800000000,0.500000000
0.355000,-0.000420000,-0.056584518,0.081354828,-0.310851000,-0.056584518,0.034888271,3.019171957e-05,0.000000000e+00,1,1,0.489228706,-0.000079575,0.000131678,-1.178078913,0.588311707,0.300000000,0.000000000,0.000000000,-0.800000000,0.500000000
0.357500,-0.000420000,-0.056584518,0.080650542,-0.310851000,-0.056584518,0.034888271,2.768862739e-05,0.000000000e+00,1,1,0.486789579,-0.000078227,0.000130188,-1.173196653,0.587336516,0.300000000,0.000000000,0.000000000,-0.800000000,0.500000000
0.360000,-0.000420000,-0.056584518,0.079921874,-0.310851000,-0.056584518,0.034888271,2.950704257e-05,0.000000000e+00,1,1,0.484271991,-0.000076840,0.000128634,-1.168156844,0.586323667,0.300000000,0.000000000,0.000000000,-0.800000000,0.500000000
0.362500,-0.000420000,-0.056584518,0.079169528,-0.310851000,-0.056584518,0.034888271,3.160340361e-05,0.000000000e+00,1,1,0.481663240,-0.000075407,0.000127010,-1.162934182,0.585266191,0.300000000,0.000000000,0.000000000,-0.800000000,0.500000000
0.365000,-0.000420000,-0.056584518,0.078394245,-0.310851000,-0.056584518,0.034888271,3.368652514e-05,0.000000000e+00,1,1,0.478963710,-0.000073931,0.000125315,-1.157529497,0.584163675,0.300000000,0.000000000,0.000000000,-0.800000000,0.500000000
0.367500,-0.000420000,-0.056584518,0.077596802,-0.310851000,-0.056584518,0.034888271,3.573276346e-05,0.000000000e+00,1,1,0.476174833,-0.000072412,0.000123551,-1.151945694,0.583016176,0.300000000,0.000000000,0.000000000,-0.800000000,0.500000000
0.370000,-0.000420000,-0.056584518,0.076778008,-0.310851000,-0.056584518,0.034888271,3.773775210e-05,0.000000000e+00,1,1,0.473298224,-0.000070855,0.000121719,-1.146186029,0.581823789,0.300000000,0.000000000,0.000000000,-0.800000000,0.500000000
0.372500,-0.000420000,-0.056584518,0.075938707,-0.310851000,-0.056584518,0.034888271,3.969860951e-05,0.000000000e+00,1,1,0.470335616,-0.000069260,0.000119819,-1.140253994,0.580586613,0.300000000,0.000000000,0.000000000,-0.800000000,0.500000000
0.375000,-0.000420000,-0.056584518,0.075079776,-0.310851000,-0.056584518,0.034888271,4.161263892e-05,0.000000000e+00,1,1,0.467288863,-0.000067632,0.000117853,-1.134153314,0.579304756,0.300000000,0.000000000,0.000000000,-0.800000000,0.500000000
0.377500,-0.000420000,-0.056584518,0.074202126,-0.310851000,-0.056584518,0.034888271,4.347721661e-05,0.000000000e+00,1,1,0.464159942,-0.000065972,0.000115823,-1.127887955,0.577978335,0.300000000,0.000000000,0.000000000,-0.800000000,0.500000000
0.380000,-0.000420000,-0.056584518,0.073306700,-0.310851000,-0.056584518,0.034888271,4.528977056e-05,0.000000000e+00,1,1,0.460950958,-0.000064284,0.000113730,-1.121462130,0.576607487,0.300000000,0.000000000,0.000000000,-0.800000000,0.500000000
0.382500,-0.000420000,-0.056584518,0.072394473,-0.310851000,-0.056584518,0.034888271,4.704776775e-05,0.000000000e+00,1,1,0.457664145,-0.000062569,0.000111576,-1.114880310,0.575192367,0.300000000,0.000000000,0.000000000,-0.800000000,0.500000000
0.385000,-0.000420000,-0.056584518,0.071466451,-0.310851000,-0.056584518,0.034888271,4.874870544e-05,0.000000000e+00,1,1,0.454301876,-0.000060831,0.000109362,-1.108147232,0.573733158,0.300000000,0.000000000,0.000000000,-0.800000000,0.500000000
0.387500,-0.000420000,-0.056584518,0.070523672,-0.310851000,-0.056584518,0.034888271,5.039010294e-05,0.000000000e+00,1,1,0.450866662,-0.000059074,0.000107090,-1.101267907,0.572230074,0.300000000,0.000000000,0.000000000,-0.800000000,0.500000000
0.390000,-0.000420000,-0.056584518,0.069567205,-0.310851000,-0.056584518,0.034888271,5.196949480e-05,0.000000000e+00,1,1,0.447361161,-0.000057298,0.000104762,-1.094247634,0.570683368,0.300000000,0.000000000,0.000000000,-0.800000000,0.500000000
0.392500,-0.000420000,-0.056584518,0.068598146,-0.310851000,-0.056584518,0.034888271,5.348442459e-05,0.000000000e+00,1,1,0.443788180,-0.000055509,0.000102381,-1.087092003,0.569093341,0.300000000,0.000000000,0.000000000,-0.800000000,0.500000000
0.395000,-0.000420000,-0.056584518,0.067617623,-0.310851000,-0.056584518,0.034888271,5.493243839e-05,0.000000000e+00,1,1,0.440150685,-0.000053708,0.000099949,-1.079806917,0.567460345,0.300000000,0.000000000,0.000000000,-0.800000000,0.500000000
0.397500,-0.000420000,-0.056584518,0.066626793,-0.310851000,-0.056584518,0.034888271,5.631107893e-05,0.000000000e+00,1,1,0.436451800,-0.000051898,0.000097467,-1.072398592,0.565784797,0.300000000,0.000000000,0.000000000,-0.800000000,0.500000000
0.400000,-0.000420000,-0.056584518,0.065626839,-0.310851000,-0.056584518,0.034888271,5.761787907e-05,0.000000000e+00,1,1,0.432694819,-0.000050083,0.000094939,-1.064873578,0.564067183,0.300000000,0.000000000,0.000000000,-0.800000000,0.500000000
0.402500,-0.000420000,-0.056584518,0.064618972,-0.310851000,-0.056584518,0.034888271,5.885035516e-05,0.000000000e+00,1,1,0.428883209,-0.000048266,0.000092367,-1.057238769,0.562308074,0.300000000,0.000000000,0.000000000,-0.800000000,0.500000000
0.405000,-0.000420000,-0.056584518,0.063604431,-0.310851000,-0.056584518,0.034888271,6.000599981e-05,0.000000000e+00,1,1,0.425020618,-0.000046449,0.000089755,-1.049501415,0.560508130,0.300000000,0.000000000,0.000000000,-0.800000000,0.500000000
0.407500,-0.000420000,-0.056584518,0.062584480,-0.310851000,-0.056584518,0.034888271,6.108227448e-05,0.000000000e+00,1,1,0.421110882,-0.000044635,0.000087104,-1.041669139,0.558668120,0.300000000,0.000000000,0.000000000,-0.800000000,0.500000000
0.410000,-0.000420000,-0.056584518,0.061560409,-0.310851000,-0.056584518,0.034888271,6.207660113e-05,0.000000000e+00,1,1,0.417158028,-0.000042828,0.000084418,-1.033749947,0.556788927,0.300000000,0.000000000,0.000000000,-0.800000000,0.500000000
0.412500,-0.000420000,-0.056584518,0.060533533,-0.310851000,-0.056584518,0.034888271,6.298635311e-05,0.000000000e+00,1,1,0.413166287,-0.000041030,0.000081700,-1.025752248,0.554871567,0.300000000,0.000000000,0.000000000,-0.800000000,0.500000000
0.415000,-0.000420000,-0.056584518,0.059505191,-0.310851000,-0.056584518,0.034888271,6.380884611e-05,0.000000000e+00,1,1,0.409140099,-0.000039244,0.000078954,-1.017684870,0.552917202,0.300000000,0.000000000,0.000000000,-0.800000000,0.500000000
0.417500,-0.000420000,-0.056584518,0.058476746,-0.310851000,-0.056584518,0.034888271,6.454132688e-05,0.000000000e+00,1,1,0.405084118,-0.000037473,0.000076183,-1.009557071,0.550927157,0.300000000,0.000000000,0.000000000,-0.800000000,0.500000000
0.420000,-0.000420000,-0.056584518,0.057449583,-0.310851000,-0.056584518,0.034888271,6.518096275e-05,0.000000000e+00,1,1,0.401003224,-0.000035719,0.000073390,-1.001378560,0.548902936,0.300000000,0.000000000,0.000000000,-0.800000000,0.500000000
0.422500,-0.000420000,-0.056584518,0.056425112,-0.310851000,-0.056584518,0.034888271,6.572482917e-05,0.000000000e+00,1,1,0.396902531,-0.000033986,0.000070580,-0.993159514,0.546846239,0.300000000,0.000000000,0.000000000,-0.800000000,0.500000000
0.425000,-0.000420000,-0.056584518,0.055404763,-0.310851000,-0.056584518,0.034888271,6.616989642e-05,0.000000000e+00,1,1,0.392787389,-0.000032276,0.000067757,-0.984910593,0.544758984,0.300000000,0.000000000,0.000000000,-0.800000000,0.500000000
0.427500,-0.000420000,-0.056584518,0.054389988,-0.310851000,-0.056584518,0.034888271,6.651301620e-05,0.000000000e+00,1,1,0.388663401,-0.000030592,0.000064924,-0.976642961,0.542643327,0.300000000,0.000000000,0.000000000,-0.800000000,0.500000000
0.430000,-0.000420000,-0.056584518,0.053382261,-0.310851000,-0.056584518,0.034888271,6.675090609e-05,0.000000000e+00,1,1,0.384536425,-0.000028936,0.000062087,-0.968368304,0.540501681,0.300000000,0.000000000,0.000000000,-0.800000000,0.500000000
0.432500,-0.000420000,-0.056584518,0.052383076,-0.310851000,-0.056584518,0.034888271,6.688013403e-05,0.000000000e+00,1,1,0.380412583,-0.000027310,0.000059249,-0.960098843,0.538336740,0.300000000,0.000000000,0.000000000,-0.800000000,0.500000000
0.435000,-0.000420000,-0.056584518,0.051393948,-0.310851000,-0.056584518,0.034888271,6.689710097e-05,0.000000000e+00,1,1,0.376298273,-0.000025717,0.000056415,-0.951847359,0.536151503,0.300000000,0.000000000,0.000000000,-0.800000000,0.500000000
0.437500,-0.000420000,-0.056584518,0.050416411,-0.310851000,-0.056584518,0.034888271,6.679802331e-05,0.000000000e+00,1,1,0.372200173,-0.000024159,0.000053591,-0.943627208,0.533949300,0.300000000,0.000000000,0.000000000,-0.800000000,0.500000000
0.440000,-0.000420000,-0.056584518,0.049452024,-0.310851000,-0.056584518,0.034888271,6.657891319e-05,0.000000000e+00,1,1,0.368125252,-0.000022639,0.000050780,-0.935452340,0.531733810,0.300000000,0.000000000,0.000000000,-0.800000000,0.500000000
0.442500,-0.000420000,-0.056584518,0.048502360,-0.310851000,-0.056584518,0.034888271,6.623555848e-05,0.000000000e+00,1,1,0.364080775,-0.000021158,0.000047988,-0.927337316,0.529509096,0.300000000,0.000000000,0.000000000,-0.800000000,0.500000000
0.445000,-0.000420000,-0.056584518,0.047569019,-0.310851000,-0.056584518,0.034888271,6.576350084e-05,0.000000000e+00,1,1,0.360074314,-0.000019718,0.000045222,-0.919297326,0.527279625,0.300000000,0.000000000,0.000000000,-0.800000000,0.500000000
0.447500,-0.000420000,-0.056584518,0.046653619,-0.310851000,-0.056584518,0.034888271,6.515801210e-05,0.000000000e+00,1,1,0.356113752,-0.000018321,0.000042485,-0.911348208,0.525050296,0.300000000,0.000000000,0.000000000,-0.800000000,0.500000000
0.450000,-0.000420000,-0.056584518,0.045757801,-0.310851000,-0.056584518,0.034888271,6.441406936e-05,0.000000000e+00,1,1,0.352207294,-0.000016970,0.000039784,-0.903506462,0.522826466,0.300000000,0.000000000,0.000000000,-0.800000000,0.500000000
0.452500,-0.000420000,-0.056584518,0.044883230,-0.310851000,-0.056584518,0.034888271,6.352632680e-05,0.000000000e+00,1,1,0.348363471,-0.000015664,0.000037125,-0.895789272,0.520613975,0.300000000,0.000000000,0.000000000,-0.800000000,0.500000000
0.455000,-0.000420000,-0.056584518,0.044031594,-0.310851000,-0.056584518,0.034888271,6.248908418e-05,0.000000000e+00,1,1,0.344591151,-0.000014407,0.000034514,-0.888214517,0.518419176,0.300000000,0.000000000,0.000000000,-0.800000000,0.500000000
0.457500,-0.000420000,-0.056584518,0.043204610,-0.310851000,-0.056584518,0.034888271,6.129625160e-05,0.000000000e+00,1,1,0.340899542,-0.000013200,0.000031957,-0.880800794,0.516248951,0.300000000,0.000000000,0.000000000,-0.800000000,0.500000000
0.460000,-0.000420000,-0.056584518,0.042404024,-0.310851000,-0.056584518,0.034888271,5.994130629e-05,0.000000000e+00,1,1,0.337298204,-0.000012043,0.000029461,-0.873567433,0.514110743,0.300000000,0.000000000,0.000000000,-0.800000000,0.500000000
0.462500,-0.000420000,-0.056584518,0.041631613,-0.310851000,-0.056584518,0.034888271,5.841724187e-05,0.000000000e+00,1,1,0.333797055,-0.000010939,0.000027032,-0.866534520,0.512012573,0.300000000,0.000000000,0.000000000,-0.800000000,0.500000000
0.465000,-0.000420000,-0.056584518,0.040889195,-0.310851000,-0.056584518,0.034888271,5.671650294e-05,0.000000000e+00,1,1,0.330406386,-0.000009888,0.000024678,-0.859722922,0.509963062,0.300000000,0.000000000,0.000000000,-0.800000000,0.500000000
0.467500,-0.000420000,-0.056584518,0.040178628,-0.310851000,-0.056584518,0.034888271,5.483090098e-05,0.000000000e+00,1,1,0.327136871,-0.000008892,0.000022405,-0.853154314,0.507971452,0.300000000,0.000000000,0.000000000,-0.800000000,0.500000000
0.470000,-0.000420000,-0.056584518,0.039501821,-0.310851000,-0.056584518,0.034888271,5.275150139e-05,0.000000000e+00,1,1,0.323999588,-0.000007951,0.000020221,-0.846851222,0.506047624,0.300000000,0.000000000,0.000000000,-0.800000000,0.500000000
0.472500,-0.000420000,-0.056584518,0.038860742,-0.310851000,-0.056584518,0.034888271,5.046846829e-05,0.000000000e+00,1,1,0.321006044,-0.000007067,0.000018133,-0.840837074,0.504202117,0.300000000,0.000000000,0.000000000,-0.800000000,0.500000000
0.475000,-0.000420000,-0.056584518,0.038257434,-0.310851000,-0.056584518,0.034888271,4.797084367e-05,0.000000000e+00,1,1,0.318168212,-0.000006242,0.000016149,-0.835136275,0.502446155,0.300000000,0.000000000,0.000000000,-0.800000000,0.500000000
0.477500,-0.000420000,-0.056584518,0.037694028,-0.310851000,-0.056584518,0.034888271,4.524622734e-05,0.000000000e+00,1,1,0.315498581,-0.000005475,0.000014279,-0.829774316,0.500791673,0.300000000,0.000000000,0.000000000,-0.800000000,0.500000000
0.480000,-0.000420000,-0.056584518,0.037172768,-0.310851000,-0.056584518,0.034888271,4.228029615e-05,0.000000000e+00,1,1,0.313010237,-0.000004768,0.000012529,-0.824777925,0.499251357,0.300000000,0.000000000,0.000000000,-0.800000000,0.500000000
0.482500,-0.000420000,-0.056584518,0.036696044,-0.310851000,-0.056584518,0.034888271,9.369073984e-05,0.000000000e+00,1,1,0.310995920,-0.000004219,0.000011134,-0.820720479,0.497929298,0.300000000,0.000000000,0.000000000,-0.800000000,0.500000000
0.485000,-0.000420000,-0.056584518,0.036266439,-0.310851000,-0.056584518,0.034888271,9.494262974e-05,0.000000000e+00,1,1,0.308959287,-0.000003667,0.000009728,-0.816617937,0.496575708,0.300000000,0.000000000,0.000000000,-0.800000000,0.500000000
0.487500,-0.000420000,-0.056584518,0.035886805,-0.310851000,-0.056584518,0.034888271,8.638488011e-05,0.000000000e+00,1,1,0.307102307,-0.000003165,0.000008441,-0.812880105,0.495350661,0.300000000,0.000000000,0.000000000,-0.800000000,0.500000000
0.490000,-0.000420000,-0.056584518,0.035560374,-0.310851000,-0.056584518,0.034888271,7.535670648e-05,0.000000000e+00,1,1,0.305476897,-0.000002726,0.000007304,-0.809612145,0.494297667,0.300000000,0.000000000,0.000000000,-0.800000000,0.500000000
0.492500,-0.000420000,-0.056584518,0.035290971,-0.310851000,-0.056584518,0.034888271,6.309781339e-05,0.000000000e+00,1,1,0.304109265,-0.000002354,0.000006336,-0.806867376,0.493440291,0.300000000,0.000000000,0.000000000,-0.800000000,0.500000000
0.495000,-0.000420000,-0.056584518,0.035083425,-0.310851000,-0.056584518,0.034888271,4.965028860e-05,0.000000000e+00,1,1,0.303024524,-0.000002055,0.000005551,-0.804697035,0.492801292,0.300000000,0.000000000,0.000000000,-0.800000000,0.500000000
0.497500,-0.000420000,-0.056584518,0.034944610,-0.310851000,-0.056584518,0.034888271,8.083345082e-05,0.000000000e+00,1,1,0.302495566,-0.000001911,0.000005168,-0.803638041,0.492489238,0.300000000,0.000000000,0.000000000,-0.800000000,0.500000000
0.500000,-0.000420000,-0.056584518,0.034888271,-0.310851000,-0.056584518,0.034888271,5.885713984e-05,0.000000000e+00,1,1,0.302104123,-0.000001800,0.000004874,-0.802859383,0.492286740,0.300000000,0.000000000,0.000000000,-0.800000000,0.500000000
0.502500,-0.000420000,-0.056584518,0.034888271,-0.310851000,-0.056584518,0.034945176,5.885713984e-05,5.690490371e-05,1,1,0.302104123,-0.000001800,0.000004874,-0.802859383,0.492286740,0.300000000,0.000000000,0.000000000,-0.800000000,0.500000000
0.505000,-0.000420000,-0.056584518,0.034888271,-0.310851000,-0.056584518,0.035087367,5.885713984e-05,8.546035305e-05,1,1,0.302104123,-0.000001800,0.000004874,-0.802859383,0.492286740,0.300534504,0.000000118,0.000000346,-0.801091476,0.500441734
0.507500,-0.000420000,-0.056584518,0.034888271,-0.310851000,-0.056584518,0.035303236,5.885713984e-05,5.568526213e-05,1,1,0.302104123,-0.000001800,0.000004874,-0.802859383,0.492286740,0.301690157,0.000000388,0.000001091,-0.803446954,0.501393435
0.510000,-0.000420000,-0.056584518,0.034888271,-0.310851000,-0.056584518,0.035587806,5.885713984e-05,6.300922410e-05,1,1,0.302104123,-0.000001800,0.000004874,-0.802859383,0.492286740,0.302991419,0.000000696,0.000001929,-0.806098406,0.502461204
0.512500,-0.000420000,-0.056584518,0.034888271,-0.310851000,-0.056584518,0.035938011,5.885713984e-05,7.658332538e-05,1,1,0.302104123,-0.000001800,0.000004874,-0.802859383,0.492286740,0.304566537,0.000001072,0.000002943,-0.809307732,0.503748637
0.515000,-0.000420000,-0.056584518,0.034888271,-0.310851000,-0.056584518,0.036351687,5.885713984e-05,9.090256626e-05,1,1,0.302104123,-0.000001800,0.000004874,-0.802859383,0.492286740,0.306428471,0.000001521,0.000004141,-0.813100964,0.505263221
0.517500,-0.000420000,-0.056584518,0.034888271,-0.310851000,-0.056584518,0.036827177,5.885713984e-05,4.605554982e-05,1,1,0.302104123,-0.000001800,0.000004874,-0.802859383,0.492286740,0.308845477,0.000002121,0.000005694,-0.818021249,0.507215497
0.520000,-0.000420000,-0.056584518,0.034888271,-0.310851000,-0.056584518,0.037363142,5.885713984e-05,4.764938509e-05,1,1,0.302104123,-0.000001800,0.000004874,-0.802859383,0.492286740,0.311314426,0.000002737,0.000007282,-0.823048089,0.509195219
0.522500,-0.000420000,-0.056584518,0.034888271,-0.310851000,-0.056584518,0.037958445,5.885713984e-05,5.278661028e-05,1,1,0.302104123,-0.000001800,0.000004874,-0.802859383,0.492286740,0.314026652,0.000003423,0.000009027,-0.828569572,0.511353185
0.525000,-0.000420000,-0.056584518,0.034888271,-0.310851000,-0.056584518,0.038612083,5.885713984e-05,5.812621785e-05,1,1,0.302104123,-0.000001800,0.000004874,-0.802859383,0.492286740,0.316989045,0.000004186,0.000010934,-0.834599071,0.513689962
0.527500,-0.000420000,-0.056584518,0.034888271,-0.310851000,-0.056584518,0.039323146,5.885713984e-05,6.341118542e-05,1,1,0.302104123,-0.000001800,0.000004874,-0.802859383,0.492286740,0.320194281,0.000005026,0.000012996,-0.841121296,0.516194501
0.530000,-0.000420000,-0.056584518,0.034888271,-0.310851000,-0.056584518,0.040090784,5.885713984e-05,6.862271455e-05,1,1,0.302104123,-0.000001800,0.000004874,-0.802859383,0.492286740,0.323634056,0.000005946,0.000015211,-0.848118991,0.518854845
0.532500,-0.000420000,-0.056584518,0.034888271,-0.310851000,-0.056584518,0.040914186,5.885713984e-05,7.375921902e-05,1,1,0.302104123,-0.000001800,0.000004874,-0.802859383,0.492286740,0.327300060,0.000006946,0.000017571,-0.855574893,0.521658969
0.535000,-0.000420000,-0.056584518,0.034888271,-0.310851000,-0.056584518,0.041792560,5.885713984e-05,7.881959972e-05,1,1,0.302104123,-0.000001800,0.000004874,-0.802859383,0.492286740,0.331184020,0.000008029,0.000020072,-0.863471810,0.524594868
0.537500,-0.000420000,-0.056584518,0.034888271,-0.310851000,-0.056584518,0.042725128,5.885713984e-05,8.380224942e-05,1,1,0.302104123,-0.000001800,0.000004874,-0.802859383,0.492286740,0.335277686,0.000009195,0.000022710,-0.871792598,0.527650602
0.540000,-0.000420000,-0.056584518,0.034888271,-0.310851000,-0.056584518,0.043711111,5.885713984e-05,8.870518332e-05,1,1,0.302104123,-0.000001800,0.000004874,-0.802859383,0.492286740,0.339572817,0.000010448,0.000025478,-0.880520146,0.530814341
0.542500,-0.000420000,-0.056584518,0.034888271,-0.310851000,-0.056584518,0.044749722,5.885713984e-05,9.352619182e-05,1,1,0.302104123,-0.000001800,0.000004874,-0.802859383,0.492286740,0.344061184,0.000011789,0.000028371,-0.889637376,0.534074417
0.545000,-0.000420000,-0.056584518,0.034888271,-0.310851000,-0.056584518,0.045840163,5.885713984e-05,9.826295152e-05,1,1,0.302104123,-0.000001800,0.000004874,-0.802859383,0.492286740,0.348734575,0.000013220,0.000031386,-0.899127253,0.537419363
0.547500,-0.000420000,-0.056584518,0.034888271,-0.310851000,-0.056584518,0.046981619,5.885713984e-05,4.953789187e-05,1,1,0.302104123,-0.000001800,0.000004874,-0.802859383,0.492286740,0.353818169,0.000014828,0.000034669,-0.909438986,0.540973566
0.550000,-0.000420000,-0.056584518,0.034888271,-0.310851000,-0.056584518,0.048173252,5.885713984e-05,5.022227080e-05,1,1,0.302104123,-0.000001800,0.000004874,-0.802859383,0.492286740,0.358857836,0.000016458,0.000037932,-0.919659492,0.544431618
0.552500,-0.000420000,-0.056584518,0.034888271,-0.310851000,-0.056584518,0.049414204,5.885713984e-05,5.243751519e-05,1,1,0.302104123,-0.000001800,0.000004874,-0.802859383,0.492286740,0.364051576,0.000018181,0.000041299,-0.930188341,0.547932687
0.555000,-0.000420000,-0.056584518,0.034888271,-0.310851000,-0.056584518,0.050703586,5.885713984e-05,5.466421937e-05,1,1,0.302104123,-0.000001800,0.000004874,-0.802859383,0.492286740,0.369397915,0.000020002,0.000044768,-0.941022012,0.551470955
0.557500,-0.000420000,-0.056584518,0.034888271,-0.310851000,-0.056584518,0.052040485,5.885713984e-05,5.685255505e-05,1,1,0.302104123,-0.000001800,0.000004874,-0.802859383,0.492286740,0.374889123,0.000021924,0.000048335,-0.952144484,0.555036491
0.560000,-0.000420000,-0.056584518,0.034888271,-0.310851000,-0.056584518,0.053423956,5.885713984e-05,5.899923632e-05,1,1,0.302104123,-0.000001800,0.000004874,-0.802859383,0.492286740,0.380517341,0.000023948,0.000051996,-0.963539520,0.558619657
0.562500,-0.000420000,-0.056584518,0.034888271,-0.310851000,-0.056584518,0.054853023,5.885713984e-05,6.110257644e-05,1,1,0.302104123,-0.000001800,0.000004874,-0.802859383,0.492286740,0.386274798,0.000026075,0.000055746,-0.975191074,0.562211262
0.565000,-0.000420000,-0.056584518,0.034888271,-0.310851000,-0.056584518,0.056326678,5.885713984e-05,6.316106877e-05,1,1,0.302104123,-0.000001800,0.000004874,-0.802859383,0.492286740,0.392153815,0.000028309,0.000059581,-0.987083324,0.565802582
0.567500,-0.000420000,-0.056584518,0.034888271,-0.310851000,-0.056584518,0.057843882,5.885713984e-05,6.517333532e-05,1,1,0.302104123,-0.000001800,0.000004874,-0.802859383,0.492286740,0.398146821,0.000030650,0.000063496,-0.999200685,0.569385371
0.570000,-0.000420000,-0.056584518,0.034888271,-0.310851000,-0.056584518,0.059403560,5.885713984e-05,6.713811679e-05,1,1,0.302104123,-0.000001800,0.000004874,-0.802859383,0.492286740,0.404246358,0.000033100,0.000067487,-1.011527831,0.572951867
0.572500,-0.000420000,-0.056584518,0.034888271,-0.310851000,-0.056584518,0.061004606,5.885713984e-05,6.905426431e-05,1,1,0.302104123,-0.000001800,0.000004874,-0.802859383,0.492286740,0.410445090,0.000035660,0.000071551,-1.024049702,0.576494792
0.575000,-0.000420000,-0.056584518,0.034888271,-0.310851000,-0.056584518,0.062645878,5.885713984e-05,7.092073046e-05,1,1,0.302104123,-0.000001800,0.000004874,-0.802859383,0.492286740,0.416735805,0.000038333,0.000075683,-1.036751521,0.580007351
0.577500,-0.000420000,-0.056584518,0.034888271,-0.310851000,-0.056584518,0.064326202,5.885713984e-05,7.273656088e-05,1,1,0.302104123,-0.000001800,0.000004874,-0.802859383,0.492286740,0.423111423,0.000041118,0.000079878,-1.049618795,0.583483229
0.580000,-0.000420000,-0.056584518,0.034888271,-0.310851000,-0.056584518,0.066044369,5.885713984e-05,7.450088611e-05,1,1,0.302104123,-0.000001800,0.000004874,-0.802859383,0.492286740,0.429564998,0.000044018,0.000084134,-1.062637331,0.586916582
0.582500,-0.000420000,-0.056584518,0.034888271,-0.310851000,-0.056584518,0.067799137,5.885713984e-05,7.621291388e-05,1,1,0.302104123,-0.000001800,0.000004874,-0.802859383,0.492286740,0.436089721,0.000047034,0.000088447,-1.075793230,0.590302027
0.585000,-0.000420000,-0.056584518,0.034888271,-0.310851000,-0.056584518,0.069589230,5.885713984e-05,7.787192161e-05,1,1,0.302104123,-0.000001800,0.000004874,-0.802859383,0.492286740,0.442678922,0.000050166,0.000092812,-1.089072899,0.593634629
0.587500,-0.000420000,-0.056584518,0.034888271,-0.310851000,-0.056584518,0.071413341,5.885713984e-05,7.947724998e-05,1,1,0.302104123,-0.000001800,0.000004874,-0.802859383,0.492286740,0.449326073,0.000053416,0.000097226,-1.102463046,0.596909891
0.590000,-0.000420000,-0.056584518,0.034888271,-0.310851000,-0.056584518,0.073270128,5.885713984e-05,9.069969872e-05,1,1,0.302104123,-0.000001800,0.000004874,-0.802859383,0.492286740,0.456091735,0.000056815,0.000101728,-1.116017754,0.599423337
0.592500,-0.000420000,-0.056584518,0.034888271,-0.310851000,-0.056584518,0.075158219,5.885713984e-05,9.688467473e-05,1,1,0.302104123,-0.000001800,0.000004874,-0.802859383,0.492286740,0.463380374,0.000060572,0.000106572,-1.130133509,0.599441608
0.595000,-0.000420000,-0.056584518,0.034888271,-0.310851000,-0.056584518,0.077076209,5.885713984e-05,9.844420690e-05,1,1,0.302104123,-0.000001800,0.000004874,-0.802859383,0.492286740,0.470713169,0.000064466,0.000111455,-1.144313593,0.599452442
0.597500,-0.000420000,-0.056584518,0.034888271,-0.310851000,-0.056584518,0.079022665,5.885713984e-05,9.973824447e-05,1,1,0.302104123,-0.000001800,0.000004874,-0.802859383,0.492286740,0.478059046,0.000068483,0.000116360,-1.158519555,0.599462410
0.600000,-0.000420000,-0.056584518,0.034888271,-0.310851000,-0.056584518,0.080996122,5.885713984e-05,5.776327404e-05,1,1,0.302104123,-0.000001800,0.000004874,-0.802859383,0.492286740,0.485586698,0.000072778,0.000121478,-1.173033058,0.599509984
0.602500,-0.000420000,-0.056584518,0.034888271,-0.310851000,-0.056584518,0.082995087,5.885713984e-05,5.801395615e-05,1,1,0.302104123,-0.000001800,0.000004874,-0.802859383,0.492286740,0.492939518,0.000077101,0.000126508,-1.187256557,0.599534181
0.605000,-0.000420000,-0.056584518,0.034888271,-0.310851000,-0.056584518,0.085018038,5.885713984e-05,5.883353079e-05,1,1,0.302104123,-0.000001800,0.000004874,-0.802859383,0.492286740,0.500285065,0.000081547,0.000131550,-1.201468996,0.599560433
0.607500,-0.000420000,-0.056584518,0.034888271,-0.310851000,-0.056584518,0.087063427,5.885713984e-05,5.962878793e-05,1,1,0.302104123,-0.000001800,0.000004874,-0.802859383,0.492286740,0.507621526,0.000086117,0.000136602,-1.215665206,0.599585345
0.610000,-0.000420000,-0.056584518,0.034888271,-0.310851000,-0.056584518,0.089129680,5.885713984e-05,6.038810797e-05,1,1,0.302104123,-0.000001800,0.000004874,-0.802859383,0.492286740,0.514944084,0.000090812,0.000141664,-1.229835792,0.599608896
0.612500,-0.000420000,-0.056584518,0.034888271,-0.310851000,-0.056584518,0.091215196,5.885713984e-05,6.111184379e-05,1,1,0.302104123,-0.000001800,0.000004874,-0.802859383,0.492286740,0.522247999,0.000095631,0.000146732,-1.243971548,0.599631133
0.615000,-0.000420000,-0.056584518,0.034888271,-0.310851000,-0.056584518,0.093318351,5.885713984e-05,6.180056705e-05,1,1,0.302104123,-0.000001800,0.000004874,-0.802859383,0.492286740,0.529528662,0.000100572,0.000151802,-1.258063526,0.599652105
0.617500,-0.000420000,-0.056584518,0.034888271,-0.310851000,-0.056584518,0.095437499,5.885713984e-05,6.245483014e-05,1,1,0.302104123,-0.000001800,0.000004874,-0.802859383,0.492286740,0.536781593,0.000105634,0.000156874,-1.272103020,0.599671860
0.620000,-0.000420000,-0.056584518,0.034888271,-0.310851000,-0.056584518,0.097570971,5.885713984e-05,6.307516205e-05,1,1,0.302104123,-0.000001800,0.000004874,-0.802859383,0.492286740,0.544002433,0.000110816,0.000161944,-1.286081558,0.599690445
0.622500,-0.000420000,-0.056584518,0.034888271,-0.310851000,-0.056584518,0.099717079,5.885713984e-05,6.366206887e-05,1,1,0.302104123,-0.000001800,0.000004874,-0.802859383,0.492286740,0.551186938,0.000116117,0.000167010,-1.299990885,0.599707906
0.625000,-0.000420000,-0.056584518,0.034888271,-0.310851000,-0.056584518,0.101874113,5.885713984e-05,6.421603475e-05,1,1,0.302104123,-0.000001800,0.000004874,-0.802859383,0.492286740,0.558330969,0.000121534,0.000172069,-1.313822950,0.599724291
0.627500,-0.000420000,-0.056584518,0.034888271,-0.310851000,-0.056584518,0.104040347,5.885713984e-05,6.473752269e-05,1,1,0.302104123,-0.000001800,0.000004874,-0.802859383,0.492286740,0.565430490,0.000127066,0.000177119,-1.327569901,0.599739645
0.630000,-0.000420000,-0.056584518,0.034888271,-0.310851000,-0.056584518,0.106214039,5.885713984e-05,6.522697557e-05,1,1,0.302104123,-0.000001800,0.000004874,-0.802859383,0.492286740,0.572481563,0.000132710,0.000182158,-1.341224068,0.599754013
0.632500,-0.000420000,-0.056584518,0.034888271,-0.310851000,-0.056584518,0.108393429,5.885713984e-05,6.568481709e-05,1,1,0.302104123,-0.000001800,0.000004874,-0.802859383,0.492286740,0.579480338,0.000138464,0.000187182,-1.354777957,0.599767438
0.635000,-0.000420000,-0.056584518,0.034888271,-0.310851000,-0.056584518,0.110576746,5.885713984e-05,6.611145312e-05,1,1,0.302104123,-0.000001800,0.000004874,-0.802859383,0.492286740,0.586423054,0.000144326,0.000192190,-1.368224241,0.599779964
0.637500,-0.000420000,-0.056584518,0.034888271,-0.310851000,-0.056584518,0.112762205,5.885713984e-05,6.650727240e-05,1,1,0.302104123,-0.000001800,0.000004874,-0.802859383,0.492286740,0.593306033,0.000150291,0.000197178,-1.381555751,0.599791632
0.640000,-0.000420000,-0.056584518,0.034888271,-0.310851000,-0.056584518,0.114948009,5.885713984e-05,6.687264800e-05,1,1,0.302104123,-0.000001800,0.000004874,-0.802859383,0.492286740,0.600125673,0.000156358,0.000202145,-1.394765468,0.599802483
0.642500,-0.000420000,-0.056584518,0.034888271,-0.310851000,-0.056584518,0.117132353,5.885713984e-05,6.720793832e-05,1,1,0.302104123,-0.000001800,0.000004874,-0.802859383,0.492286740,0.606878447,0.000162522,0.000207088,-1.407846518,0.599812558
0.645000,-0.000420000,-0.056584518,0.034888271,-0.310851000,-0.056584518,0.119313423,5.885713984e-05,6.751348815e-05,1,1,0.302104123,-0.000001800,0.000004874,-0.802859383,0.492286740,0.613560901,0.000168779,0.000212005,-1.420792164,0.599821895
0.647500,-0.000420000,-0.056584518,0.034888271,-0.310851000,-0.056584518,0.121489398,5.885713984e-05,6.778962979e-05,1,1,0.302104123,-0.000001800,0.000004874,-0.802859383,0.492286740,0.620169648,0.000175127,0.000216893,-1.433595800,0.599830531
0.650000,-0.000420000,-0.056584518,0.034888271,-0.310851000,-0.056584518,0.123658454,5.885713984e-05,6.803668424e-05,1,1,0.302104123,-0.000001800,0.000004874,-0.802859383,0.492286740,0.626701368,0.000181560,0.000221750,-1.446250949,0.599838503
0.652500,-0.000420000,-0.056584518,0.034888271,-0.310851000,-0.056584518,0.125818760,5.885713984e-05,6.825496222e-05,1,1,0.302104123,-0.000001800,0.000004874,-0.802859383,0.492286740,0.633152800,0.000188073,0.000226573,-1.458751252,0.599845846
0.655000,-0.000420000,-0.056584518,0.034888271,-0.310851000,-0.056584518,0.127968485,5.885713984e-05,6.844476519e-05,1,1,0.302104123,-0.000001800,0.000004874,-0.802859383,0.492286740,0.639520748,0.000194663,0.000231361,-1.471090471,0.599852594
0.657500,-0.000420000,-0.056584518,0.034888271,-0.310851000,-0.056584518,0.130105798,5.885713984e-05,6.860638633e-05,1,1,0.302104123,-0.000001800,0.000004874,-0.802859383,0.492286740,0.645802073,0.000201323,0.000236110,-1.483262479,0.599858780
0.660000,-0.000420000,-0.056584518,0.034888271,-0.310851000,-0.056584518,0.132228869,5.885713984e-05,6.874011175e-05,1,1,0.302104123,-0.000001800,0.000004874,-0.802859383,0.492286740,0.651993691,0.000208048,0.000240818,-1.495261261,0.599864437
0.662500,-0.000420000,-0.056584518,0.034888271,-0.310851000,-0.056584518,0.134335868,5.885713984e-05,6.884622117e-05,1,1,0.302104123,-0.000001800,0.000004874,-0.802859383,0.492286740,0.658092576,0.000214834,0.000245484,-1.507080907,0.599869594
0.665000,-0.000420000,-0.056584518,0.034888271,-0.310851000,-0.056584518,0.136424974,5.885713984e-05,6.892498921e-05,1,1,0.302104123,-0.000001800,0.000004874,-0.802859383,0.492286740,0.664095754,0.000221672,0.000250105,-1.518715614,0.599874280
0.667500,-0.000420000,-0.056584518,0.034888271,-0.310851000,-0.056584518,0.138494368,5.885713984e-05,6.897668588e-05,1,1,0.302104123,-0.000001800,0.000004874,-0.802859383,0.492286740,0.670000303,0.000228559,0.000254678,-1.530159680,0.599878525
0.670000,-0.000420000,-0.056584518,0.034888271,-0.310851000,-0.056584518,0.140542241,5.885713984e-05,6.900157783e-05,1,1,0.302104123,-0.000001800,0.000004874,-0.802859383,0.492286740,0.675803353,0.000235485,0.000259202,-1.541407501,0.599882355
0.672500,-0.000420000,-0.056584518,0.034888271,-0.310851000,-0.056584518,0.142566791,5.885713984e-05,6.899992901e-05,1,1,0.302104123,-0.000001800,0.000004874,-0.802859383,0.492286740,0.681502084,0.000242446,0.000263673,-1.552453574,0.599885796
0.675000,-0.000420000,-0.056584518,0.034888271,-0.310851000,-0.056584518,0.144566230,5.885713984e-05,6.897200148e-05,1,1,0.302104123,-0.000001800,0.000004874,-0.802859383,0.492286740,0.687093727,0.000249433,0.000268091,-1.563292492,0.599888873
0.677500,-0.000420000,-0.056584518,0.034888271,-0.310851000,-0.056584518,0.146538780,5.885713984e-05,6.891805631e-05,1,1,0.302104123,-0.000001800,0.000004874,-0.802859383,0.492286740,0.692575560,0.000256440,0.000272454,-1.573918944,0.599891609
0.680000,-0.000420000,-0.056584518,0.034888271,-0.310851000,-0.056584518,0.148482678,5.885713984e-05,6.883835412e-05,1,1,0.302104123,-0.000001800,0.000004874,-0.802859383,0.492286740,0.697944910,0.000263459,0.000276758,-1.584327712,0.599894027
0.682500,-0.000420000,-0.056584518,0.034888271,-0.310851000,-0.056584518,0.150396176,5.885713984e-05,6.873315600e-05,1,1,0.302104123,-0.000001800,0.000004874,-0.802859383,0.492286740,0.703199153,0.000270481,0.000281002,-1.594513675,0.599896147
0.685000,-0.000420000,-0.056584518,0.034888271,-0.310851000,-0.056584518,0.152277545,5.885713984e-05,6.860272406e-05,1,1,0.302104123,-0.000001800,0.000004874,-0.802859383,0.492286740,0.708335712,0.000277499,0.000285184,-1.604471805,0.599897991
0.687500,-0.000420000,-0.056584518,0.034888271,-0.310851000,-0.056584518,0.154125074,5.885713984e-05,6.844732215e-05,1,1,0.302104123,-0.000001800,0.000004874,-0.802859383,0.492286740,0.713352058,0.000284504,0.000289303,-1.614197167,0.599899577
0.690000,-0.000420000,-0.056584518,0.034888271,-0.310851000,-0.056584518,0.155937072,5.885713984e-05,6.826721643e-05,1,1,0.302104123,-0.000001800,0.000004874,-0.802859383,0.492286740,0.718245709,0.000291488,0.000293356,-1.623684919,0.599900924
0.692500,-0.000420000,-0.056584518,0.034888271,-0.310851000,-0.056584518,0.157711873,5.885713984e-05,6.806267590e-05,1,1,0.302104123,-0.000001800,0.000004874,-0.802859383,0.492286740,0.723014233,0.000298442,0.000297341,-1.632930313,0.599902048
0.695000,-0.000420000,-0.056584518,0.034888271,-0.310851000,-0.056584518,0.159447831,5.885713984e-05,6.783397315e-05,1,1,0.302104123,-0.000001800,0.000004874,-0.802859383,0.492286740,0.727655243,0.000305357,0.000301258,-1.641928697,0.599902965
0.697500,-0.000420000,-0.056584518,0.034888271,-0.310851000,-0.056584518,0.161143330,5.885713984e-05,9.974856947e-05,1,1,0.302104123,-0.000001800,0.000004874,-0.802859383,0.492286740,0.732106954,0.000311780,0.000304716,-1.650538123,0.599581876
0.700000,-0.000420000,-0.056584518,0.034888271,-0.310851000,-0.056584518,0.162796776,5.885713984e-05,9.909642542e-05,1,1,0.302104123,-0.000001800,0.000004874,-0.802859383,0.492286740,0.736488730,0.000318222,0.000308138,-1.659030336,0.599581751
0.702500,-0.000420000,-0.056584518,0.034888271,-0.310851000,-0.056584518,0.164406608,5.885713984e-05,9.798184864e-05,1,1,0.302104123,-0.000001800,0.000004874,-0.802859383,0.492286740,0.740736251,0.000324604,0.000311498,-1.667265206,0.599581415
0.705000,-0.000420000,-0.056584518,0.034888271,-0.310851000,-0.056584518,0.165971293,5.885713984e-05,9.681073740e-05,1,1,0.302104123,-0.000001800,0.000004874,-0.802859383,0.492286740,0.744847230,0.000330915,0.000314793,-1.675235543,0.599581029
0.707500,-0.000420000,-0.056584518,0.034888271,-0.310851000,-0.056584518,0.167489331,5.885713984e-05,9.559592970e-05,1,1,0.302104123,-0.000001800,0.000004874,-0.802859383,0.492286740,0.748819517,0.000337146,0.000318024,-1.682937095,0.599580601
0.710000,-0.000420000,-0.056584518,0.034888271,-0.310851000,-0.056584518,0.168959253,5.885713984e-05,9.433862371e-05,1,1,0.302104123,-0.000001800,0.000004874,-0.802859383,0.492286740,0.752651024,0.000343289,0.000321188,-1.690365784,0.599580134
0.712500,-0.000420000,-0.056584518,0.034888271,-0.310851000,-0.056584518,0.170379628,5.885713984e-05,9.303970196e-05,1,1,0.302104123,-0.000001800,0.000004874,-0.802859383,0.492286740,0.756339710,0.000349333,0.000324284,-1.697517637,0.599579630
0.715000,-0.000420000,-0.056584518,0.034888271,-0.310851000,-0.056584518,0.171749059,5.885713984e-05,9.170006760e-05,1,1,0.302104123,-0.000001800,0.000004874,-0.802859383,0.492286740,0.759883589,0.000355269,0.000327310,-1.704388783,0.599579094
0.717500,-0.000420000,-0.056584518,0.034888271,-0.310851000,-0.056584518,0.173066188,5.885713984e-05,9.032065478e-05,1,1,0.302104123,-0.000001800,0.000004874,-0.802859383,0.492286740,0.763280726,0.000361088,0.000330265,-1.710975451,0.599578526
0.720000,-0.000420000,-0.056584518,0.034888271,-0.310851000,-0.056584518,0.174329694,5.885713984e-05,8.890242983e-05,1,1,0.302104123,-0.000001800,0.000004874,-0.802859383,0.492286740,0.766529240,0.000366780,0.000333149,-1.717273977,0.599577930
0.722500,-0.000420000,-0.056584518,0.034888271,-0.310851000,-0.056584518,0.175538299,5.885713984e-05,8.744639146e-05,1,1,0.302104123,-0.000001800,0.000004874,-0.802859383,0.492286740,0.769627304,0.000372336,0.000335959,-1.723280802,0.599577307
0.725000,-0.000420000,-0.056584518,0.034888271,-0.310851000,-0.056584518,0.176690766,5.885713984e-05,8.595357141e-05,1,1,0.302104123,-0.000001800,0.000004874,-0.802859383,0.492286740,0.772573145,0.000377746,0.000338694,-1.728992474,0.599576658
0.727500,-0.000420000,-0.056584518,0.034888271,-0.310851000,-0.056584518,0.177785901,5.885713984e-05,8.442503485e-05,1,1,0.302104123,-0.000001800,0.000004874,-0.802859383,0.492286740,0.775365045,0.000383001,0.000341354,-1.734405649,0.599575985
0.730000,-0.000420000,-0.056584518,0.034888271,-0.310851000,-0.056584518,0.178822554,5.885713984e-05,8.286188087e-05,1,1,0.302104123,-0.000001800,0.000004874,-0.802859383,0.492286740,0.778001344,0.000388092,0.000343937,-1.739517096,0.599575290
0.732500,-0.000420000,-0.056584518,0.034888271,-0.310851000,-0.056584518,0.179799624,5.885713984e-05,8.126524299e-05,1,1,0.302104123,-0.000001800,0.000004874,-0.802859383,0.492286740,0.780480440,0.000393009,0.000346442,-1.744323693,0.599574573
0.735000,-0.000420000,-0.056584518,0.034888271,-0.310851000,-0.056584518,0.180716052,5.885713984e-05,7.963628975e-05,1,1,0.302104123,-0.000001800,0.000004874,-0.802859383,0.492286740,0.782800786,0.000397744,0.000348867,-1.748822435,0.599573836
0.737500,-0.000420000,-0.056584518,0.034888271,-0.310851000,-0.056584518,0.181570833,5.885713984e-05,7.797622510e-05,1,1,0.302104123,-0.000001800,0.000004874,-0.802859383,0.492286740,0.784960897,0.000402287,0.000351213,-1.753010430,0.599573078
0.740000,-0.000420000,-0.056584518,0.034888271,-0.310851000,-0.056584518,0.182363007,5.885713984e-05,7.901307147e-05,1,1,0.302104123,-0.000001800,0.000004874,-0.802859383,0.492286740,0.786877900,0.000406528,0.000353444,-1.756855960,0.600000000
0.742500,-0.000420000,-0.056584518,0.034888271,-0.310851000,-0.056584518,0.183091667,5.885713984e-05,7.149319362e-05,1,1,0.302104123,-0.000001800,0.000004874,-0.802859383,0.492286740,0.788761864,0.000410723,0.000355644,-1.760431671,0.599922521
0.745000,-0.000420000,-0.056584518,0.034888271,-0.310851000,-0.056584518,0.183755957,5.885713984e-05,9.717419575e-05,1,1,0.302104123,-0.000001800,0.000004874,-0.802859383,0.492286740,0.790348214,0.000414093,0.000357337,-1.763532783,0.599978656
0.747500,-0.000420000,-0.056584518,0.034888271,-0.310851000,-0.056584518,0.184355075,5.885713984e-05,9.483669587e-05,1,1,0.302104123,-0.000001800,0.000004874,-0.802859383,0.492286740,0.791854205,0.000417365,0.000358989,-1.766454964,0.599974093
0.750000,-0.000420000,-0.056584518,0.034888271,-0.310851000,-0.056584518,0.184888271,5.885713984e-05,9.034398637e-05,1,1,0.302104123,-0.000001800,0.000004874,-0.802859383,0.492286740,0.793201113,0.000420431,0.000360573,-1.769064048,0.599964465
0.752500,-0.000420000,-0.056584518,0.034888271,-0.310851000,-0.056584518,0.185354853,5.885713984e-05,8.564397474e-05,1,1,0.302104123,-0.000001800,0.000004874,-0.802859383,0.492286740,0.794380876,0.000423276,0.000362084,-1.771348377,0.599954373
0.755000,-0.000420000,-0.056584518,0.034888271,-0.310851000,-0.056584518,0.185754181,5.885713984e-05,8.088960616e-05,1,1,0.302104123,-0.000001800,0.000004874,-0.802859383,0.492286740,0.795391838,0.000425891,0.000363523,-1.773305216,0.599944192
0.757500,-0.000420000,-0.056584518,0.034888271,-0.310851000,-0.056584518,0.186085675,5.885713984e-05,7.609805844e-05,1,1,0.302104123,-0.000001800,0.000004874,-0.802859383,0.492286740,0.796232959,0.000428271,0.000364887,-1.774932601,0.599933949
0.760000,-0.000420000,-0.056584518,0.034888271,-0.310851000,-0.056584518,0.186348810,5.885713984e-05,7.127666482e-05,1,1,0.302104123,-0.000001800,0.000004874,-0.802859383,0.492286740,0.796903317,0.000430409,0.000366175,-1.776228743,0.599923642
0.762500,-0.000420000,-0.056584518,0.034888271,-0.310851000,-0.056584518,0.186543123,5.885713984e-05,9.135680487e-05,1,1,0.302104123,-0.000001800,0.000004874,-0.802859383,0.492286740,0.797366810,0.000431845,0.000367029,-1.777096341,0.599580883
0.765000,-0.000420000,-0.056584518,0.034888271,-0.310851000,-0.056584518,0.186668207,5.885713984e-05,8.280568198e-05,1,1,0.302104123,-0.000001800,0.000004874,-0.802859383,0.492286740,0.797638195,0.000433020,0.000367806,-1.777721971,0.600000000
0.767500,-0.000420000,-0.056584518,0.034888271,-0.310851000,-0.056584518,0.186723716,5.885713984e-05,8.929750835e-05,1,1,0.302104123,-0.000001800,0.000004874,-0.802859383,0.492286740,0.797822843,0.000433666,0.000368211,-1.777978194,0.599579823
0.770000,-0.000420000,-0.056584518,0.034888271,-0.310851000,-0.056584518,0.186709364,5.885713984e-05,7.600255897e-05,1,1,0.302104123,-0.000001800,0.000004874,-0.802859383,0.492286740,0.797822843,0.000433666,0.000368211,-1.777978194,0.599579823
0.772500,-0.000420000,-0.056584518,0.034888271,-0.310851000,-0.056584518,0.186624929,5.885713984e-05,3.446015118e-05,1,1,0.302104123,-0.000001800,0.000004874,-0.802859383,0.492286740,0.797822843,0.000433666,0.000368211,-1.777978194,0.599579823
0.775000,-0.000420000,-0.056584518,0.034888271,-0.310851000,-0.056584518,0.186470248,5.885713984e-05,4.551191048e-05,1,1,0.302104123,-0.000001800,0.000004874,-0.802859383,0.492286740,0.797495541,0.000433634,0.000368437,-1.777347237,0.599819479
0.777500,-0.000420000,-0.056584518,0.034888271,-0.310851000,-0.056584518,0.186245222,5.885713984e-05,8.155501231e-05,1,1,0.302104123,-0.000001800,0.000004874,-0.802859383,0.492286740,0.797014933,0.000433390,0.000368608,-1.776440787,0.600000000
0.780000,-0.000420000,-0.056584518,0.034888271,-0.310851000,-0.056584518,0.185949813,5.885713984e-05,2.838977590e-05,1,1,0.302104123,-0.000001800,0.000004874,-0.802859383,0.492286740,0.796168264,0.000433028,0.000368978,-1.774745092,0.599739881
0.782500,-0.000420000,-0.056584518,0.034888271,-0.310851000,-0.056584518,0.185584048,5.885713984e-05,3.113936928e-05,1,1,0.302104123,-0.000001800,0.000004874,-0.802859383,0.492286740,0.795215601,0.000432501,0.000369288,-1.772970672,0.600000000
0.785000,-0.000420000,-0.056584518,0.034888271,-0.310851000,-0.056584518,0.185148018,5.885713984e-05,4.042349493e-05,1,1,0.302104123,-0.000001800,0.000004874,-0.802859383,0.492286740,0.794205473,0.000431870,0.000369558,-1.770934631,0.599711471
0.787500,-0.000420000,-0.056584518,0.034888271,-0.310851000,-0.056584518,0.184641877,5.885713984e-05,5.223249831e-05,1,1,0.302104123,-0.000001800,0.000004874,-0.802859383,0.492286740,0.792943878,0.000430882,0.000369718,-1.768537484,0.600000000
0.790000,-0.000420000,-0.056584518,0.034888271,-0.310851000,-0.056584518,0.184065843,5.885713984e-05,6.592836052e-05,1,1,0.302104123,-0.000001800,0.000004874,-0.802859383,0.492286740,0.791580361,0.000429729,0.000369819,-1.765824970,0.599652625
0.792500,-0.000420000,-0.056584518,0.034888271,-0.310851000,-0.056584518,0.183420200,5.885713984e-05,7.924844747e-05,1,1,0.302104123,-0.000001800,0.000004874,-0.802859383,0.492286740,0.789978908,0.000428235,0.000369808,-1.762749265,0.599884505
0.795000,-0.000420000,-0.056584518,0.034888271,-0.310851000,-0.056584518,0.182705296,5.885713984e-05,9.295415107e-05,1,1,0.302104123,-0.000001800,0.000004874,-0.802859383,0.492286740,0.788195877,0.000426474,0.000369705,-1.759329417,0.600000000
0.797500,-0.000420000,-0.056584518,0.034888271,-0.310851000,-0.056584518,0.181921543,5.885713984e-05,2.090877991e-05,1,1,0.302104123,-0.000001800,0.000004874,-0.802859383,0.492286740,0.786060438,0.000424479,0.000369684,-1.755143926,0.599819443
0.800000,-0.000420000,-0.056584518,0.034888271,-0.310851000,-0.056584518,0.181069419,5.885713984e-05,2.585186514e-05,1,1,0.302104123,-0.000001800,0.000004874,-0.802859383,0.492286740,0.783862142,0.000422351,0.000369575,-1.750960783,0.600000000
0.802500,-0.000420000,-0.056584518,0.034888271,-0.310851000,-0.056584518,0.180149467,5.885713984e-05,2.421291893e-05,1,1,0.302104123,-0.000001800,0.000004874,-0.802859383,0.492286740,0.781605863,0.000420091,0.000369390,-1.746500041,0.599791196
0.805000,-0.000420000,-0.056584518,0.034888271,-0.310851000,-0.056584518,0.179162294,5.885713984e-05,2.877835124e-05,1,1,0.302104123,-0.000001800,0.000004874,-0.802859383,0.492286740,0.779085983,0.000417435,0.000369047,-1.741668378,0.600000000
0.807500,-0.000420000,-0.056584518,0.034888271,-0.310851000,-0.056584518,0.178108572,5.885713984e-05,3.242460941e-05,1,1,0.302104123,-0.000001800,0.000004874,-0.802859383,0.492286740,0.776473608,0.000414605,0.000368610,-1.736528166,0.599722199
0.810000,-0.000420000,-0.056584518,0.034888271,-0.310851000,-0.056584518,0.176989038,5.885713984e-05,3.638992065e-05,1,1,0.302104123,-0.000001800,0.000004874,-0.802859383,0.492286740,0.773618350,0.000411410,0.000368017,-1.731024241,0.599920958
0.812500,-0.000420000,-0.056584518,0.034888271,-0.310851000,-0.056584518,0.175804492,5.885713984e-05,4.143985426e-05,1,1,0.302104123,-0.000001800,0.000004874,-0.802859383,0.492286740,0.770590013,0.000407944,0.000367291,-1.725183166,0.600000000
0.815000,-0.000420000,-0.056584518,0.034888271,-0.310851000,-0.056584518,0.174555801,5.885713984e-05,4.592361959e-05,1,1,0.302104123,-0.000001800,0.000004874,-0.802859383,0.492286740,0.767467585,0.000404308,0.000366461,-1.719037108,0.599616733
0.817500,-0.000420000,-0.056584518,0.034888271,-0.310851000,-0.056584518,0.173243893,5.885713984e-05,5.032497742e-05,1,1,0.302104123,-0.000001800,0.000004874,-0.802859383,0.492286740,0.764115966,0.000400337,0.000365471,-1.712534997,0.599664960
0.820000,-0.000420000,-0.056584518,0.034888271,-0.310851000,-0.056584518,0.171869761,5.885713984e-05,5.494702056e-05,1,1,0.302104123,-0.000001800,0.000004874,-0.802859383,0.492286740,0.760592953,0.000396107,0.000364340,-1.705700121,0.599657452
0.822500,-0.000420000,-0.056584518,0.034888271,-0.310851000,-0.056584518,0.170434461,5.885713984e-05,5.953387927e-05,1,1,0.302104123,-0.000001800,0.000004874,-0.802859383,0.492286740,0.756906805,0.000391633,0.000363067,-1.698537384,0.599596105
0.825000,-0.000420000,-0.056584518,0.034888271,-0.310851000,-0.056584518,0.168939110,5.885713984e-05,6.407458894e-05,1,1,0.302104123,-0.000001800,0.000004874,-0.802859383,0.492286740,0.753058895,0.000386920,0.000361652,-1.691049021,0.599481535
0.827500,-0.000420000,-0.056584518,0.034888271,-0.310851000,-0.056584518,0.167384889,5.885713984e-05,6.856175961e-05,1,1,0.302104123,-0.000001800,0.000004874,-0.802859383,0.492286740,0.749050225,0.000381977,0.000360090,-1.683237230,0.599314219
0.830000,-0.000420000,-0.056584518,0.034888271,-0.310851000,-0.056584518,0.165773040,5.885713984e-05,7.298865441e-05,1,1,0.302104123,-0.000001800,0.000004874,-0.802859383,0.492286740,0.744881853,0.000376809,0.000358379,-1.675104362,0.599094573
0.832500,-0.000420000,-0.056584518,0.034888271,-0.310851000,-0.056584518,0.164104864,5.885713984e-05,7.734919722e-05,1,1,0.302104123,-0.000001800,0.000004874,-0.802859383,0.492286740,0.740554925,0.000371423,0.000356518,-1.666652937,0.598822952
0.835000,-0.000420000,-0.056584518,0.034888271,-0.310851000,-0.056584518,0.162381725,5.885713984e-05,8.163783095e-05,1,1,0.302104123,-0.000001800,0.000004874,-0.802859383,0.492286740,0.736070677,0.000365828,0.000354504,-1.657885646,0.598499656
0.837500,-0.000420000,-0.056584518,0.034888271,-0.310851000,-0.056584518,0.160605045,5.885713984e-05,8.584939740e-05,1,1,0.302104123,-0.000001800,0.000004874,-0.802859383,0.492286740,0.731430438,0.000360031,0.000352334,-1.648805354,0.598124923
0.840000,-0.000420000,-0.056584518,0.034888271,-0.310851000,-0.056584518,0.158776304,5.885713984e-05,8.997905223e-05,1,1,0.302104123,-0.000001800,0.000004874,-0.802859383,0.492286740,0.726635630,0.000354041,0.000350008,-1.639415100,0.597698932
0.842500,-0.000420000,-0.056584518,0.034888271,-0.310851000,-0.056584518,0.156897042,5.885713984e-05,9.402220523e-05,1,1,0.302104123,-0.000001800,0.000004874,-0.802859383,0.492286740,0.721687769,0.000347866,0.000347523,-1.629718104,0.597221798
0.845000,-0.000420000,-0.056584518,0.034888271,-0.310851000,-0.056584518,0.154968853,5.885713984e-05,9.797447844e-05,1,1,0.302104123,-0.000001800,0.000004874,-0.802859383,0.492286740,0.716588469,0.000341517,0.000344877,-1.619717768,0.596693578
0.847500,-0.000420000,-0.056584518,0.034888271,-0.310851000,-0.056584518,0.152993389,5.885713984e-05,1.857499567e-05,1,1,0.302104123,-0.000001800,0.000004874,-0.802859383,0.492286740,0.711066930,0.000334515,0.000341779,-1.608949189,0.596364376
0.850000,-0.000420000,-0.056584518,0.034888271,-0.310851000,-0.056584518,0.150972356,5.885713984e-05,9.976923981e-05,1,1,0.302104123,-0.000001800,0.000004874,-0.802859383,0.492286740,0.705879885,0.000328093,0.000338901,-1.598767326,0.595787556
0.852500,-0.000420000,-0.056584518,0.034888271,-0.310851000,-0.056584518,0.148907516,5.885713984e-05,2.132498460e-05,1,1,0.302104123,-0.000001800,0.000004874,-0.802859383,0.492286740,0.700067253,0.000320774,0.000335438,-1.587413355,0.595349155
0.855000,-0.000420000,-0.056584518,0.034888271,-0.310851000,-0.056584518,0.146800682,5.885713984e-05,2.065698665e-05,1,1,0.302104123,-0.000001800,0.000004874,-0.802859383,0.492286740,0.694321106,0.000313552,0.000331887,-1.576186849,0.594914537
0.857500,-0.000420000,-0.056584518,0.034888271,-0.310851000,-0.056584518,0.144653719,5.885713984e-05,2.196031043e-05,1,1,0.302104123,-0.000001800,0.000004874,-0.802859383,0.492286740,0.688440360,0.000306210,0.000328161,-1.564688369,0.594421459
0.860000,-0.000420000,-0.056584518,0.034888271,-0.310851000,-0.056584518,0.142468544,5.885713984e-05,2.331355090e-05,1,1,0.302104123,-0.000001800,0.000004874,-0.802859383,0.492286740,0.682421372,0.000298752,0.000324261,-1.552911082,0.593868232
0.862500,-0.000420000,-0.056584518,0.034888271,-0.310851000,-0.056584518,0.140247123,5.885713984e-05,2.465612359e-05,1,1,0.302104123,-0.000001800,0.000004874,-0.802859383,0.492286740,0.676266265,0.000291191,0.000320186,-1.540859432,0.593254813
0.865000,-0.000420000,-0.056584518,0.034888271,-0.310851000,-0.056584518,0.137991470,5.885713984e-05,2.598094100e-05,1,1,0.302104123,-0.000001800,0.000004874,-0.802859383,0.492286740,0.669977452,0.000283538,0.000315938,-1.528538407,0.592581111
0.867500,-0.000420000,-0.056584518,0.034888271,-0.310851000,-0.056584518,0.135703646,5.885713984e-05,2.728342296e-05,1,1,0.302104123,-0.000001800,0.000004874,-0.802859383,0.492286740,0.663557478,0.000275807,0.000311521,-1.515953235,0.591846944
0.870000,-0.000420000,-0.056584518,0.034888271,-0.310851000,-0.056584518,0.133385760,5.885713984e-05,2.855981216e-05,1,1,0.302104123,-0.000001800,0.000004874,-0.802859383,0.492286740,0.657009026,0.000268010,0.000306935,-1.503109395,0.591052036
0.872500,-0.000420000,-0.056584518,0.034888271,-0.310851000,-0.056584518,0.131039962,5.885713984e-05,2.980695598e-05,1,1,0.302104123,-0.000001800,0.000004874,-0.802859383,0.492286740,0.650334914,0.000260159,0.000302184,-1.490012617,0.590196020
0.875000,-0.000420000,-0.056584518,0.034888271,-0.310851000,-0.056584518,0.128668449,5.885713984e-05,3.102217478e-05,1,1,0.302104123,-0.000001800,0.000004874,-0.802859383,0.492286740,0.643538111,0.000252269,0.000297271,-1.476668903,0.589278441
0.877500,-0.000420000,-0.056584518,0.034888271,-0.310851000,-0.056584518,0.126273458,5.885713984e-05,3.220316508e-05,1,1,0.302104123,-0.000001800,0.000004874,-0.802859383,0.492286740,0.636621733,0.000244350,0.000292199,-1.463084535,0.588298757
0.880000,-0.000420000,-0.056584518,0.034888271,-0.310851000,-0.056584518,0.123857265,5.885713984e-05,3.334792691e-05,1,1,0.302104123,-0.000001800,0.000004874,-0.802859383,0.492286740,0.629589061,0.000236417,0.000286973,-1.449266090,0.587256345
0.882500,-0.000420000,-0.056584518,0.034888271,-0.310851000,-0.056584518,0.121422188,5.885713984e-05,3.445470779e-05,1,1,0.302104123,-0.000001800,0.000004874,-0.802859383,0.492286740,0.622443540,0.000228481,0.000281596,-1.435220458,0.586150503
0.885000,-0.000420000,-0.056584518,0.034888271,-0.310851000,-0.056584518,0.118970581,5.885713984e-05,3.552195995e-05,1,1,0.302104123,-0.000001800,0.000004874,-0.802859383,0.492286740,0.615188792,0.000220555,0.000276073,-1.420954856,0.584980457
0.887500,-0.000420000,-0.056584518,0.034888271,-0.310851000,-0.056584518,0.116504835,5.885713984e-05,3.654830587e-05,1,1,0.302104123,-0.000001800,0.000004874,-0.802859383,0.492286740,0.607828626,0.000212651,0.000270410,-1.406476851,0.583745365
0.890000,-0.000420000,-0.056584518,0.034888271,-0.310851000,-0.056584518,0.114027376,5.885713984e-05,3.753251100e-05,1,1,0.302104123,-0.000001800,0.000004874,-0.802859383,0.492286740,0.600367044,0.000204782,0.000264611,-1.391794376,0.582444324
0.892500,-0.000420000,-0.056584518,0.034888271,-0.310851000,-0.056584518,0.111540661,5.885713984e-05,3.847346103e-05,1,1,0.302104123,-0.000001800,0.000004874,-0.802859383,0.492286740,0.592808258,0.000196959,0.000258683,-1.376915759,0.581076380
0.895000,-0.000420000,-0.056584518,0.034888271,-0.310851000,-0.056584518,0.109047183,5.885713984e-05,3.937014214e-05,1,1,0.302104123,-0.000001800,0.000004874,-0.802859383,0.492286740,0.585156699,0.000189193,0.000252631,-1.361849743,0.579640537
0.897500,-0.000420000,-0.056584518,0.034888271,-0.310851000,-0.056584518,0.106549461,5.885713984e-05,4.022162429e-05,1,1,0.302104123,-0.000001800,0.000004874,-0.802859383,0.492286740,0.577417031,0.000181498,0.000246463,-1.346605514,0.578135765
0.900000,-0.000420000,-0.056584518,0.034888271,-0.310851000,-0.056584518,0.104050048,5.885713984e-05,4.102704553e-05,1,1,0.302104123,-0.000001800,0.000004874,-0.802859383,0.492286740,0.569594164,0.000173882,0.000240184,-1.331192734,0.576561016
0.902500,-0.000420000,-0.056584518,0.034888271,-0.310851000,-0.056584518,0.101551519,5.885713984e-05,4.178559685e-05,1,1,0.302104123,-0.000001800,0.000004874,-0.802859383,0.492286740,0.561693275,0.000166358,0.000233803,-1.315621569,0.574915235
0.905000,-0.000420000,-0.056584518,0.034888271,-0.310851000,-0.056584518,0.099056479,5.885713984e-05,4.249650819e-05,1,1,0.302104123,-0.000001800,0.000004874,-0.802859383,0.492286740,0.553719819,0.000158935,0.000227327,-1.299902727,0.573197381
0.907500,-0.000420000,-0.056584518,0.034888271,-0.310851000,-0.056584518,0.096567558,5.885713984e-05,4.315903332e-05,1,1,0.302104123,-0.000001800,0.000004874,-0.802859383,0.492286740,0.545679552,0.000151623,0.000220763,-1.284047494,0.571406441
0.910000,-0.000420000,-0.056584518,0.034888271,-0.310851000,-0.056584518,0.094087406,5.885713984e-05,4.377243439e-05,1,1,0.302104123,-0.000001800,0.000004874,-0.802859383,0.492286740,0.537578550,0.000144433,0.000214121,-1.268067778,0.569541455
0.912500,-0.000420000,-0.056584518,0.034888271,-0.310851000,-0.056584518,0.091618698,5.885713984e-05,4.433596589e-05,1,1,0.302104123,-0.000001800,0.000004874,-0.802859383,0.492286740,0.529423229,0.000137373,0.000207408,-1.251976151,0.567601540
0.915000,-0.000420000,-0.056584518,0.034888271,-0.310851000,-0.056584518,0.089164130,5.885713984e-05,4.484885600e-05,1,1,0.302104123,-0.000001800,0.000004874,-0.802859383,0.492286740,0.521220373,0.000130451,0.000200633,-1.235785899,0.565585917
0.917500,-0.000420000,-0.056584518,0.034888271,-0.310851000,-0.056584518,0.086726415,5.885713984e-05,4.531028808e-05,1,1,0.302104123,-0.000001800,0.000004874,-0.802859383,0.492286740,0.512977153,0.000123676,0.000193806,-1.219511073,0.563493944
0.920000,-0.000420000,-0.056584518,0.034888271,-0.310851000,-0.056584518,0.084308288,5.885713984e-05,4.571937784e-05,1,1,0.302104123,-0.000001800,0.000004874,-0.802859383,0.492286740,0.504701159,0.000117056,0.000186935,-1.203166544,0.561325152
0.922500,-0.000420000,-0.056584518,0.034888271,-0.310851000,-0.056584518,0.081912498,5.885713984e-05,4.607514968e-05,1,1,0.302104123,-0.000001800,0.000004874,-0.802859383,0.492286740,0.496400429,0.000110598,0.000180031,-1.186768065,0.559079283
0.925000,-0.000420000,-0.056584518,0.034888271,-0.310851000,-0.056584518,0.079541812,5.885713984e-05,4.637650951e-05,1,1,0.302104123,-0.000001800,0.000004874,-0.802859383,0.492286740,0.488083475,0.000104309,0.000173104,-1.170332331,0.556756341
0.927500,-0.000420000,-0.056584518,0.034888271,-0.310851000,-0.056584518,0.077199014,5.885713984e-05,4.662221449e-05,1,1,0.302104123,-0.000001800,0.000004874,-0.802859383,0.492286740,0.479759322,0.000098194,0.000166164,-1.153877052,0.554356638
0.930000,-0.000420000,-0.056584518,0.034888271,-0.310851000,-0.056584518,0.074886900,5.885713984e-05,4.681083872e-05,1,1,0.302104123,-0.000001800,0.000004874,-0.802859383,0.492286740,0.471437536,0.000092260,0.000159221,-1.137421019,0.551880856
0.932500,-0.000420000,-0.056584518,0.034888271,-0.310851000,-0.056584518,0.072608283,5.885713984e-05,4.694073617e-05,1,1,0.302104123,-0.000001800,0.000004874,-0.802859383,0.492286740,0.463128264,0.000086511,0.000152286,-1.120984186,0.549330108
0.935000,-0.000420000,-0.056584518,0.034888271,-0.310851000,-0.056584518,0.070365989,5.885713984e-05,4.700999825e-05,1,1,0.302104123,-0.000001800,0.000004874,-0.802859383,0.492286740,0.454842274,0.000080952,0.000145370,-1.104587744,0.546706008
0.937500,-0.000420000,-0.056584518,0.034888271,-0.310851000,-0.056584518,0.068162857,5.885713984e-05,4.701640733e-05,1,1,0.302104123,-0.000001800,0.000004874,-0.802859383,0.492286740,0.446590986,0.000075587,0.000138485,-1.088254208,0.544010755
0.940000,-0.000420000,-0.056584518,0.034888271,-0.310851000,-0.056584518,0.066001742,5.885713984e-05,4.695738569e-05,1,1,0.302104123,-0.000001800,0.000004874,-0.802859383,0.492286740,0.438386522,0.000070419,0.000131642,-1.072007501,0.541247215
0.942500,-0.000420000,-0.056584518,0.034888271,-0.310851000,-0.056584518,0.063885512,5.885713984e-05,4.682993937e-05,1,1,0.302104123,-0.000001800,0.000004874,-0.802859383,0.492286740,0.430241740,0.000065452,0.000124854,-1.055873044,0.538419015
0.945000,-0.000420000,-0.056584518,0.034888271,-0.310851000,-0.056584518,0.061817051,5.885713984e-05,4.663059739e-05,1,1,0.302104123,-0.000001800,0.000004874,-0.802859383,0.492286740,0.422170280,0.000060687,0.000118132,-1.039877848,0.535530647
0.947500,-0.000420000,-0.056584518,0.034888271,-0.310851000,-0.056584518,0.059799260,5.885713984e-05,4.635534552e-05,1,1,0.302104123,-0.000001800,0.000004874,-0.802859383,0.492286740,0.414186604,0.000056126,0.000111489,-1.024050601,0.532587582
0.950000,-0.000420000,-0.056584518,0.034888271,-0.310851000,-0.056584518,0.057835057,5.885713984e-05,4.599955645e-05,1,1,0.302104123,-0.000001800,0.000004874,-0.802859383,0.492286740,0.406306036,0.000051771,0.000104939,-1.008421765,0.529596379
0.952500,-0.000420000,-0.056584518,0.034888271,-0.310851000,-0.056584518,0.055927383,5.885713984e-05,4.555791523e-05,1,1,0.302104123,-0.000001800,0.000004874,-0.802859383,0.492286740,0.398544807,0.000047622,0.000098493,-0.993023662,0.526564819
0.955000,-0.000420000,-0.056584518,0.034888271,-0.310851000,-0.056584518,0.054079201,5.885713984e-05,4.502434114e-05,1,1,0.302104123,-0.000001800,0.000004874,-0.802859383,0.492286740,0.390920086,0.000043680,0.000092166,-0.977890565,0.523502030
0.957500,-0.000420000,-0.056584518,0.034888271,-0.310851000,-0.056584518,0.052293504,5.885713984e-05,4.439190707e-05,1,1,0.302104123,-0.000001800,0.000004874,-0.802859383,0.492286740,0.383450022,0.000039943,0.000085972,-0.963058777,0.520418622
0.960000,-0.000420000,-0.056584518,0.034888271,-0.310851000,-0.056584518,0.050573319,5.885713984e-05,4.365275619e-05,1,1,0.302104123,-0.000001800,0.000004874,-0.802859383,0.492286740,0.376153776,0.000036412,0.000079926,-0.948566716,0.517326825
0.962500,-0.000420000,-0.056584518,0.034888271,-0.310851000,-0.056584518,0.048921713,5.885713984e-05,4.279801772e-05,1,1,0.302104123,-0.000001800,0.000004874,-0.802859383,0.492286740,0.369051549,0.000033085,0.000074040,-0.934454986,0.514240622
0.965000,-0.000420000,-0.056584518,0.034888271,-0.310851000,-0.056584518,0.047341802,5.885713984e-05,4.181772083e-05,1,1,0.302104123,-0.000001800,0.000004874,-0.802859383,0.492286740,0.362164611,0.000029960,0.000068332,-0.920766441,0.511175883
0.967500,-0.000420000,-0.056584518,0.034888271,-0.310851000,-0.056584518,0.045836763,5.885713984e-05,4.070070559e-05,1,1,0.302104123,-0.000001800,0.000004874,-0.802859383,0.492286740,0.355515323,0.000027036,0.000062817,-0.907546255,0.508150484
0.970000,-0.000420000,-0.056584518,0.034888271,-0.310851000,-0.056584518,0.044409852,5.885713984e-05,3.943452877e-05,1,1,0.302104123,-0.000001800,0.000004874,-0.802859383,0.492286740,0.349127165,0.000024309,0.000057510,-0.894841974,0.505184425
0.972500,-0.000420000,-0.056584518,0.034888271,-0.310851000,-0.056584518,0.043064415,5.885713984e-05,9.955782419e-05,1,1,0.302104123,-0.000001800,0.000004874,-0.802859383,0.492286740,0.343357998,0.000022017,0.000052928,-0.883321231,0.502193177
0.975000,-0.000420000,-0.056584518,0.034888271,-0.310851000,-0.056584518,0.041803921,5.885713984e-05,9.902836936e-05,1,1,0.302104123,-0.000001800,0.000004874,-0.802859383,0.492286740,0.337633845,0.000019805,0.000048401,-0.871887187,0.499149438
0.977500,-0.000420000,-0.056584518,0.034888271,-0.310851000,-0.056584518,0.040631993,5.885713984e-05,9.343244712e-05,1,1,0.302104123,-0.000001800,0.000004874,-0.802859383,0.492286740,0.332222624,0.000017762,0.000044096,-0.861079409,0.496244730
0.980000,-0.000420000,-0.056584518,0.034888271,-0.310851000,-0.056584518,0.039552451,5.885713984e-05,8.703432920e-05,1,1,0.302104123,-0.000001800,0.000004874,-0.802859383,0.492286740,0.327171556,0.000015892,0.000040045,-0.850993355,0.493520592
0.982500,-0.000420000,-0.056584518,0.034888271,-0.310851000,-0.056584518,0.038569383,5.885713984e-05,8.013115300e-05,1,1,0.302104123,-0.000001800,0.000004874,-0.802859383,0.492286740,0.322511855,0.000014196,0.000036267,-0.841692690,0.491008801
0.985000,-0.000420000,-0.056584518,0.034888271,-0.310851000,-0.056584518,0.037687231,5.885713984e-05,7.270569170e-05,1,1,0.302104123,-0.000001800,0.000004874,-0.802859383,0.492286740,0.318275088,0.000012671,0.000032785,-0.833241994,0.488742615
0.987500,-0.000420000,-0.056584518,0.034888271,-0.310851000,-0.056584518,0.036910941,5.885713984e-05,6.470601698e-05,1,1,0.302104123,-0.000001800,0.000004874,-0.802859383,0.492286740,0.314494909,0.000011317,0.000029620,-0.825710208,0.486757854
0.990000,-0.000420000,-0.056584518,0.034888271,-0.310851000,-0.056584518,0.036246192,5.885713984e-05,5.606065217e-05,1,1,0.302104123,-0.000001800,0.000004874,-0.802859383,0.492286740,0.311207979,0.000010135,0.000026794,-0.819172494,0.485093383
0.992500,-0.000420000,-0.056584518,0.034888271,-0.310851000,-0.056584518,0.035699802,5.885713984e-05,4.666612425e-05,1,1,0.302104123,-0.000001800,0.000004874,-0.802859383,0.492286740,0.308455572,0.000009127,0.000024335,-0.813713469,0.483792077
0.995000,-0.000420000,-0.056584518,0.034888271,-0.310851000,-0.056584518,0.035280550,5.885713984e-05,8.535912147e-05,1,1,0.302104123,-0.000001800,0.000004874,-0.802859383,0.492286740,0.306569382,0.000008459,0.000022674,-0.809964713,0.482857193
0.997500,-0.000420000,-0.056584518,0.034888271,-0.310851000,-0.056584518,0.035001232,5.885713984e-05,6.700400621e-05,1,1,0.302104123,-0.000001800,0.000004874,-0.802859383,0.492286740,0.305067842,0.000007898,0.000021272,-0.806996698,0.482205554
1.000000,-0.000420000,-0.056584518,0.034888271,-0.310851000,-0.056584518,0.034888271,5.885713984e-05,7.718764204e-05,1,1,0.302104123,-0.000001800,0.000004874,-0.802859383,0.492286740,0.304533416,0.000007677,0.000020714,-0.805951361,0.482044198
1.002500,-0.000420000,-0.056584518,0.035001515,-0.310851000,-0.056584518,0.034888271,5.439986797e-05,7.718764204e-05,1,1,0.302104123,-0.000001800,0.000004874,-0.802859383,0.492286740,0.304533416,0.000007677,0.000020714,-0.805951361,0.482044198
1.005000,-0.000420000,-0.056584518,0.035282521,-0.310851000,-0.056584518,0.034888271,6.186943047e-05,7.718764204e-05,1,1,0.303345097,-0.000002053,0.000005593,-0.805424721,0.493518831,0.304533416,0.000007677,0.000020714,-0.805951361,0.482044198
1.007500,-0.000420000,-0.056584518,0.035705935,-0.310851000,-0.056584518,0.034888271,8.956782249e-05,7.718764204e-05,1,1,0.305158087,-0.000002458,0.000006679,-0.809149415,0.495202632,0.304533416,0.000007677,0.000020714,-0.805951361,0.482044198
1.010000,-0.000420000,-0.056584518,0.036259909,-0.310851000,-0.056584518,0.034888271,5.161943567e-05,7.718764204e-05,1,1,0.307861030,-0.000003086,0.000008296,-0.814696018,0.497690374,0.304533416,0.000007677,0.000020714,-0.805951361,0.482044198
1.012500,-0.000420000,-0.056584518,0.036936545,-0.310851000,-0.056584518,0.034888271,5.867534073e-05,7.718764204e-05,1,1,0.310909245,-0.000003810,0.000010140,-0.820943836,0.500424671,0.304533416,0.000007677,0.000020714,-0.805951361,0.482044198
1.015000,-0.000420000,-0.056584518,0.037729855,-0.310851000,-0.056584518,0.034888271,6.877478684e-05,7.718764204e-05,1,1,0.314461907,-0.000004677,0.000012313,-0.828215186,0.503523775,0.304533416,0.000007677,0.000020714,-0.805951361,0.482044198
