triton-droids/embedded/trajectory_generation/ik_standing_leg_swing_fast_short.csv
t,pL_tx,pL_ty,pL_tz,pR_tx,pR_ty,pR_tz,ik_err_L,ik_err_R,ik_ok_L,ik_ok_R,left_hip1_joint,left_hip2_joint,left_thigh_joint,left_knee_joint,left_ankle_joint,right_hip1_joint,right_hip2_joint,right_thigh_joint,right_knee_joint,right_ankle_joint
0.000000,-0.000420000,-0.056584518,0.034888271,-0.310851000,-0.056584518,0.034888271,0.000000000e+00,0.000000000e+00,1,1,0.300000000,0.000000000,0.000000000,-0.800000000,0.500000000,0.300000000,0.000000000,0.000000000,-0.800000000,0.500000000
0.002500,-0.000420000,-0.056584518,0.034888712,-0.310851000,-0.056584518,0.034888271,4.404929680e-07,0.000000000e+00,1,1,0.300000000,0.000000000,0.000000000,-0.800000000,0.500000000,0.300000000,0.000000000,0.000000000,-0.800000000,0.500000000
0.005000,-0.000420000,-0.056584518,0.034891338,-0.310851000,-0.056584518,0.034888271,3.066238645e-06,0.000000000e+00,1,1,0.300000000,0.000000000,0.000000000,-0.800000000,0.500000000,0.300000000,0.000000000,0.000000000,-0.800000000,0.500000000
0.007500,-0.000420000,-0.056584518,0.034897806,-0.310851000,-0.056584518,0.034888271,9.534539744e-06,0.000000000e+00,1,1,0.300000000,0.000000000,0.000000000,-0.800000000,0.500000000,0.300000000,0.000000000,0.000000000,-0.800000000,0.500000000
0.010000,-0.000420000,-0.056584518,0.034909583,-0.310851000,-0.056584518,0.034888271,2.131187403e-05,0.000000000e+00,1,1,0.300000000,0.000000000,0.000000000,-0.800000000,0.500000000,0.300000000,0.000000000,0.000000000,-0.800000000,0.500000000
0.012500,-0.000420000,-0.056584518,0.034928020,-0.310851000,-0.056584518,0.034888271,3.974826700e-05,0.000000000e+00,1,1,0.300000000,0.000000000,0.000000000,-0.800000000,0.500000000,0.300000000,0.000000000,0.000000000,-0.800000000,0.500000000
0.015000,-0.000420000,-0.056584518,0.034954376,-0.310851000,-0.056584518,0.034888271,6.610421323e-05,0.000000000e+00,1,1,0.300000000,0.000000000,0.000000000,-0.800000000,0.500000000,0.300000000,0.000000000,0.000000000,-0.800000000,0.500000000
0.017500,-0.000420000,-0.056584518,0.034989835,-0.310851000,-0.056584518,0.034888271,4.361405064e-05,0.000000000e+00,1,1,0.300272664,-0.000000060,0.000000177,-0.800556788,0.500225339,0.300000000,0.000000000,0.000000000,-0.800000000,0.500000000
0.020000,-0.000420000,-0.056584518,0.035035512,-0.310851000,-0.056584518,0.034888271,8.929060638e-05,0.000000000e+00,1,1,0.300272664,-0.000000060,0.000000177,-0.800556788,0.500225339,0.300000000,0.000000000,0.000000000,-0.800000000,0.500000000
0.022500,-0.000420000,-0.056584518,0.035092456,-0.310851000,-0.056584518,0.034888271,6.281534367e-05,0.000000000e+00,1,1,0.300665291,-0.000000150,0.000000430,-0.801357776,0.500549350,0.300000000,0.000000000,0.000000000,-0.800000000,0.500000000
0.025000,-0.000420000,-0.056584518,0.035161650,-0.310851000,-0.056584518,0.034888271,5.675564602e-05,0.000000000e+00,1,1,0.301019590,-0.000000233,0.000000659,-0.802079844,0.500841194,0.300000000,0.000000000,0.000000000,-0.800000000,0.500000000
0.027500,-0.000420000,-0.056584518,0.035244016,-0.310851000,-0.056584518,0.034888271,5.984465338e-05,0.000000000e+00,1,1,0.301392582,-0.000000320,0.000000899,-0.802839915,0.501148101,0.300000000,0.000000000,0.000000000,-0.800000000,0.500000000
0.030000,-0.000420000,-0.056584518,0.035340414,-0.310851000,-0.056584518,0.034888271,6.722647494e-05,0.000000000e+00,1,1,0.301810997,-0.000000418,0.000001168,-0.803692605,0.501492035,0.300000000,0.000000000,0.000000000,-0.800000000,0.500000000
0.032500,-0.000420000,-0.056584518,0.035451637,-0.310851000,-0.056584518,0.034888271,7.679152283e-05,0.000000000e+00,1,1,0.302288354,-0.000000531,0.000001476,-0.804665444,0.501883961,0.300000000,0.000000000,0.000000000,-0.800000000,0.500000000
0.035000,-0.000420000,-0.056584518,0.035578417,-0.310851000,-0.056584518,0.034888271,8.760713601e-05,0.000000000e+00,1,1,0.302832292,-0.000000659,0.000001826,-0.805773963,0.502329942,0.300000000,0.000000000,0.000000000,-0.800000000,0.500000000
0.037500,-0.000420000,-0.056584518,0.035721423,-0.310851000,-0.056584518,0.034888271,9.924485084e-05,0.000000000e+00,1,1,0.303447726,-0.000000805,0.000002223,-0.807028134,0.502833746,0.300000000,0.000000000,0.000000000,-0.800000000,0.500000000
0.040000,-0.000420000,-0.056584518,0.035881254,-0.310851000,-0.056584518,0.034888271,4.833687345e-05,0.000000000e+00,1,1,0.304434401,-0.000001045,0.000002856,-0.809036856,0.503638828,0.300000000,0.000000000,0.000000000,-0.800000000,0.500000000
0.042500,-0.000420000,-0.056584518,0.036058448,-0.310851000,-0.056584518,0.034888271,9.721493432e-05,0.000000000e+00,1,1,0.305033408,-0.000001187,0.000003242,-0.810257661,0.504126906,0.300000000,0.000000000,0.000000000,-0.800000000,0.500000000
0.045000,-0.000420000,-0.056584518,0.036253473,-0.310851000,-0.056584518,0.034888271,5.465695544e-05,0.000000000e+00,1,1,0.306141615,-0.000001458,0.000003955,-0.812514217,0.505026946,0.300000000,0.000000000,0.000000000,-0.800000000,0.500000000
0.047500,-0.000420000,-0.056584518,0.036466729,-0.310851000,-0.056584518,0.034888271,5.034857097e-05,0.000000000e+00,1,1,0.307154219,-0.000001706,0.000004606,-0.814576005,0.505846469,0.300000000,0.000000000,0.000000000,-0.800000000,0.500000000
0.050000,-0.000420000,-0.056584518,0.036698550,-0.310851000,-0.056584518,0.034888271,5.310735848e-05,0.000000000e+00,1,1,0.308217855,-0.000001968,0.000005290,-0.816741945,0.506704663,0.300000000,0.000000000,0.000000000,-0.800000000,0.500000000
0.052500,-0.000420000,-0.056584518,0.036949199,-0.310851000,-0.056584518,0.034888271,5.721233357e-05,0.000000000e+00,1,1,0.309360023,-0.000002250,0.000006026,-0.819067741,0.507623174,0.300000000,0.000000000,0.000000000,-0.800000000,0.500000000
0.055000,-0.000420000,-0.056584518,0.037218869,-0.310851000,-0.056584518,0.034888271,6.160293708e-05,0.000000000e+00,1,1,0.310586022,-0.000002555,0.000006815,-0.821564035,0.508605558,0.300000000,0.000000000,0.000000000,-0.800000000,0.500000000
0.057500,-0.000420000,-0.056584518,0.037507685,-0.310851000,-0.056584518,0.034888271,6.607157387e-05,0.000000000e+00,1,1,0.311896772,-0.000002884,0.000007658,-0.824232624,0.509651782,0.300000000,0.000000000,0.000000000,-0.800000000,0.500000000
0.060000,-0.000420000,-0.056584518,0.037815701,-0.310851000,-0.056584518,0.034888271,7.056665876e-05,0.000000000e+00,1,1,0.313292094,-0.000003237,0.000008557,-0.827073081,0.510760882,0.300000000,0.000000000,0.000000000,-0.800000000,0.500000000
0.062500,-0.000420000,-0.056584518,0.038142900,-0.310851000,-0.056584518,0.034888271,7.506514042e-05,0.000000000e+00,1,1,0.314771312,-0.000003614,0.000009509,-0.830083973,0.511931450,0.300000000,0.000000000,0.000000000,-0.800000000,0.500000000
0.065000,-0.000420000,-0.056584518,0.038489195,-0.310851000,-0.056584518,0.034888271,7.954923395e-05,0.000000000e+00,1,1,0.316333373,-0.000004016,0.000010515,-0.833263093,0.513161743,0.300000000,0.000000000,0.000000000,-0.800000000,0.500000000
0.067500,-0.000420000,-0.056584518,0.038854429,-0.310851000,-0.056584518,0.034888271,8.400221136e-05,0.000000000e+00,1,1,0.317976874,-0.000004443,0.000011573,-0.836607522,0.514449707,0.300000000,0.000000000,0.000000000,-0.800000000,0.500000000
0.070000,-0.000420000,-0.056584518,0.039238375,-0.310851000,-0.056584518,0.034888271,8.840767330e-05,0.000000000e+00,1,1,0.319700072,-0.000004896,0.000012682,-0.840113649,0.515793003,0.300000000,0.000000000,0.000000000,-0.800000000,0.500000000
0.072500,-0.000420000,-0.056584518,0.039640738,-0.310851000,-0.056584518,0.034888271,9.274945532e-05,0.000000000e+00,1,1,0.321500900,-0.000005374,0.000013842,-0.843777199,0.517189020,0.300000000,0.000000000,0.000000000,-0.800000000,0.500000000
0.075000,-0.000420000,-0.056584518,0.040061152,-0.310851000,-0.056584518,0.034888271,9.701164881e-05,0.000000000e+00,1,1,0.323376973,-0.000005877,0.000015051,-0.847593253,0.518634901,0.300000000,0.000000000,0.000000000,-0.800000000,0.500000000
0.077500,-0.000420000,-0.056584518,0.040499186,-0.310851000,-0.056584518,0.034888271,4.613838792e-05,0.000000000e+00,1,1,0.325574781,-0.000006481,0.000016465,-0.852059572,0.520311031,0.300000000,0.000000000,0.000000000,-0.800000000,0.500000000
0.080000,-0.000420000,-0.056584518,0.040954339,-0.310851000,-0.056584518,0.034888271,9.530220519e-05,0.000000000e+00,1,1,0.327390139,-0.000006975,0.000017637,-0.855752204,0.521690727,0.300000000,0.000000000,0.000000000,-0.800000000,0.500000000
0.082500,-0.000420000,-0.056584518,0.041426047,-0.310851000,-0.056584518,0.034888271,4.918307337e-05,0.000000000e+00,1,1,0.329699586,-0.000007623,0.000019125,-0.860444319,0.523427442,0.300000000,0.000000000,0.000000000,-0.800000000,0.500000000
0.085000,-0.000420000,-0.056584518,0.041913681,-0.310851000,-0.056584518,0.034888271,4.717568390e-05,0.000000000e+00,1,1,0.331873904,-0.000008237,0.000020528,-0.864861780,0.525047308,0.300000000,0.000000000,0.000000000,-0.800000000,0.500000000
0.087500,-0.000420000,-0.056584518,0.042416549,-0.310851000,-0.056584518,0.034888271,4.849796936e-05,0.000000000e+00,1,1,0.334091763,-0.000008870,0.000021961,-0.869367074,0.526686690,0.300000000,0.000000000,0.000000000,-0.800000000,0.500000000
0.090000,-0.000420000,-0.056584518,0.042933897,-0.310851000,-0.056584518,0.034888271,5.001784483e-05,0.000000000e+00,1,1,0.336363213,-0.000009527,0.000023429,-0.873980275,0.528352287,0.300000000,0.000000000,0.000000000,-0.800000000,0.500000000
0.092500,-0.000420000,-0.056584518,0.043464912,-0.310851000,-0.056584518,0.034888271,5.149044399e-05,0.000000000e+00,1,1,0.338685133,-0.000010207,0.000024930,-0.878694930,0.530040855,0.300000000,0.000000000,0.000000000,-0.800000000,0.500000000
0.095000,-0.000420000,-0.056584518,0.044008724,-0.310851000,-0.056584518,0.034888271,5.289227881e-05,0.000000000e+00,1,1,0.341053215,-0.000010910,0.000026462,-0.883502210,0.531748341,0.300000000,0.000000000,0.000000000,-0.800000000,0.500000000
0.097500,-0.000420000,-0.056584518,0.044564408,-0.310851000,-0.056584518,0.034888271,5.421700966e-05,0.000000000e+00,1,1,0.343462902,-0.000011634,0.000028021,-0.888392788,0.533470592,0.300000000,0.000000000,0.000000000,-0.800000000,0.500000000
0.100000,-0.000420000,-0.056584518,0.045130985,-0.310851000,-0.056584518,0.034888271,5.545983179e-05,0.000000000e+00,1,1,0.345909474,-0.000012380,0.000029606,-0.893357014,0.535203435,0.300000000,0.000000000,0.000000000,-0.800000000,0.500000000
0.102500,-0.000420000,-0.056584518,0.045707425,-0.310851000,-0.056584518,0.034888271,5.661629097e-05,0.000000000e+00,1,1,0.348388072,-0.000013145,0.000031212,-0.898384958,0.536942696,0.300000000,0.000000000,0.000000000,-0.800000000,0.500000000
0.105000,-0.000420000,-0.056584518,0.046292652,-0.310851000,-0.056584518,0.034888271,5.768220026e-05,0.000000000e+00,1,1,0.350893713,-0.000013929,0.000032837,-0.903466451,0.538684223,0.300000000,0.000000000,0.000000000,-0.800000000,0.500000000
0.107500,-0.000420000,-0.056584518,0.046885542,-0.310851000,-0.056584518,0.034888271,5.865363991e-05,0.000000000e+00,1,1,0.353421311,-0.000014731,0.000034478,-0.908591113,0.540423902,0.300000000,0.000000000,0.000000000,-0.800000000,0.500000000
0.110000,-0.000420000,-0.056584518,0.047484930,-0.310851000,-0.056584518,0.034888271,5.952696262e-05,0.000000000e+00,1,1,0.355965687,-0.000015549,0.000036130,-0.913748391,0.542157672,0.300000000,0.000000000,0.000000000,-0.800000000,0.500000000
0.112500,-0.000420000,-0.056584518,0.048089610,-0.310851000,-0.056584518,0.034888271,6.029879824e-05,0.000000000e+00,1,1,0.358521591,-0.000016382,0.000037792,-0.918927590,0.543881544,0.300000000,0.000000000,0.000000000,-0.800000000,0.500000000
0.115000,-0.000420000,-0.056584518,0.048698342,-0.310851000,-0.056584518,0.034888271,6.096605826e-05,0.000000000e+00,1,1,0.361083714,-0.000017228,0.000039459,-0.924117905,0.545591610,0.300000000,0.000000000,0.000000000,-0.800000000,0.500000000
0.117500,-0.000420000,-0.056584518,0.049309848,-0.310851000,-0.056584518,0.034888271,6.152593896e-05,0.000000000e+00,1,1,0.363646703,-0.000018086,0.000041129,-0.929308451,0.547284059,0.300000000,0.000000000,0.000000000,-0.800000000,0.500000000
0.120000,-0.000420000,-0.056584518,0.049922825,-0.310851000,-0.056584518,0.034888271,6.197592421e-05,0.000000000e+00,1,1,0.366205179,-0.000018954,0.000042797,-0.934488296,0.548955183,0.300000000,0.000000000,0.000000000,-0.800000000,0.500000000
0.122500,-0.000420000,-0.056584518,0.050535939,-0.310851000,-0.056584518,0.034888271,6.231378770e-05,0.000000000e+00,1,1,0.368753747,-0.000019831,0.000044461,-0.939646483,0.550601389,0.300000000,0.000000000,0.000000000,-0.800000000,0.500000000
0.125000,-0.000420000,-0.056584518,0.051147835,-0.310851000,-0.056584518,0.034888271,6.253759453e-05,0.000000000e+00,1,1,0.371287011,-0.000020714,0.000046117,-0.944772065,0.552219210,0.300000000,0.000000000,0.000000000,-0.800000000,0.500000000
0.127500,-0.000420000,-0.056584518,0.051757138,-0.310851000,-0.056584518,0.034888271,6.264570243e-05,0.000000000e+00,1,1,0.373799587,-0.000021601,0.000047761,-0.949854124,0.553805302,0.300000000,0.000000000,0.000000000,-0.800000000,0.500000000
0.130000,-0.000420000,-0.056584518,0.052362454,-0.310851000,-0.056584518,0.034888271,6.263676232e-05,0.000000000e+00,1,1,0.376286117,-0.000022490,0.000049391,-0.954881804,0.555356459,0.300000000,0.000000000,0.000000000,-0.800000000,0.500000000
0.132500,-0.000420000,-0.056584518,0.052962381,-0.310851000,-0.056584518,0.034888271,6.250971890e-05,0.000000000e+00,1,1,0.378741277,-0.000023380,0.000051003,-0.959844326,0.556869612,0.300000000,0.000000000,0.000000000,-0.800000000,0.500000000
0.135000,-0.000420000,-0.056584518,0.053555505,-0.310851000,-0.056584518,0.034888271,6.226381023e-05,0.000000000e+00,1,1,0.381159793,-0.000024267,0.000052593,-0.964731017,0.558341832,0.300000000,0.000000000,0.000000000,-0.800000000,0.500000000
0.137500,-0.000420000,-0.056584518,0.054140408,-0.310851000,-0.056584518,0.034888271,6.189856738e-05,0.000000000e+00,1,1,0.383536447,-0.000025150,0.000054158,-0.969531332,0.559770332,0.300000000,0.000000000,0.000000000,-0.800000000,0.500000000
0.140000,-0.000420000,-0.056584518,0.054715670,-0.310851000,-0.056584518,0.034888271,6.141381370e-05,0.000000000e+00,1,1,0.385866091,-0.000026027,0.000055696,-0.974234868,0.561152470,0.300000000,0.000000000,0.000000000,-0.800000000,0.500000000
0.142500,-0.000420000,-0.056584518,0.055279876,-0.310851000,-0.056584518,0.034888271,6.080966360e-05,0.000000000e+00,1,1,0.388143654,-0.000026894,0.000057202,-0.978831391,0.562485745,0.300000000,0.000000000,0.000000000,-0.800000000,0.500000000
0.145000,-0.000420000,-0.056584518,0.055831614,-0.310851000,-0.056584518,0.034888271,6.008652102e-05,0.000000000e+00,1,1,0.390364154,-0.000027749,0.000058673,-0.983310851,0.563767800,0.300000000,0.000000000,0.000000000,-0.800000000,0.500000000
0.147500,-0.000420000,-0.056584518,0.056369486,-0.310851000,-0.056584518,0.034888271,5.924507781e-05,0.000000000e+00,1,1,0.392522703,-0.000028591,0.000060107,-0.987663397,0.564996417,0.300000000,0.000000000,0.000000000,-0.800000000,0.500000000
0.150000,-0.000420000,-0.056584518,0.056892107,-0.310851000,-0.056584518,0.034888271,5.828631137e-05,0.000000000e+00,1,1,0.394614519,-0.000029416,0.000061499,-0.991879399,0.566169519,0.300000000,0.000000000,0.000000000,-0.800000000,0.500000000
0.152500,-0.000420000,-0.056584518,0.057398109,-0.310851000,-0.056584518,0.034888271,5.721148229e-05,0.000000000e+00,1,1,0.396634931,-0.000030222,0.000062848,-0.995949459,0.567285160,0.300000000,0.000000000,0.000000000,-0.800000000,0.500000000
0.155000,-0.000420000,-0.056584518,0.057886148,-0.310851000,-0.056584518,0.034888271,5.602213183e-05,0.000000000e+00,1,1,0.398579390,-0.000031007,0.000064150,-0.999864430,0.568341532,0.300000000,0.000000000,0.000000000,-0.800000000,0.500000000
0.157500,-0.000420000,-0.056584518,0.058354906,-0.310851000,-0.056584518,0.034888271,5.472007858e-05,0.000000000e+00,1,1,0.400443472,-0.000031767,0.000065403,-1.003615427,0.569336952,0.300000000,0.000000000,0.000000000,-0.800000000,0.500000000
0.160000,-0.000420000,-0.056584518,0.058803093,-0.310851000,-0.056584518,0.034888271,5.330741537e-05,0.000000000e+00,1,1,0.402222887,-0.000032501,0.000066603,-1.007193840,0.570269862,0.300000000,0.000000000,0.000000000,-0.800000000,0.500000000
0.162500,-0.000420000,-0.056584518,0.059229456,-0.310851000,-0.056584518,0.034888271,9.875813440e-05,0.000000000e+00,1,1,0.403719079,-0.000033112,0.000067602,-1.010209656,0.571084485,0.300000000,0.000000000,0.000000000,-0.800000000,0.500000000
0.165000,-0.000420000,-0.056584518,0.059632776,-0.310851000,-0.056584518,0.034888271,5.359821065e-05,0.000000000e+00,1,1,0.405486201,-0.000033856,0.000068795,-1.013760262,0.571993707,0.300000000,0.000000000,0.000000000,-0.800000000,0.500000000
0.167500,-0.000420000,-0.056584518,0.060011876,-0.310851000,-0.056584518,0.034888271,9.080840210e-05,0.000000000e+00,1,1,0.406825080,-0.000034415,0.000069696,-1.016455416,0.572697584,0.300000000,0.000000000,0.000000000,-0.800000000,0.500000000
0.170000,-0.000420000,-0.056584518,0.060365627,-0.310851000,-0.056584518,0.034888271,9.300458163e-05,0.000000000e+00,1,1,0.408198852,-0.000034994,0.000070619,-1.019220087,0.573418519,0.300000000,0.000000000,0.000000000,-0.800000000,0.500000000
0.172500,-0.000420000,-0.056584518,0.060692944,-0.310851000,-0.056584518,0.034888271,8.888198030e-05,0.000000000e+00,1,1,0.409493040,-0.000035546,0.000071491,-1.021822423,0.574084846,0.300000000,0.000000000,0.000000000,-0.800000000,0.500000000
0.175000,-0.000420000,-0.056584518,0.060992795,-0.310851000,-0.056584518,0.034888271,8.346866130e-05,0.000000000e+00,1,1,0.410684825,-0.000036059,0.000072299,-1.024216500,0.574683211,0.300000000,0.000000000,0.000000000,-0.800000000,0.500000000
0.177500,-0.000420000,-0.056584518,0.061264205,-0.310851000,-0.056584518,0.034888271,7.765243672e-05,0.000000000e+00,1,1,0.411767616,-0.000036530,0.000073038,-1.026389120,0.575210491,0.300000000,0.000000000,0.000000000,-0.800000000,0.500000000
0.180000,-0.000420000,-0.056584518,0.061506255,-0.310851000,-0.056584518,0.034888271,7.159803097e-05,0.000000000e+00,1,1,0.412737815,-0.000036957,0.000073706,-1.028333092,0.575665416,0.300000000,0.000000000,0.000000000,-0.800000000,0.500000000
0.182500,-0.000420000,-0.056584518,0.061718090,-0.310851000,-0.056584518,0.034888271,6.534435952e-05,0.000000000e+00,1,1,0.413592502,-0.000037338,0.000074301,-1.030042588,0.576047108,0.300000000,0.000000000,0.000000000,-0.800000000,0.500000000
0.185000,-0.000420000,-0.056584518,0.061898917,-0.310851000,-0.056584518,0.034888271,5.890891967e-05,0.000000000e+00,1,1,0.414329033,-0.000037672,0.000074821,-1.031512333,0.576354823,0.300000000,0.000000000,0.000000000,-0.800000000,0.500000000
0.187500,-0.000420000,-0.056584518,0.062048012,-0.310851000,-0.056584518,0.034888271,9.814805756e-05,0.000000000e+00,1,1,0.414757912,-0.000037862,0.000075120,-1.032370894,0.576546183,0.300000000,0.000000000,0.000000000,-0.800000000,0.500000000
0.190000,-0.000420000,-0.056584518,0.062164722,-0.310851000,-0.056584518,0.034888271,5.355132199e-05,0.000000000e+00,1,1,0.415395001,-0.000038157,0.000075576,-1.033638524,0.576791733,0.300000000,0.000000000,0.000000000,-0.800000000,0.500000000
0.192500,-0.000420000,-0.056584518,0.062248466,-0.310851000,-0.056584518,0.034888271,6.867399937e-05,0.000000000e+00,1,1,0.415667341,-0.000038284,0.000075776,-1.034178988,0.576886300,0.300000000,0.000000000,0.000000000,-0.800000000,0.500000000
0.195000,-0.000420000,-0.056584518,0.062298738,-0.310851000,-0.056584518,0.034888271,6.103824190e-05,0.000000000e+00,1,1,0.415899177,-0.000038395,0.000075949,-1.034637172,0.576956084,0.300000000,0.000000000,0.000000000,-0.800000000,0.500000000
0.197500,-0.000420000,-0.056584518,0.062315110,-0.310851000,-0.056584518,0.034888271,7.739211936e-05,0.000000000e+00,1,1,0.415899177,-0.000038395,0.000075949,-1.034637172,0.576956084,0.300000000,0.000000000,0.000000000,-0.800000000,0.500000000
0.200000,-0.000420000,-0.056584518,0.062297237,-0.310851000,-0.056584518,0.034888271,5.953942850e-05,0.000000000e+00,1,1,0.415899177,-0.000038395,0.000075949,-1.034637172,0.576956084,0.300000000,0.000000000,0.000000000,-0.800000000,0.500000000
0.202500,-0.000420000,-0.056584518,0.062244851,-0.310851000,-0.056584518,0.034888271,7.795789505e-06,0.000000000e+00,1,1,0.415899177,-0.000038395,0.000075949,-1.034637172,0.576956084,0.300000000,0.000000000,0.000000000,-0.800000000,0.500000000
0.205000,-0.000420000,-0.056584518,0.062157771,-0.310851000,-0.056584518,0.034888271,8.008562058e-05,0.000000000e+00,1,1,0.415899177,-0.000038395,0.000075949,-1.034637172,0.576956084,0.300000000,0.000000000,0.000000000,-0.800000000,0.500000000
0.207500,-0.000420000,-0.056584518,0.062035903,-0.310851000,-0.056584518,0.034888271,7.328615372e-05,0.000000000e+00,1,1,0.415426405,-0.000038217,0.000075671,-1.033663052,0.576592477,0.300000000,0.000000000,0.000000000,-0.800000000,0.500000000
0.210000,-0.000420000,-0.056584518,0.061879236,-0.310851000,-0.056584518,0.034888271,8.505526835e-05,0.000000000e+00,1,1,0.414890437,-0.000038010,0.000075355,-1.032562762,0.576191796,0.300000000,0.000000000,0.000000000,-0.800000000,0.500000000
0.212500,-0.000420000,-0.056584518,0.061687850,-0.310851000,-0.056584518,0.034888271,3.270855227e-05,0.000000000e+00,1,1,0.413988796,-0.000037658,0.000074831,-1.030711995,0.575500707,0.300000000,0.000000000,0.000000000,-0.800000000,0.500000000
0.215000,-0.000420000,-0.056584518,0.061461916,-0.310851000,-0.056584518,0.034888271,9.719816117e-05,0.000000000e+00,1,1,0.413387468,-0.000037423,0.000074471,-1.029480563,0.575063906,0.300000000,0.000000000,0.000000000,-0.800000000,0.500000000
0.217500,-0.000420000,-0.056584518,0.061201693,-0.310851000,-0.056584518,0.034888271,4.710991053e-05,0.000000000e+00,1,1,0.412228036,-0.000036964,0.000073779,-1.027108751,0.574222237,0.300000000,0.000000000,0.000000000,-0.800000000,0.500000000
0.220000,-0.000420000,-0.056584518,0.060907532,-0.310851000,-0.056584518,0.034888271,4.442231103e-05,0.000000000e+00,1,1,0.411116441,-0.000036527,0.000073114,-1.024835088,0.573415549,0.300000000,0.000000000,0.000000000,-0.800000000,0.500000000
0.222500,-0.000420000,-0.056584518,0.060579877,-0.310851000,-0.056584518,0.034888271,4.998408508e-05,0.000000000e+00,1,1,0.409905117,-0.000036049,0.000072383,-1.022359898,0.572552125,0.300000000,0.000000000,0.000000000,-0.800000000,0.500000000
0.225000,-0.000420000,-0.056584518,0.060219263,-0.310851000,-0.056584518,0.034888271,5.692638100e-05,0.000000000e+00,1,1,0.408568912,-0.000035522,0.000071568,-1.019632479,0.571616087,0.300000000,0.000000000,0.000000000,-0.800000000,0.500000000
0.227500,-0.000420000,-0.056584518,0.059826318,-0.310851000,-0.056584518,0.034888271,6.402913939e-05,0.000000000e+00,1,1,0.407104552,-0.000034945,0.000070669,-1.016646333,0.570605007,0.300000000,0.000000000,0.000000000,-0.800000000,0.500000000
0.230000,-0.000420000,-0.056584518,0.059401763,-0.310851000,-0.056584518,0.034888271,7.106234074e-05,0.000000000e+00,1,1,0.405512867,-0.000034318,0.000069685,-1.013403207,0.569518896,0.300000000,0.000000000,0.000000000,-0.800000000,0.500000000
0.232500,-0.000420000,-0.056584518,0.058946410,-0.310851000,-0.056584518,0.034888271,7.796979337e-05,0.000000000e+00,1,1,0.403795658,-0.000033643,0.000068618,-1.009906787,0.568358278,0.300000000,0.000000000,0.000000000,-0.800000000,0.500000000
0.235000,-0.000420000,-0.056584518,0.058461165,-0.310851000,-0.056584518,0.034888271,8.472588943e-05,0.000000000e+00,1,1,0.401955148,-0.000032923,0.000067469,-1.006161600,0.567123847,0.300000000,0.000000000,0.000000000,-0.800000000,0.500000000
0.237500,-0.000420000,-0.056584518,0.057947024,-0.310851000,-0.056584518,0.034888271,9.131043616e-05,0.000000000e+00,1,1,0.399993888,-0.000032159,0.000066239,-1.002172836,0.565816420,0.300000000,0.000000000,0.000000000,-0.800000000,0.500000000
0.240000,-0.000420000,-0.056584518,0.057405073,-0.310851000,-0.056584518,0.034888271,9.770423067e-05,0.000000000e+00,1,1,0.397914755,-0.000031354,0.000064930,-0.997946328,0.564436937,0.300000000,0.000000000,0.000000000,-0.800000000,0.500000000
0.242500,-0.000420000,-0.056584518,0.056836489,-0.310851000,-0.056584518,0.034888271,3.402400378e-05,0.000000000e+00,1,1,0.395448752,-0.000030401,0.000063378,-0.992936040,0.562791618,0.300000000,0.000000000,0.000000000,-0.800000000,0.500000000
0.245000,-0.000420000,-0.056584518,0.056242537,-0.310851000,-0.056584518,0.034888271,9.748134040e-05,0.000000000e+00,1,1,0.393370211,-0.000029612,0.000062059,-0.988711689,0.561416967,0.300000000,0.000000000,0.000000000,-0.800000000,0.500000000
0.247500,-0.000420000,-0.056584518,0.055624569,-0.310851000,-0.056584518,0.034888271,3.843297534e-05,0.000000000e+00,1,1,0.390702187,-0.000028597,0.000060367,-0.983295095,0.559651421,0.300000000,0.000000000,0.000000000,-0.800000000,0.500000000
0.250000,-0.000420000,-0.056584518,0.054984024,-0.310851000,-0.056584518,0.034888271,3.613225301e-05,0.000000000e+00,1,1,0.388155512,-0.000027641,0.000058744,-0.978125103,0.557968272,0.300000000,0.000000000,0.000000000,-0.800000000,0.500000000
0.252500,-0.000420000,-0.056584518,0.054322423,-0.310851000,-0.056584518,0.034888271,3.796115298e-05,0.000000000e+00,1,1,0.385527138,-0.000026663,0.000057063,-0.972790913,0.556235166,0.300000000,0.000000000,0.000000000,-0.800000000,0.500000000
0.255000,-0.000420000,-0.056584518,0.053641372,-0.310851000,-0.056584518,0.034888271,4.000448536e-05,0.000000000e+00,1,1,0.382806447,-0.000025660,0.000055317,-0.967271258,0.554443779,0.300000000,0.000000000,0.000000000,-0.800000000,0.500000000
0.257500,-0.000420000,-0.056584518,0.052942556,-0.310851000,-0.056584518,0.034888271,4.196408198e-05,0.000000000e+00,1,1,0.379997698,-0.000024636,0.000053510,-0.961574716,0.552595341,0.300000000,0.000000000,0.000000000,-0.800000000,0.500000000
0.260000,-0.000420000,-0.056584518,0.052227738,-0.310851000,-0.056584518,0.034888271,4.381103149e-05,0.000000000e+00,1,1,0.377106640,-0.000023593,0.000051646,-0.955712837,0.550692024,0.300000000,0.000000000,0.000000000,-0.800000000,0.500000000
0.262500,-0.000420000,-0.056584518,0.051498759,-0.310851000,-0.056584518,0.034888271,4.553649889e-05,0.000000000e+00,1,1,0.374139517,-0.000022535,0.000049727,-0.949698154,0.548736314,0.300000000,0.000000000,0.000000000,-0.800000000,0.500000000
0.265000,-0.000420000,-0.056584518,0.050757532,-0.310851000,-0.056584518,0.034888271,4.713312278e-05,0.000000000e+00,1,1,0.371102995,-0.000021465,0.000047760,-0.943544056,0.546730993,0.300000000,0.000000000,0.000000000,-0.800000000,0.500000000
0.267500,-0.000420000,-0.056584518,0.050006044,-0.310851000,-0.056584518,0.034888271,4.859361223e-05,0.000000000e+00,1,1,0.368004175,-0.000020388,0.000045748,-0.937264798,0.544679155,0.300000000,0.000000000,0.000000000,-0.800000000,0.500000000
0.270000,-0.000420000,-0.056584518,0.049246351,-0.310851000,-0.056584518,0.034888271,4.991062777e-05,0.000000000e+00,1,1,0.364850596,-0.000019306,0.000043697,-0.930875522,0.542584244,0.300000000,0.000000000,0.000000000,-0.800000000,0.500000000
0.272500,-0.000420000,-0.056584518,0.048480575,-0.310851000,-0.056584518,0.034888271,5.107675808e-05,0.000000000e+00,1,1,0.361650252,-0.000018223,0.000041613,-0.924392286,0.540450079,0.300000000,0.000000000,0.000000000,-0.800000000,0.500000000
0.275000,-0.000420000,-0.056584518,0.047710902,-0.310851000,-0.056584518,0.034888271,5.208450192e-05,0.000000000e+00,1,1,0.358411598,-0.000017143,0.000039500,-0.917832079,0.538280889,0.300000000,0.000000000,0.000000000,-0.800000000,0.500000000
0.277500,-0.000420000,-0.056584518,0.046939583,-0.310851000,-0.056584518,0.034888271,5.292624959e-05,0.000000000e+00,1,1,0.355143563,-0.000016069,0.000037365,-0.911212849,0.536081348,0.300000000,0.000000000,0.000000000,-0.800000000,0.500000000
0.280000,-0.000420000,-0.056584518,0.046168927,-0.310851000,-0.056584518,0.034888271,5.359426154e-05,0.000000000e+00,1,1,0.351855556,-0.000015005,0.000035215,-0.904553521,0.533856612,0.300000000,0.000000000,0.000000000,-0.800000000,0.500000000
0.282500,-0.000420000,-0.056584518,0.045401302,-0.310851000,-0.056584518,0.034888271,5.408064560e-05,0.000000000e+00,1,1,0.348557479,-0.000013955,0.000033056,-0.897874023,0.531612351,0.300000000,0.000000000,0.000000000,-0.800000000,0.500000000
0.285000,-0.000420000,-0.056584518,0.044639130,-0.310851000,-0.056584518,0.034888271,5.437733083e-05,0.000000000e+00,1,1,0.345259733,-0.000012921,0.000030894,-0.891195300,0.529354792,0.300000000,0.000000000,0.000000000,-0.800000000,0.500000000
0.287500,-0.000420000,-0.056584518,0.043884889,-0.310851000,-0.056584518,0.034888271,5.447603855e-05,0.000000000e+00,1,1,0.341973226,-0.000011907,0.000028738,-0.884539336,0.527090749,0.300000000,0.000000000,0.000000000,-0.800000000,0.500000000
0.290000,-0.000420000,-0.056584518,0.043141109,-0.310851000,-0.056584518,0.034888271,5.436824898e-05,0.000000000e+00,1,1,0.338709380,-0.000010916,0.000026595,-0.877929170,0.524827669,0.300000000,0.000000000,0.000000000,-0.800000000,0.500000000
0.292500,-0.000420000,-0.056584518,0.042410374,-0.310851000,-0.056584518,0.034888271,5.404516221e-05,0.000000000e+00,1,1,0.335480141,-0.000009952,0.000024473,-0.871388918,0.522573660,0.300000000,0.000000000,0.000000000,-0.800000000,0.500000000
0.295000,-0.000420000,-0.056584518,0.041695316,-0.310851000,-0.056584518,0.034888271,5.349765114e-05,0.000000000e+00,1,1,0.332297982,-0.000009017,0.000022380,-0.864943782,0.520337530,0.300000000,0.000000000,0.000000000,-0.800000000,0.500000000
0.297500,-0.000420000,-0.056584518,0.040998623,-0.310851000,-0.056584518,0.034888271,5.271620376e-05,0.000000000e+00,1,1,0.329175910,-0.000008115,0.000020325,-0.858620076,0.518128820,0.300000000,0.000000000,0.000000000,-0.800000000,0.500000000
0.300000,-0.000420000,-0.056584518,0.040323036,-0.310851000,-0.056584518,0.034888271,5.169084834e-05,0.000000000e+00,1,1,0.326127477,-0.000007249,0.000018318,-0.852445238,0.515957836,0.300000000,0.000000000,0.000000000,-0.800000000,0.500000000
0.302500,-0.000420000,-0.056584518,0.039671355,-0.310851000,-0.056584518,0.034888271,5.041105446e-05,0.000000000e+00,1,1,0.323166789,-0.000006421,0.000016366,-0.846447860,0.513835677,0.300000000,0.000000000,0.000000000,-0.800000000,0.500000000
0.305000,-0.000420000,-0.056584518,0.039046441,-0.310851000,-0.056584518,0.034888271,4.886559799e-05,0.000000000e+00,1,1,0.320308521,-0.000005634,0.000014481,-0.840657720,0.511774267,0.300000000,0.000000000,0.000000000,-0.800000000,0.500000000
0.307500,-0.000420000,-0.056584518,0.038451228,-0.310851000,-0.056584518,0.034888271,4.704236921e-05,0.000000000e+00,1,1,0.317567940,-0.000004890,0.000012671,-0.835105829,0.509786376,0.300000000,0.000000000,0.000000000,-0.800000000,0.500000000
0.310000,-0.000420000,-0.056584518,0.037888733,-0.310851000,-0.056584518,0.034888271,4.492809406e-05,0.000000000e+00,1,1,0.314960940,-0.000004193,0.000010949,-0.829824505,0.507885660,0.300000000,0.000000000,0.000000000,-0.800000000,0.500000000
0.312500,-0.000420000,-0.056584518,0.037362077,-0.310851000,-0.056584518,0.034888271,4.250791604e-05,0.000000000e+00,1,1,0.312504097,-0.000003545,0.000009323,-0.824847488,0.506086691,0.300000000,0.000000000,0.000000000,-0.800000000,0.500000000
0.315000,-0.000420000,-0.056584518,0.036874507,-0.310851000,-0.056584518,0.034888271,9.558193330e-05,0.000000000e+00,1,1,0.310482879,-0.000003028,0.000007992,-0.820746422,0.504572771,0.300000000,0.000000000,0.000000000,-0.800000000,0.500000000
0.317500,-0.000420000,-0.056584518,0.036429439,-0.310851000,-0.056584518,0.034888271,9.800637492e-05,0.000000000e+00,1,1,0.308414651,-0.000002501,0.000006631,-0.816550701,0.503011589,0.300000000,0.000000000,0.000000000,-0.800000000,0.500000000
0.320000,-0.000420000,-0.056584518,0.036030519,-0.310851000,-0.056584518,0.034888271,9.038886236e-05,0.000000000e+00,1,1,0.306505745,-0.000002018,0.000005375,-0.812679326,0.501567893,0.300000000,0.000000000,0.000000000,-0.800000000,0.500000000
0.322500,-0.000420000,-0.056584518,0.035681726,-0.310851000,-0.056584518,0.034888271,8.012418662e-05,0.000000000e+00,1,1,0.304811630,-0.000001592,0.000004257,-0.809244724,0.500288126,0.300000000,0.000000000,0.000000000,-0.800000000,0.500000000
0.325000,-0.000420000,-0.056584518,0.035387538,-0.310851000,-0.056584518,0.034888271,6.847660541e-05,0.000000000e+00,1,1,0.303361664,-0.000001229,0.000003298,-0.806306619,0.499198371,0.300000000,0.000000000,0.000000000,-0.800000000,0.500000000
0.327500,-0.000420000,-0.056584518,0.035153272,-0.310851000,-0.056584518,0.034888271,5.552209786e-05,0.000000000e+00,1,1,0.302183470,-0.000000935,0.000002513,-0.803921353,0.498323478,0.300000000,0.000000000,0.000000000,-0.800000000,0.500000000
0.330000,-0.000420000,-0.056584518,0.034985848,-0.310851000,-0.056584518,0.034888271,9.563018265e-05,0.000000000e+00,1,1,0.301576480,-0.000000786,0.000002109,-0.802691199,0.497869168,0.300000000,0.000000000,0.000000000,-0.800000000,0.500000000
0.332500,-0.000420000,-0.056584518,0.034896382,-0.310851000,-0.056584518,0.034888271,7.944330546e-05,0.000000000e+00,1,1,0.301070545,-0.000000660,0.000001771,-0.801667444,0.497496404,0.300000000,0.000000000,0.000000000,-0.800000000,0.500000000
0.335000,-0.000420000,-0.056584518,0.034888271,-0.310851000,-0.056584518,0.034916724,8.755289493e-05,2.845245185e-05,1,1,0.301070545,-0.000000660,0.000001771,-0.801667444,0.497496404,0.300000000,0.000000000,0.000000000,-0.800000000,0.500000000
0.337500,-0.000420000,-0.056584518,0.034888271,-0.310851000,-0.056584518,0.035037369,8.755289493e-05,6.401317283e-05,1,1,0.301070545,-0.000000660,0.000001771,-0.801667444,0.497496404,0.300400277,0.000000089,0.000000259,-0.800817379,0.500330803
0.340000,-0.000420000,-0.056584518,0.034888271,-0.310851000,-0.056584518,0.035238039,8.755289493e-05,4.891729050e-05,1,1,0.301070545,-0.000000660,0.000001771,-0.801667444,0.497496404,0.301415678,0.000000325,0.000000914,-0.802887273,0.501167473
0.342500,-0.000420000,-0.056584518,0.034888271,-0.310851000,-0.056584518,0.035512650,8.755289493e-05,5.989466575e-05,1,1,0.301070545,-0.000000660,0.000001771,-0.801667444,0.497496404,0.302653712,0.000000617,0.000001711,-0.805410193,0.502184283
0.345000,-0.000420000,-0.056584518,0.034888271,-0.310851000,-0.056584518,0.035857724,8.755289493e-05,7.502621004e-05,1,1,0.301070545,-0.000000660,0.000001771,-0.801667444,0.497496404,0.304198603,0.000000984,0.000002706,-0.808558143,0.503448327
0.347500,-0.000420000,-0.056584518,0.034888271,-0.310851000,-0.056584518,0.036270856,8.755289493e-05,9.047381710e-05,1,1,0.301070545,-0.000000660,0.000001771,-0.801667444,0.497496404,0.306054121,0.000001430,0.000003900,-0.812338492,0.504959374
0.350000,-0.000420000,-0.056584518,0.034888271,-0.310851000,-0.056584518,0.036750177,8.755289493e-05,4.626546811e-05,1,1,0.301070545,-0.000000660,0.000001771,-0.801667444,0.497496404,0.308487720,0.000002032,0.000005464,-0.817292776,0.506927333
0.352500,-0.000420000,-0.056584518,0.034888271,-0.310851000,-0.056584518,0.037294108,8.755289493e-05,4.823682931e-05,1,1,0.301070545,-0.000000660,0.000001771,-0.801667444,0.497496404,0.310993405,0.000002656,0.000007075,-0.822394602,0.508938782
0.355000,-0.000420000,-0.056584518,0.034888271,-0.310851000,-0.056584518,0.037901228,8.755289493e-05,5.371013414e-05,1,1,0.301070545,-0.000000660,0.000001771,-0.801667444,0.497496404,0.313759975,0.000003355,0.000008856,-0.828026906,0.511142253
0.357500,-0.000420000,-0.056584518,0.034888271,-0.310851000,-0.056584518,0.038570195,8.755289493e-05,5.935552939e-05,1,1,0.301070545,-0.000000660,0.000001771,-0.801667444,0.497496404,0.316792340,0.000004134,0.000010807,-0.834199004,0.513536328
0.360000,-0.000420000,-0.056584518,0.034888271,-0.310851000,-0.056584518,0.039299691,8.755289493e-05,6.491147286e-05,1,1,0.301070545,-0.000000660,0.000001771,-0.801667444,0.497496404,0.320080966,0.000004996,0.000012923,-0.840891085,0.516107781
0.362500,-0.000420000,-0.056584518,0.034888271,-0.310851000,-0.056584518,0.040088393,8.755289493e-05,7.035337705e-05,1,1,0.301070545,-0.000000660,0.000001771,-0.801667444,0.497496404,0.323615065,0.000005940,0.000015198,-0.848080811,0.518842291
0.365000,-0.000420000,-0.056584518,0.034888271,-0.310851000,-0.056584518,0.040934945,8.755289493e-05,7.567380473e-05,1,1,0.301070545,-0.000000660,0.000001771,-0.801667444,0.497496404,0.327383577,0.000006968,0.000017624,-0.855745298,0.521725317
0.367500,-0.000420000,-0.056584518,0.034888271,-0.310851000,-0.056584518,0.041837945,8.755289493e-05,8.086591733e-05,1,1,0.301070545,-0.000000660,0.000001771,-0.801667444,0.497496404,0.331375232,0.000008082,0.000020195,-0.863861236,0.524742228
0.370000,-0.000420000,-0.056584518,0.034888271,-0.310851000,-0.056584518,0.042795929,8.755289493e-05,8.592254463e-05,1,1,0.301070545,-0.000000660,0.000001771,-0.801667444,0.497496404,0.335578558,0.000009281,0.000022903,-0.872404916,0.527878392
0.372500,-0.000420000,-0.056584518,0.034888271,-0.310851000,-0.056584518,0.043807365,8.755289493e-05,9.083635093e-05,1,1,0.301070545,-0.000000660,0.000001771,-0.801667444,0.497496404,0.339981896,0.000010568,0.000025740,-0.881352264,0.531119264
0.375000,-0.000420000,-0.056584518,0.034888271,-0.310851000,-0.056584518,0.044870647,8.755289493e-05,9.560000932e-05,1,1,0.301070545,-0.000000660,0.000001771,-0.801667444,0.497496404,0.344573427,0.000011943,0.000028700,-0.890678896,0.534450471
0.377500,-0.000420000,-0.056584518,0.034888271,-0.310851000,-0.056584518,0.045984087,8.755289493e-05,4.801265151e-05,1,1,0.301070545,-0.000000660,0.000001771,-0.801667444,0.497496404,0.349570641,0.000013490,0.000031925,-0.900819137,0.537996461
0.380000,-0.000420000,-0.056584518,0.034888271,-0.310851000,-0.056584518,0.047145916,8.755289493e-05,4.868062095e-05,1,1,0.301070545,-0.000000660,0.000001771,-0.801667444,0.497496404,0.354522378,0.000015056,0.000035128,-0.910865102,0.541446730
0.382500,-0.000420000,-0.056584518,0.034888271,-0.310851000,-0.056584518,0.048354279,8.755289493e-05,5.081735476e-05,1,1,0.301070545,-0.000000660,0.000001771,-0.801667444,0.497496404,0.359619555,0.000016709,0.000038429,-0.921202070,0.544936968
0.385000,-0.000420000,-0.056584518,0.034888271,-0.310851000,-0.056584518,0.049607237,8.755289493e-05,5.293018112e-05,1,1,0.301070545,-0.000000660,0.000001771,-0.801667444,0.497496404,0.364856531,0.000018453,0.000041824,-0.931818065,0.548458683
0.387500,-0.000420000,-0.056584518,0.034888271,-0.310851000,-0.056584518,0.050902764,8.755289493e-05,5.496818641e-05,1,1,0.301070545,-0.000000660,0.000001771,-0.801667444,0.497496404,0.370221405,0.000020288,0.000045305,-0.942688618,0.551999400
0.390000,-0.000420000,-0.056584518,0.034888271,-0.310851000,-0.056584518,0.052238751,8.755289493e-05,5.692642831e-05,1,1,0.301070545,-0.000000660,0.000001771,-0.801667444,0.497496404,0.375702109,0.000022214,0.000048866,-0.953788956,0.555547086
0.392500,-0.000420000,-0.056584518,0.034888271,-0.310851000,-0.056584518,0.053613003,8.755289493e-05,5.880167489e-05,1,1,0.301070545,-0.000000660,0.000001771,-0.801667444,0.497496404,0.381286622,0.000024230,0.000052500,-0.965094447,0.559090320
0.395000,-0.000420000,-0.056584518,0.034888271,-0.310851000,-0.056584518,0.055023245,8.755289493e-05,6.059099931e-05,1,1,0.301070545,-0.000000660,0.000001771,-0.801667444,0.497496404,0.386963011,0.000026336,0.000056199,-0.976580662,0.562618324
0.397500,-0.000420000,-0.056584518,0.034888271,-0.310851000,-0.056584518,0.056467121,8.755289493e-05,6.229172615e-05,1,1,0.301070545,-0.000000660,0.000001771,-0.801667444,0.497496404,0.392719445,0.000028531,0.000059956,-0.988223422,0.566120976
0.400000,-0.000420000,-0.056584518,0.034888271,-0.310851000,-0.056584518,0.057942197,8.755289493e-05,6.390141886e-05,1,1,0.301070545,-0.000000660,0.000001771,-0.801667444,0.497496404,0.398544227,0.000030812,0.000063765,-0.999998845,0.569588826
0.402500,-0.000420000,-0.056584518,0.034888271,-0.310851000,-0.056584518,0.059445966,8.755289493e-05,6.541786873e-05,1,1,0.301070545,-0.000000660,0.000001771,-0.801667444,0.497496404,0.404425804,0.000033180,0.000067617,-1.011883381,0.573013094
0.405000,-0.000420000,-0.056584518,0.034888271,-0.310851000,-0.056584518,0.060975849,8.755289493e-05,6.683908421e-05,1,1,0.301070545,-0.000000660,0.000001771,-0.801667444,0.497496404,0.410352787,0.000035631,0.000071508,-1.023853845,0.576385671
0.407500,-0.000420000,-0.056584518,0.034888271,-0.310851000,-0.056584518,0.062529201,8.755289493e-05,6.816328022e-05,1,1,0.301070545,-0.000000660,0.000001771,-0.801667444,0.497496404,0.416313969,0.000038164,0.000075429,-1.035887443,0.579699102
0.410000,-0.000420000,-0.056584518,0.034888271,-0.310851000,-0.056584518,0.064103311,8.755289493e-05,6.938886893e-05,1,1,0.301070545,-0.000000660,0.000001771,-0.801667444,0.497496404,0.422298331,0.000040776,0.000079375,-1.047961797,0.582946583
0.412500,-0.000420000,-0.056584518,0.034888271,-0.310851000,-0.056584518,0.065695411,8.755289493e-05,7.051445090e-05,1,1,0.301070545,-0.000000660,0.000001771,-0.801667444,0.497496404,0.428295054,0.000043464,0.000083338,-1.060054966,0.586121932
0.415000,-0.000420000,-0.056584518,0.034888271,-0.310851000,-0.056584518,0.067302675,8.755289493e-05,7.153880739e-05,1,1,0.301070545,-0.000000660,0.000001771,-0.801667444,0.497496404,0.434293530,0.000046225,0.000087313,-1.072145454,0.589219580
0.417500,-0.000420000,-0.056584518,0.034888271,-0.310851000,-0.056584518,0.068922230,8.755289493e-05,7.246089336e-05,1,1,0.301070545,-0.000000660,0.000001771,-0.801667444,0.497496404,0.440283366,0.000049056,0.000091293,-1.084212232,0.592234535
0.420000,-0.000420000,-0.056584518,0.034888271,-0.310851000,-0.056584518,0.070551155,8.755289493e-05,7.327983183e-05,1,1,0.301070545,-0.000000660,0.000001771,-0.801667444,0.497496404,0.446254390,0.000051952,0.000095273,-1.096234740,0.595162370
0.422500,-0.000420000,-0.056584518,0.034888271,-0.310851000,-0.056584518,0.072186490,8.755289493e-05,7.399490901e-05,1,1,0.301070545,-0.000000660,0.000001771,-0.801667444,0.497496404,0.452196654,0.000054910,0.000099246,-1.108192895,0.597999184
0.425000,-0.000420000,-0.056584518,0.034888271,-0.310851000,-0.056584518,0.073825238,8.755289493e-05,8.000042628e-05,1,1,0.301070545,-0.000000660,0.000001771,-0.801667444,0.497496404,0.458282341,0.000058012,0.000103321,-1.120249663,0.599559005
0.427500,-0.000420000,-0.056584518,0.034888271,-0.310851000,-0.056584518,0.075464374,8.755289493e-05,8.787930921e-05,1,1,0.301070545,-0.000000660,0.000001771,-0.801667444,0.497496404,0.464599636,0.000061311,0.000107552,-1.132479256,0.599429744
0.430000,-0.000420000,-0.056584518,0.034888271,-0.310851000,-0.056584518,0.077100847,8.755289493e-05,8.800971018e-05,1,1,0.301070545,-0.000000660,0.000001771,-0.801667444,0.497496404,0.470854177,0.000064664,0.000111755,-1.144571983,0.599437571
0.432500,-0.000420000,-0.056584518,0.034888271,-0.310851000,-0.056584518,0.078731588,8.755289493e-05,8.809538372e-05,1,1,0.301070545,-0.000000660,0.000001771,-0.801667444,0.497496404,0.477017974,0.000068055,0.000115912,-1.156490662,0.599444921
0.435000,-0.000420000,-0.056584518,0.034888271,-0.310851000,-0.056584518,0.080353516,8.755289493e-05,8.806787040e-05,1,1,0.301070545,-0.000000660,0.000001771,-0.801667444,0.497496404,0.483083096,0.000071479,0.000120019,-1.168219486,0.599451723
0.437500,-0.000420000,-0.056584518,0.034888271,-0.310851000,-0.056584518,0.081963540,8.755289493e-05,8.792629490e-05,1,1,0.301070545,-0.000000660,0.000001771,-0.801667444,0.497496404,0.489041474,0.000074928,0.000124070,-1.179742771,0.599457999
0.440000,-0.000420000,-0.056584518,0.034888271,-0.310851000,-0.056584518,0.083558570,8.755289493e-05,8.767245712e-05,1,1,0.301070545,-0.000000660,0.000001771,-0.801667444,0.497496404,0.494885274,0.000078396,0.000128062,-1.191045301,0.599463774
0.442500,-0.000420000,-0.056584518,0.034888271,-0.310851000,-0.056584518,0.085135522,8.755289493e-05,8.730825129e-05,1,1,0.301070545,-0.000000660,0.000001771,-0.801667444,0.497496404,0.500606904,0.000081875,0.000131988,-1.202112331,0.599469072
0.445000,-0.000420000,-0.056584518,0.034888271,-0.310851000,-0.056584518,0.086691320,8.755289493e-05,8.683557323e-05,1,1,0.301070545,-0.000000660,0.000001771,-0.801667444,0.497496404,0.506199015,0.000085358,0.000135846,-1.212929571,0.599473916
0.447500,-0.000420000,-0.056584518,0.034888271,-0.310851000,-0.056584518,0.088222907,8.755289493e-05,8.625632591e-05,1,1,0.301070545,-0.000000660,0.000001771,-0.801667444,0.497496404,0.511654484,0.000088836,0.000139630,-1.223483181,0.599478329
0.450000,-0.000420000,-0.056584518,0.034888271,-0.310851000,-0.056584518,0.089727251,8.755289493e-05,8.557242821e-05,1,1,0.301070545,-0.000000660,0.000001771,-0.801667444,0.497496404,0.516966418,0.000092303,0.000143336,-1.233759755,0.599482330
0.452500,-0.000420000,-0.056584518,0.034888271,-0.310851000,-0.056584518,0.091201346,8.755289493e-05,8.478582362e-05,1,1,0.301070545,-0.000000660,0.000001771,-0.801667444,0.497496404,0.522128146,0.000095750,0.000146960,-1.243746318,0.599485940
0.455000,-0.000420000,-0.056584518,0.034888271,-0.310851000,-0.056584518,0.092642224,8.755289493e-05,8.389848771e-05,1,1,0.301070545,-0.000000660,0.000001771,-0.801667444,0.497496404,0.527133213,0.000099169,0.000150498,-1.253430314,0.599489179
0.457500,-0.000420000,-0.056584518,0.034888271,-0.310851000,-0.056584518,0.094046958,8.755289493e-05,8.291243520e-05,1,1,0.301070545,-0.000000660,0.000001771,-0.801667444,0.497496404,0.531975380,0.000102550,0.000153945,-1.262799602,0.599492063
0.460000,-0.000420000,-0.056584518,0.034888271,-0.310851000,-0.056584518,0.095412672,8.755289493e-05,8.182972671e-05,1,1,0.301070545,-0.000000660,0.000001771,-0.801667444,0.497496404,0.536648617,0.000105886,0.000157298,-1.271842450,0.599494611
0.462500,-0.000420000,-0.056584518,0.034888271,-0.310851000,-0.056584518,0.096736540,8.755289493e-05,8.065247391e-05,1,1,0.301070545,-0.000000660,0.000001771,-0.801667444,0.497496404,0.541147106,0.000109167,0.000160553,-1.280547533,0.599496837
0.465000,-0.000420000,-0.056584518,0.034888271,-0.310851000,-0.056584518,0.098015800,8.755289493e-05,7.687631783e-05,1,1,0.301070545,-0.000000660,0.000001771,-0.801667444,0.497496404,0.545395292,0.000112339,0.000163664,-1.288846777,0.600000000
0.467500,-0.000420000,-0.056584518,0.034888271,-0.310851000,-0.056584518,0.099247756,8.755289493e-05,7.392194624e-05,1,1,0.301070545,-0.000000660,0.000001771,-0.801667444,0.497496404,0.549579335,0.000115518,0.000166742,-1.296886458,0.599750984
0.470000,-0.000420000,-0.056584518,0.034888271,-0.310851000,-0.056584518,0.100429782,8.755289493e-05,7.446572785e-05,1,1,0.301070545,-0.000000660,0.000001771,-0.801667444,0.497496404,0.553467911,0.000118548,0.000169649,-1.304471934,0.600000000
0.472500,-0.000420000,-0.056584518,0.034888271,-0.310851000,-0.056584518,0.101559334,8.755289493e-05,7.111688326e-05,1,1,0.301070545,-0.000000660,0.000001771,-0.801667444,0.497496404,0.557265585,0.000121557,0.000172505,-1.311762881,0.599752351
0.475000,-0.000420000,-0.056584518,0.034888271,-0.310851000,-0.056584518,0.102633950,8.755289493e-05,7.106759457e-05,1,1,0.301070545,-0.000000660,0.000001771,-0.801667444,0.497496404,0.560760269,0.000124398,0.000175184,-1.318583911,0.600000000
0.477500,-0.000420000,-0.056584518,0.034888271,-0.310851000,-0.056584518,0.103651258,8.755289493e-05,6.796612903e-05,1,1,0.301070545,-0.000000660,0.000001771,-0.801667444,0.497496404,0.564149352,0.000127200,0.000177803,-1.325086360,0.599750720
0.480000,-0.000420000,-0.056584518,0.034888271,-0.310851000,-0.056584518,0.104608983,8.755289493e-05,6.723211282e-05,1,1,0.301070545,-0.000000660,0.000001771,-0.801667444,0.497496404,0.567231885,0.000129818,0.000180240,-1.331107105,0.600000000
0.482500,-0.000420000,-0.056584518,0.034888271,-0.310851000,-0.056584518,0.105504948,8.755289493e-05,6.450498764e-05,1,1,0.301070545,-0.000000660,0.000001771,-0.801667444,0.497496404,0.570194627,0.000132378,0.000182607,-1.336786901,0.599746377
0.485000,-0.000420000,-0.056584518,0.034888271,-0.310851000,-0.056584518,0.106337086,8.755289493e-05,9.808864226e-05,1,1,0.301070545,-0.000000660,0.000001771,-0.801667444,0.497496404,0.572748939,0.000134549,0.000184577,-1.341766341,0.599890283
0.487500,-0.000420000,-0.056584518,0.034888271,-0.310851000,-0.056584518,0.107103438,8.755289493e-05,9.655670816e-05,1,1,0.301070545,-0.000000660,0.000001771,-0.801667444,0.497496404,0.575221928,0.000136685,0.000186499,-1.346558155,0.599887624
0.490000,-0.000420000,-0.056584518,0.034888271,-0.310851000,-0.056584518,0.107802162,8.755289493e-05,9.176492323e-05,1,1,0.301070545,-0.000000660,0.000001771,-0.801667444,0.497496404,0.577484632,0.000138686,0.000188297,-1.350934879,0.599870709
0.492500,-0.000420000,-0.056584518,0.034888271,-0.310851000,-0.056584518,0.108431537,8.755289493e-05,8.655500578e-05,1,1,0.301070545,-0.000000660,0.000001771,-0.801667444,0.497496404,0.579520458,0.000140535,0.000189964,-1.354871171,0.599851945
0.495000,-0.000420000,-0.056584518,0.034888271,-0.310851000,-0.056584518,0.108989969,8.755289493e-05,8.119161565e-05,1,1,0.301070545,-0.000000660,0.000001771,-0.801667444,0.497496404,0.581324938,0.000142224,0.000191493,-1.358359293,0.599832487
0.497500,-0.000420000,-0.056584518,0.034888271,-0.310851000,-0.056584518,0.109475991,8.755289493e-05,7.570710754e-05,1,1,0.301070545,-0.000000660,0.000001771,-0.801667444,0.497496404,0.582895020,0.000143747,0.000192884,-1.361393417,0.599812441
0.500000,-0.000420000,-0.056584518,0.034888271,-0.310851000,-0.056584518,0.109888271,8.755289493e-05,7.011307696e-05,1,1,0.301070545,-0.000000660,0.000001771,-0.801667444,0.497496404,0.584227987,0.000145097,0.000194133,-1.363968271,0.599791811
0.502500,-0.000420000,-0.056584518,0.034888271,-0.310851000,-0.056584518,0.110225616,8.755289493e-05,6.441970312e-05,1,1,0.301070545,-0.000000660,0.000001771,-0.801667444,0.497496404,0.585321352,0.000146270,0.000195238,-1.366079023,0.599770589
0.505000,-0.000420000,-0.056584518,0.034888271,-0.310851000,-0.056584518,0.110486973,8.755289493e-05,9.161054491e-05,1,1,0.301070545,-0.000000660,0.000001771,-0.801667444,0.497496404,0.586085721,0.000147076,0.000195992,-1.367548735,0.599536578
0.507500,-0.000420000,-0.056584518,0.034888271,-0.310851000,-0.056584518,0.110671434,8.755289493e-05,7.869383166e-05,1,1,0.301070545,-0.000000660,0.000001771,-0.801667444,0.497496404,0.586647905,0.000147733,0.000196624,-1.368698365,0.600000000
0.510000,-0.000420000,-0.056584518,0.034888271,-0.310851000,-0.056584518,0.110778239,8.755289493e-05,6.316414968e-05,1,1,0.301070545,-0.000000660,0.000001771,-0.801667444,0.497496404,0.587077534,0.000148287,0.000197177,-1.369475517,0.599767897
0.512500,-0.000420000,-0.056584518,0.034888271,-0.310851000,-0.056584518,0.110806780,8.755289493e-05,9.129796843e-05,1,1,0.301070545,-0.000000660,0.000001771,-0.801667444,0.497496404,0.587077534,0.000148287,0.000197177,-1.369475517,0.599767897
0.515000,-0.000420000,-0.056584518,0.034888271,-0.310851000,-0.056584518,0.110756600,8.755289493e-05,4.219958264e-05,1,1,0.301070545,-0.000000660,0.000001771,-0.801667444,0.497496404,0.587077534,0.000148287,0.000197177,-1.369475517,0.599767897
0.517500,-0.000420000,-0.056584518,0.034888271,-0.310851000,-0.056584518,0.110627402,8.755289493e-05,8.988905133e-05,1,1,0.301070545,-0.000000660,0.000001771,-0.801667444,0.497496404,0.587077534,0.000148287,0.000197177,-1.369475517,0.599767897
0.520000,-0.000420000,-0.056584518,0.034888271,-0.310851000,-0.056584518,0.110419042,8.755289493e-05,2.235563935e-05,1,1,0.301070545,-0.000000660,0.000001771,-0.801667444,0.497496404,0.586214314,0.000147867,0.000196974,-1.367783322,0.599778878
0.522500,-0.000420000,-0.056584518,0.034888271,-0.310851000,-0.056584518,0.110131540,8.755289493e-05,2.397565864e-05,1,1,0.301070545,-0.000000660,0.000001771,-0.801667444,0.497496404,0.585312521,0.000147406,0.000196741,-1.366032201,0.599773119
0.525000,-0.000420000,-0.056584518,0.034888271,-0.310851000,-0.056584518,0.109765074,8.755289493e-05,3.737234745e-05,1,1,0.301070545,-0.000000660,0.000001771,-0.801667444,0.497496404,0.584208483,0.000146785,0.000196379,-1.363875777,0.599682825
0.527500,-0.000420000,-0.056584518,0.034888271,-0.310851000,-0.056584518,0.109319987,8.755289493e-05,5.292340442e-05,1,1,0.301070545,-0.000000660,0.000001771,-0.801667444,0.497496404,0.582874112,0.000145985,0.000195871,-1.361255381,0.599496881
0.530000,-0.000420000,-0.056584518,0.034888271,-0.310851000,-0.056584518,0.108796784,8.755289493e-05,6.883101429e-05,1,1,0.301070545,-0.000000660,0.000001771,-0.801667444,0.497496404,0.581304695,0.000145001,0.000195213,-1.358161426,0.599213769
0.532500,-0.000420000,-0.056584518,0.034888271,-0.310851000,-0.056584518,0.108196133,8.755289493e-05,8.474157058e-05,1,1,0.301070545,-0.000000660,0.000001771,-0.801667444,0.497496404,0.579499735,0.000143836,0.000194403,-1.354593082,0.598833564
0.535000,-0.000420000,-0.056584518,0.034888271,-0.310851000,-0.056584518,0.107518869,8.755289493e-05,2.186509921e-05,1,1,0.301070545,-0.000000660,0.000001771,-0.801667444,0.497496404,0.577192237,0.000142368,0.000193393,-1.350049911,0.598426993
0.537500,-0.000420000,-0.056584518,0.034888271,-0.310851000,-0.056584518,0.106765989,8.755289493e-05,2.285884119e-05,1,1,0.301070545,-0.000000660,0.000001771,-0.801667444,0.497496404,0.574845479,0.000140861,0.000192326,-1.345425540,0.598000603
0.540000,-0.000420000,-0.056584518,0.034888271,-0.310851000,-0.056584518,0.105938654,8.755289493e-05,2.817378522e-05,1,1,0.301070545,-0.000000660,0.000001771,-0.801667444,0.497496404,0.572279856,0.000139182,0.000191100,-1.340359871,0.597480800
0.542500,-0.000420000,-0.056584518,0.034888271,-0.310851000,-0.056584518,0.105038190,8.755289493e-05,3.378662266e-05,1,1,0.301070545,-0.000000660,0.000001771,-0.801667444,0.497496404,0.569484014,0.000137327,0.000189706,-1.334830669,0.596863036
0.545000,-0.000420000,-0.056584518,0.034888271,-0.310851000,-0.056584518,0.104066082,8.755289493e-05,3.938001657e-05,1,1,0.301070545,-0.000000660,0.000001771,-0.801667444,0.497496404,0.566458773,0.000135298,0.000188145,-1.328839887,0.596147554
0.547500,-0.000420000,-0.056584518,0.034888271,-0.310851000,-0.056584518,0.103023980,8.755289493e-05,4.490974334e-05,1,1,0.301070545,-0.000000660,0.000001771,-0.801667444,0.497496404,0.563206107,0.000133102,0.000186414,-1.322391748,0.595334865
0.550000,-0.000420000,-0.056584518,0.034888271,-0.310851000,-0.056584518,0.101913691,8.755289493e-05,5.035613265e-05,1,1,0.301070545,-0.000000660,0.000001771,-0.801667444,0.497496404,0.559728370,0.000130743,0.000184514,-1.315491223,0.594425424
0.552500,-0.000420000,-0.056584518,0.034888271,-0.310851000,-0.056584518,0.100737180,8.755289493e-05,5.570393702e-05,1,1,0.301070545,-0.000000660,0.000001771,-0.801667444,0.497496404,0.556028254,0.000128229,0.000182446,-1.308143940,0.593419611
0.555000,-0.000420000,-0.056584518,0.034888271,-0.310851000,-0.056584518,0.099496568,8.755289493e-05,6.093975395e-05,1,1,0.301070545,-0.000000660,0.000001771,-0.801667444,0.497496404,0.552108790,0.000125567,0.000180210,-1.300356192,0.592317738
0.557500,-0.000420000,-0.056584518,0.034888271,-0.310851000,-0.056584518,0.098194129,8.755289493e-05,6.605126765e-05,1,1,0.301070545,-0.000000660,0.000001771,-0.801667444,0.497496404,0.547973362,0.000122764,0.000177807,-1.292134957,0.591120048
0.560000,-0.000420000,-0.056584518,0.034888271,-0.310851000,-0.056584518,0.096832288,8.755289493e-05,7.102688917e-05,1,1,0.301070545,-0.000000660,0.000001771,-0.801667444,0.497496404,0.543625714,0.000119829,0.000175238,-1.283487916,0.589826724
0.562500,-0.000420000,-0.056584518,0.034888271,-0.310851000,-0.056584518,0.095413616,8.755289493e-05,7.585555947e-05,1,1,0.301070545,-0.000000660,0.000001771,-0.801667444,0.497496404,0.539069963,0.000116770,0.000172505,-1.274423477,0.588437894
0.565000,-0.000420000,-0.056584518,0.034888271,-0.310851000,-0.056584518,0.093940830,8.755289493e-05,8.052663656e-05,1,1,0.301070545,-0.000000660,0.000001771,-0.801667444,0.497496404,0.534310613,0.000113596,0.000169610,-1.264950797,0.586953640
0.567500,-0.000420000,-0.056584518,0.034888271,-0.310851000,-0.056584518,0.092416786,8.755289493e-05,8.502982756e-05,1,1,0.301070545,-0.000000660,0.000001771,-0.801667444,0.497496404,0.529352569,0.000110316,0.000166555,-1.255079815,0.585374012
0.570000,-0.000420000,-0.056584518,0.034888271,-0.310851000,-0.056584518,0.090844476,8.755289493e-05,8.935514602e-05,1,1,0.301070545,-0.000000660,0.000001771,-0.801667444,0.497496404,0.524201150,0.000106941,0.000163344,-1.244821275,0.583699035
0.572500,-0.000420000,-0.056584518,0.034888271,-0.310851000,-0.056584518,0.089227029,8.755289493e-05,9.349288314e-05,1,1,0.301070545,-0.000000660,0.000001771,-0.801667444,0.497496404,0.518862111,0.000103481,0.000159978,-1.234186763,0.581928726
0.575000,-0.000420000,-0.056584518,0.034888271,-0.310851000,-0.056584518,0.087567697,8.755289493e-05,9.743358814e-05,1,1,0.301070545,-0.000000660,0.000001771,-0.801667444,0.497496404,0.513341656,0.000099947,0.000156463,-1.223188744,0.580063113
0.577500,-0.000420000,-0.056584518,0.034888271,-0.310851000,-0.056584518,0.085869860,8.755289493e-05,2.543988630e-05,1,1,0.301070545,-0.000000660,0.000001771,-0.801667444,0.497496404,0.507354300,0.000096122,0.000152560,-1.211299554,0.578207902
0.580000,-0.000420000,-0.056584518,0.034888271,-0.310851000,-0.056584518,0.084137016,8.755289493e-05,9.925840166e-05,1,1,0.301070545,-0.000000660,0.000001771,-0.801667444,0.497496404,0.501727713,0.000092620,0.000148901,-1.200086426,0.576255750
0.582500,-0.000420000,-0.056584518,0.034888271,-0.310851000,-0.056584518,0.082372776,8.755289493e-05,2.875986467e-05,1,1,0.301070545,-0.000000660,0.000001771,-0.801667444,0.497496404,0.495414474,0.000088701,0.000144706,-1.187543337,0.574209152
0.585000,-0.000420000,-0.056584518,0.034888271,-0.310851000,-0.056584518,0.080580864,8.755289493e-05,2.821024072e-05,1,1,0.301070545,-0.000000660,0.000001771,-0.801667444,0.497496404,0.489186189,0.000084897,0.000140518,-1.175168412,0.572176403
0.587500,-0.000420000,-0.056584518,0.034888271,-0.310851000,-0.056584518,0.078765106,8.755289493e-05,2.964862675e-05,1,1,0.301070545,-0.000000660,0.000001771,-0.801667444,0.497496404,0.482822969,0.000081078,0.000136208,-1.162521327,0.570047800
0.590000,-0.000420000,-0.056584518,0.034888271,-0.310851000,-0.056584518,0.076929426,8.755289493e-05,3.107243315e-05,1,1,0.301070545,-0.000000660,0.000001771,-0.801667444,0.497496404,0.476327294,0.000077252,0.000131778,-1.149607091,0.567820568
0.592500,-0.000420000,-0.056584518,0.034888271,-0.310851000,-0.056584518,0.075077844,8.755289493e-05,3.241844454e-05,1,1,0.301070545,-0.000000660,0.000001771,-0.801667444,0.497496404,0.469709017,0.000073430,0.000127238,-1.136445293,0.565495387
0.595000,-0.000420000,-0.056584518,0.034888271,-0.310851000,-0.056584518,0.073214466,8.755289493e-05,3.368124023e-05,1,1,0.301070545,-0.000000660,0.000001771,-0.801667444,0.497496404,0.462978876,0.000069624,0.000122596,-1.123057255,0.563073289
0.597500,-0.000420000,-0.056584518,0.034888271,-0.310851000,-0.056584518,0.071343483,8.755289493e-05,3.485716421e-05,1,1,0.301070545,-0.000000660,0.000001771,-0.801667444,0.497496404,0.456148334,0.000065844,0.000117862,-1.109465724,0.560555617
0.600000,-0.000420000,-0.056584518,0.034888271,-0.310851000,-0.056584518,0.069469159,8.755289493e-05,3.594259001e-05,1,1,0.301070545,-0.000000660,0.000001771,-0.801667444,0.497496404,0.449229611,0.000062103,0.000113046,-1.095694944,0.557944102
0.602500,-0.000420000,-0.056584518,0.034888271,-0.310851000,-0.056584518,0.067595835,8.755289493e-05,3.693381034e-05,1,1,0.301070545,-0.000000660,0.000001771,-0.801667444,0.497496404,0.442235729,0.000058410,0.000108158,-1.081770743,0.555240931
0.605000,-0.000420000,-0.056584518,0.034888271,-0.310851000,-0.056584518,0.065727914,8.755289493e-05,3.782697374e-05,1,1,0.301070545,-0.000000660,0.000001771,-0.801667444,0.497496404,0.435180557,0.000054777,0.000103211,-1.067720633,0.552448844
0.607500,-0.000420000,-0.056584518,0.034888271,-0.310851000,-0.056584518,0.063869862,8.755289493e-05,3.861802119e-05,1,1,0.301070545,-0.000000660,0.000001771,-0.801667444,0.497496404,0.428078856,0.000051212,0.000098215,-1.053573900,0.549571227
0.610000,-0.000420000,-0.056584518,0.034888271,-0.310851000,-0.056584518,0.062026201,8.755289493e-05,3.930261753e-05,1,1,0.301070545,-0.000000660,0.000001771,-0.801667444,0.497496404,0.420946326,0.000047725,0.000093185,-1.039361717,0.546612220
0.612500,-0.000420000,-0.056584518,0.034888271,-0.310851000,-0.056584518,0.060201502,8.755289493e-05,3.987607883e-05,1,1,0.301070545,-0.000000660,0.000001771,-0.801667444,0.497496404,0.413799661,0.000044325,0.000088132,-1.025117241,0.543576837
0.615000,-0.000420000,-0.056584518,0.034888271,-0.310851000,-0.056584518,0.058400385,8.755289493e-05,4.033329406e-05,1,1,0.301070545,-0.000000660,0.000001771,-0.801667444,0.497496404,0.406656591,0.000041021,0.000083072,-1.010875731,0.540471098
0.617500,-0.000420000,-0.056584518,0.034888271,-0.310851000,-0.056584518,0.056627512,8.755289493e-05,4.066864090e-05,1,1,0.301070545,-0.000000660,0.000001771,-0.801667444,0.497496404,0.399535939,0.000037821,0.000078018,-0.996674648,0.537302166
0.620000,-0.000420000,-0.056584518,0.034888271,-0.310851000,-0.056584518,0.054887586,8.755289493e-05,4.087589628e-05,1,1,0.301070545,-0.000000660,0.000001771,-0.801667444,0.497496404,0.392457662,0.000034732,0.000072987,-0.982553771,0.534078496
0.622500,-0.000420000,-0.056584518,0.034888271,-0.310851000,-0.056584518,0.053185345,8.755289493e-05,4.094814193e-05,1,1,0.301070545,-0.000000660,0.000001771,-0.801667444,0.497496404,0.385442906,0.000031760,0.000067994,-0.968555297,0.530809998
0.625000,-0.000420000,-0.056584518,0.034888271,-0.310851000,-0.056584518,0.051525564,8.755289493e-05,4.087766548e-05,1,1,0.301070545,-0.000000660,0.000001771,-0.801667444,0.497496404,0.378514041,0.000028911,0.000063055,-0.954723948,0.527508201
0.627500,-0.000420000,-0.056584518,0.034888271,-0.310851000,-0.056584518,0.049913054,8.755289493e-05,4.065585832e-05,1,1,0.301070545,-0.000000660,0.000001771,-0.801667444,0.497496404,0.371694710,0.000026191,0.000058190,-0.941107062,0.524186421
0.630000,-0.000420000,-0.056584518,0.034888271,-0.310851000,-0.056584518,0.048352661,8.755289493e-05,4.027311085e-05,1,1,0.301070545,-0.000000660,0.000001771,-0.801667444,0.497496404,0.365009855,0.000023605,0.000053414,-0.927754679,0.520859938
0.632500,-0.000420000,-0.056584518,0.034888271,-0.310851000,-0.056584518,0.046849274,8.755289493e-05,3.971870595e-05,1,1,0.301070545,-0.000000660,0.000001771,-0.801667444,0.497496404,0.358485753,0.000021157,0.000048749,-0.914719622,0.517546157
0.635000,-0.000420000,-0.056584518,0.034888271,-0.310851000,-0.056584518,0.045407827,8.755289493e-05,3.898070932e-05,1,1,0.301070545,-0.000000660,0.000001771,-0.801667444,0.497496404,0.352150038,0.000018850,0.000044212,-0.902057557,0.514264777
0.637500,-0.000420000,-0.056584518,0.034888271,-0.310851000,-0.056584518,0.044033313,8.755289493e-05,3.804585498e-05,1,1,0.301070545,-0.000000660,0.000001771,-0.801667444,0.497496404,0.346031723,0.000016687,0.000039824,-0.889827057,0.511037936
0.640000,-0.000420000,-0.056584518,0.034888271,-0.310851000,-0.056584518,0.042730795,8.755289493e-05,9.654921484e-05,1,1,0.301070545,-0.000000660,0.000001771,-0.801667444,0.497496404,0.340471381,0.000014821,0.000035915,-0.878675012,0.507857692
0.642500,-0.000420000,-0.056584518,0.034888271,-0.310851000,-0.056584518,0.041505435,8.755289493e-05,9.645978834e-05,1,1,0.301070545,-0.000000660,0.000001771,-0.801667444,0.497496404,0.334933472,0.000013009,0.000032028,-0.867565886,0.504621534
0.645000,-0.000420000,-0.056584518,0.034888271,-0.310851000,-0.056584518,0.040362517,8.755289493e-05,9.133596809e-05,1,1,0.301070545,-0.000000660,0.000001771,-0.801667444,0.497496404,0.329684188,0.000011334,0.000028333,-0.857036300,0.501522110
0.647500,-0.000420000,-0.056584518,0.034888271,-0.310851000,-0.056584518,0.039307503,8.755289493e-05,8.529013151e-05,1,1,0.301070545,-0.000000660,0.000001771,-0.801667444,0.497496404,0.324776600,0.000009804,0.000024864,-0.847193553,0.498604824
0.650000,-0.000420000,-0.056584518,0.034888271,-0.310851000,-0.056584518,0.038346096,8.755289493e-05,7.860671210e-05,1,1,0.301070545,-0.000000660,0.000001771,-0.801667444,0.497496404,0.320248552,0.000008422,0.000021646,-0.838114698,0.495905925
0.652500,-0.000420000,-0.056584518,0.034888271,-0.310851000,-0.056584518,0.037484348,8.755289493e-05,7.126537817e-05,1,1,0.301070545,-0.000000660,0.000001771,-0.801667444,0.497496404,0.316138526,0.000007189,0.000018705,-0.829878287,0.493463595
0.655000,-0.000420000,-0.056584518,0.034888271,-0.310851000,-0.056584518,0.036728827,8.755289493e-05,6.321015933e-05,1,1,0.301070545,-0.000000660,0.000001771,-0.801667444,0.497496404,0.312487388,0.000006108,0.000016068,-0.822567859,0.491319038
0.657500,-0.000420000,-0.056584518,0.034888271,-0.310851000,-0.056584518,0.036086895,8.755289493e-05,5.436188242e-05,1,1,0.301070545,-0.000000660,0.000001771,-0.801667444,0.497496404,0.309339482,0.000005182,0.000013762,-0.816274138,0.489517073
0.660000,-0.000420000,-0.056584518,0.034888271,-0.310851000,-0.056584518,0.035567232,8.755289493e-05,4.460071864e-05,1,1,0.301070545,-0.000000660,0.000001771,-0.801667444,0.497496404,0.306744654,0.000004416,0.000011821,-0.811099141,0.488107383
0.662500,-0.000420000,-0.056584518,0.034888271,-0.310851000,-0.056584518,0.035180945,8.755289493e-05,7.904487695e-05,1,1,0.301070545,-0.000000660,0.000001771,-0.801667444,0.497496404,0.305015822,0.000003918,0.000010532,-0.807646923,0.487146524
0.665000,-0.000420000,-0.056584518,0.034888271,-0.310851000,-0.056584518,0.034944752,8.755289493e-05,5.797807309e-05,1,1,0.301070545,-0.000000660,0.000001771,-0.801667444,0.497496404,0.303727605,0.000003530,0.000009531,-0.805090408,0.486521386
0.667500,-0.000420000,-0.056584518,0.034904553,-0.310851000,-0.056584518,0.034888271,7.127290405e-05,4.909399474e-05,1,1,0.301070545,-0.000000660,0.000001771,-0.801667444,0.497496404,0.303381088,0.000003410,0.000009224,-0.804416936,0.486441932
0.670000,-0.000420000,-0.056584518,0.035086382,-0.310851000,-0.056584518,0.034888271,4.751164800e-05,4.909399474e-05,1,1,0.301357743,-0.000000713,0.000001946,-0.802262243,0.497773361,0.303381088,0.000003410,0.000009224,-0.804416936,0.486441932
0.672500,-0.000420000,-0.056584518,0.035432433,-0.310851000,-0.056584518,0.034888271,7.265364827e-05,4.909399474e-05,1,1,0.302849203,-0.000001048,0.000002884,-0.805315762,0.499074125,0.303381088,0.000003410,0.000009224,-0.804416936,0.486441932
0.675000,-0.000420000,-0.056584518,0.035925210,-0.310851000,-0.056584518,0.034888271,4.530835351e-05,4.909399474e-05,1,1,0.305262709,-0.000001618,0.000004398,-0.810247572,0.501153670,0.303381088,0.000003410,0.000009224,-0.804416936,0.486441932
0.677500,-0.000420000,-0.056584518,0.036555141,-0.310851000,-0.056584518,0.034888271,5.432653589e-05,4.909399474e-05,1,1,0.308132545,-0.000002307,0.000006208,-0.816107819,0.503583438,0.303381088,0.000003410,0.000009224,-0.804416936,0.486441932
0.680000,-0.000420000,-0.056584518,0.037315549,-0.310851000,-0.056584518,0.034888271,6.567055360e-05,4.909399474e-05,1,1,0.311577025,-0.000003153,0.000008389,-0.823136269,0.506448868,0.303381088,0.000003410,0.000009224,-0.804416936,0.486441932
0.682500,-0.000420000,-0.056584518,0.038201174,-0.310851000,-0.056584518,0.034888271,7.677010769e-05,4.909399474e-05,1,1,0.315571879,-0.000004159,0.000010925,-0.831282530,0.509717292,0.303381088,0.000003410,0.000009224,-0.804416936,0.486441932
0.685000,-0.000420000,-0.056584518,0.039207545,-0.310851000,-0.056584518,0.034888271,8.747303051e-05,4.909399474e-05,1,1,0.320084284,-0.000005327,0.000013795,-0.840478937,0.513348254,0.303381088,0.000003410,0.000009224,-0.804416936,0.486441932
0.687500,-0.000420000,-0.056584518,0.040330644,-0.310851000,-0.056584518,0.034888271,9.779318529e-05,4.909399474e-05,1,1,0.325082255,-0.000006659,0.000016978,-0.850659535,0.517301576,0.303381088,0.000003410,0.000009224,-0.804416936,0.486441932
0.690000,-0.000420000,-0.056584518,0.041566719,-0.310851000,-0.056584518,0.034888271,4.939900306e-05,4.909399474e-05,1,1,0.330791970,-0.000008239,0.000020609,-0.862282508,0.521750348,0.303381088,0.000003410,0.000009224,-0.804416936,0.486441932
0.692500,-0.000420000,-0.056584518,0.042912165,-0.310851000,-0.056584518,0.034888271,5.216642732e-05,4.909399474e-05,1,1,0.336694071,-0.000009917,0.000024372,-0.874293561,0.526257886,0.303381088,0.000003410,0.000009224,-0.804416936,0.486441932
0.695000,-0.000420000,-0.056584518,0.044363444,-0.310851000,-0.056584518,0.034888271,5.646167650e-05,4.909399474e-05,1,1,0.342983144,-0.000011766,0.000028387,-0.887084883,0.530959418,0.303381088,0.000003410,0.000009224,-0.804416936,0.486441932
0.697500,-0.000420000,-0.056584518,0.045917034,-0.310851000,-0.056584518,0.034888271,6.067389196e-05,4.909399474e-05,1,1,0.349637564,-0.000013792,0.000032643,-0.900611416,0.535824151,0.303381088,0.000003410,0.000009224,-0.804416936,0.486441932
0.700000,-0.000420000,-0.056584518,0.047569390,-0.310851000,-0.056584518,0.034888271,6.474702339e-05,4.909399474e-05,1,1,0.356629286,-0.000016000,0.000037121,-0.914815330,0.540817624,0.303381088,0.000003410,0.000009224,-0.804416936,0.486441932
0.702500,-0.000420000,-0.056584518,0.049316917,-0.310851000,-0.056584518,0.034888271,6.867535205e-05,4.909399474e-05,1,1,0.363930659,-0.000018392,0.000041804,-0.929639693,0.545907036,0.303381088,0.000003410,0.000009224,-0.804416936,0.486441932
0.705000,-0.000420000,-0.056584518,0.051155954,-0.310851000,-0.056584518,0.034888271,7.245516499e-05,4.909399474e-05,1,1,0.371514685,-0.000020971,0.000046676,-0.945028995,0.551061569,0.303381088,0.000003410,0.000009224,-0.804416936,0.486441932
0.707500,-0.000420000,-0.056584518,0.053082758,-0.310851000,-0.056584518,0.034888271,7.608324056e-05,4.909399474e-05,1,1,0.379355071,-0.000023740,0.000051721,-0.960929255,0.556252499,0.303381088,0.000003410,0.000009224,-0.804416936,0.486441932
0.710000,-0.000420000,-0.056584518,0.055093496,-0.310851000,-0.056584518,0.034888271,7.955679227e-05,4.909399474e-05,1,1,0.387426272,-0.000026702,0.000056924,-0.977288104,0.561453266,0.303381088,0.000003410,0.000009224,-0.804416936,0.486441932
0.712500,-0.000420000,-0.056584518,0.057184237,-0.310851000,-0.056584518,0.034888271,8.287343681e-05,4.909399474e-05,1,1,0.395703522,-0.000029859,0.000062268,-0.994054847,0.566639498,0.303381088,0.000003410,0.000009224,-0.804416936,0.486441932
0.715000,-0.000420000,-0.056584518,0.059350951,-0.310851000,-0.056584518,0.034888271,8.603115300e-05,4.909399474e-05,1,1,0.404162855,-0.000033211,0.000067741,-1.011180506,0.571789002,0.303381088,0.000003410,0.000009224,-0.804416936,0.486441932
0.717500,-0.000420000,-0.056584518,0.061589508,-0.310851000,-0.056584518,0.034888271,8.902823765e-05,4.909399474e-05,1,1,0.412781127,-0.000036759,0.000073328,-1.028617848,0.576881722,0.303381088,0.000003410,0.000009224,-0.804416936,0.486441932
0.720000,-0.000420000,-0.056584518,0.063895672,-0.310851000,-0.056584518,0.034888271,9.186326259e-05,4.909399474e-05,1,1,0.421536014,-0.000040505,0.000079015,-1.046321389,0.581899680,0.303381088,0.000003410,0.000009224,-0.804416936,0.486441932
0.722500,-0.000420000,-0.056584518,0.066265110,-0.310851000,-0.056584518,0.034888271,9.453503554e-05,4.909399474e-05,1,1,0.430406018,-0.000044449,0.000084790,-1.064247386,0.586826887,0.303381088,0.000003410,0.000009224,-0.804416936,0.486441932
0.725000,-0.000420000,-0.056584518,0.068693389,-0.310851000,-0.056584518,0.034888271,9.704256658e-05,4.909399474e-05,1,1,0.439370455,-0.000048588,0.000090641,-1.082353813,0.591649246,0.303381088,0.000003410,0.000009224,-0.804416936,0.486441932
0.727500,-0.000420000,-0.056584518,0.071175980,-0.310851000,-0.056584518,0.034888271,9.938504032e-05,4.909399474e-05,1,1,0.448409443,-0.000052922,0.000096556,-1.100600324,0.596354451,0.303381088,0.000003410,0.000009224,-0.804416936,0.486441932
0.730000,-0.000420000,-0.056584518,0.073708265,-0.310851000,-0.056584518,0.034888271,5.845429017e-05,4.909399474e-05,1,1,0.457896960,-0.000057689,0.000102834,-1.119505388,0.599689979,0.303381088,0.000003410,0.000009224,-0.804416936,0.486441932
0.732500,-0.000420000,-0.056584518,0.076285538,-0.310851000,-0.056584518,0.034888271,6.051280152e-05,4.909399474e-05,1,1,0.467812463,-0.000062852,0.000109408,-1.138694045,0.599769954,0.303381088,0.000003410,0.000009224,-0.804416936,0.486441932
0.735000,-0.000420000,-0.056584518,0.078903013,-0.310851000,-0.056584518,0.034888271,6.174256011e-05,4.909399474e-05,1,1,0.477713854,-0.000068218,0.000115994,-1.157848881,0.599828905,0.303381088,0.000003410,0.000009224,-0.804416936,0.486441932
0.737500,-0.000420000,-0.056584518,0.081555831,-0.310851000,-0.056584518,0.034888271,6.286125958e-05,4.909399474e-05,1,1,0.487576945,-0.000073777,0.000122578,-1.176931641,0.599882490,0.303381088,0.000003410,0.000009224,-0.804416936,0.486441932
0.740000,-0.000420000,-0.056584518,0.084239061,-0.310851000,-0.056584518,0.034888271,6.389314205e-05,4.909399474e-05,1,1,0.497386349,-0.000079524,0.000129152,-1.195912707,0.599931424,0.303381088,0.000003410,0.000009224,-0.804416936,0.486441932
0.742500,-0.000420000,-0.056584518,0.086947713,-0.310851000,-0.056584518,0.034888271,6.484001746e-05,4.909399474e-05,1,1,0.507127656,-0.000085453,0.000135707,-1.214764121,0.599975986,0.303381088,0.000003410,0.000009224,-0.804416936,0.486441932
0.745000,-0.000420000,-0.056584518,0.089676743,-0.310851000,-0.056584518,0.034888271,6.614698041e-05,4.909399474e-05,1,1,0.516787151,-0.000091558,0.000142235,-1.233459256,0.600000000,0.303381088,0.000003410,0.000009224,-0.804416936,0.486441932
0.747500,-0.000420000,-0.056584518,0.092421058,-0.310851000,-0.056584518,0.034888271,6.877647058e-05,4.909399474e-05,1,1,0.526401143,-0.000097861,0.000148759,-1.252015518,0.599679000,0.303381088,0.000003410,0.000009224,-0.804416936,0.486441932
0.750000,-0.000420000,-0.056584518,0.095175529,-0.310851000,-0.056584518,0.034888271,7.114021880e-05,4.909399474e-05,1,1,0.535848442,-0.000104289,0.000155205,-1.270313028,0.599711684,0.303381088,0.000003410,0.000009224,-0.804416936,0.486441932
0.752500,-0.000420000,-0.056584518,0.097934994,-0.310851000,-0.056584518,0.034888271,7.169556485e-05,4.909399474e-05,1,1,0.545187446,-0.000110874,0.000161609,-1.288391442,0.599733185,0.303381088,0.000003410,0.000009224,-0.804416936,0.486441932
0.755000,-0.000420000,-0.056584518,0.100694272,-0.310851000,-0.056584518,0.034888271,7.213652596e-05,4.909399474e-05,1,1,0.554395678,-0.000117602,0.000167957,-1.306218346,0.599752564,0.303381088,0.000003410,0.000009224,-0.804416936,0.486441932
0.757500,-0.000420000,-0.056584518,0.103448166,-0.310851000,-0.056584518,0.034888271,7.249725630e-05,4.909399474e-05,1,1,0.563461958,-0.000124461,0.000174243,-1.323772177,0.599770110,0.303381088,0.000003410,0.000009224,-0.804416936,0.486441932
0.760000,-0.000420000,-0.056584518,0.106191475,-0.310851000,-0.056584518,0.034888271,7.277986162e-05,4.909399474e-05,1,1,0.572375736,-0.000131439,0.000180460,-1.341032380,0.599785947,0.303381088,0.000003410,0.000009224,-0.804416936,0.486441932
0.762500,-0.000420000,-0.056584518,0.108919002,-0.310851000,-0.056584518,0.034888271,7.298578189e-05,4.909399474e-05,1,1,0.581126865,-0.000138526,0.000186602,-1.357979181,0.599800190,0.303381088,0.000003410,0.000009224,-0.804416936,0.486441932
0.765000,-0.000420000,-0.056584518,0.111625563,-0.310851000,-0.056584518,0.034888271,7.311638687e-05,4.909399474e-05,1,1,0.589705573,-0.000145709,0.000192662,-1.374593527,0.599812951,0.303381088,0.000003410,0.000009224,-0.804416936,0.486441932
0.767500,-0.000420000,-0.056584518,0.114305998,-0.310851000,-0.056584518,0.034888271,7.317299899e-05,4.909399474e-05,1,1,0.598102442,-0.000152973,0.000198636,-1.390857051,0.599824332,0.303381088,0.000003410,0.000009224,-0.804416936,0.486441932
0.770000,-0.000420000,-0.056584518,0.116955177,-0.310851000,-0.056584518,0.034888271,7.315690513e-05,4.909399474e-05,1,1,0.606308389,-0.000160305,0.000204517,-1.406752031,0.599834435,0.303381088,0.000003410,0.000009224,-0.804416936,0.486441932
0.772500,-0.000420000,-0.056584518,0.119568012,-0.310851000,-0.056584518,0.034888271,7.306936696e-05,4.909399474e-05,1,1,0.614314645,-0.000167689,0.000210300,-1.422261363,0.599843354,0.303381088,0.000003410,0.000009224,-0.804416936,0.486441932
0.775000,-0.000420000,-0.056584518,0.122139465,-0.310851000,-0.056584518,0.034888271,7.291163028e-05,4.909399474e-05,1,1,0.622112749,-0.000175111,0.000215979,-1.437368528,0.599851177,0.303381088,0.000003410,0.000009224,-0.804416936,0.486441932
0.777500,-0.000420000,-0.056584518,0.124664557,-0.310851000,-0.056584518,0.034888271,7.268493368e-05,4.909399474e-05,1,1,0.629694526,-0.000182553,0.000221550,-1.452057576,0.599857989,0.303381088,0.000003410,0.000009224,-0.804416936,0.486441932
0.780000,-0.000420000,-0.056584518,0.127138379,-0.310851000,-0.056584518,0.034888271,7.239051628e-05,4.909399474e-05,1,1,0.637052086,-0.000189998,0.000227006,-1.466313103,0.599863868,0.303381088,0.000003410,0.000009224,-0.804416936,0.486441932
0.782500,-0.000420000,-0.056584518,0.129556100,-0.310851000,-0.056584518,0.034888271,7.202962459e-05,4.909399474e-05,1,1,0.644177808,-0.000197428,0.000232344,-1.480120232,0.599868889,0.303381088,0.000003410,0.000009224,-0.804416936,0.486441932
0.785000,-0.000420000,-0.056584518,0.131912975,-0.310851000,-0.056584518,0.034888271,7.160351864e-05,4.909399474e-05,1,1,0.651064337,-0.000204826,0.000237558,-1.493464606,0.599873120,0.303381088,0.000003410,0.000009224,-0.804416936,0.486441932
0.787500,-0.000420000,-0.056584518,0.134204359,-0.310851000,-0.056584518,0.034888271,7.111347765e-05,4.909399474e-05,1,1,0.657704578,-0.000212172,0.000242644,-1.506332373,0.599876625,0.303381088,0.000003410,0.000009224,-0.804416936,0.486441932
0.790000,-0.000420000,-0.056584518,0.136425709,-0.310851000,-0.056584518,0.034888271,7.056080472e-05,4.909399474e-05,1,1,0.664091690,-0.000219447,0.000247598,-1.518710180,0.599879464,0.303381088,0.000003410,0.000009224,-0.804416936,0.486441932
0.792500,-0.000420000,-0.056584518,0.138572598,-0.310851000,-0.056584518,0.034888271,6.994683120e-05,4.909399474e-05,1,1,0.670219086,-0.000226631,0.000252415,-1.530585166,0.599881692,0.303381088,0.000003410,0.000009224,-0.804416936,0.486441932
0.795000,-0.000420000,-0.056584518,0.140640722,-0.310851000,-0.056584518,0.034888271,6.927292016e-05,4.909399474e-05,1,1,0.676080425,-0.000233704,0.000257092,-1.541944957,0.599883360,0.303381088,0.000003410,0.000009224,-0.804416936,0.486441932
0.797500,-0.000420000,-0.056584518,0.142625911,-0.310851000,-0.056584518,0.034888271,6.854046971e-05,4.909399474e-05,1,1,0.681669617,-0.000240646,0.000261624,-1.552777665,0.599884514,0.303381088,0.000003410,0.000009224,-0.804416936,0.486441932
0.800000,-0.000420000,-0.056584518,0.144524132,-0.310851000,-0.056584518,0.034888271,6.775091530e-05,4.909399474e-05,1,1,0.686980819,-0.000247435,0.000266007,-1.563071890,0.599885198,0.303381088,0.000003410,0.000009224,-0.804416936,0.486441932
0.802500,-0.000420000,-0.056584518,0.146331504,-0.310851000,-0.056584518,0.034888271,6.690573194e-05,4.909399474e-05,1,1,0.692008437,-0.000254051,0.000270238,-1.572816712,0.599885448,0.303381088,0.000003410,0.000009224,-0.804416936,0.486441932
0.805000,-0.000420000,-0.056584518,0.148044299,-0.310851000,-0.056584518,0.034888271,9.904778138e-05,4.909399474e-05,1,1,0.696680596,-0.000260071,0.000273936,-1.581855881,0.599577340,0.303381088,0.000003410,0.000009224,-0.804416936,0.486441932
0.807500,-0.000420000,-0.056584518,0.149658957,-0.310851000,-0.056584518,0.034888271,9.676674802e-05,4.909399474e-05,1,1,0.701130888,-0.000265958,0.000277519,-1.590477833,0.599576425,0.303381088,0.000003410,0.000009224,-0.804416936,0.486441932
0.810000,-0.000420000,-0.056584518,0.151172088,-0.310851000,-0.056584518,0.034888271,9.390726748e-05,4.909399474e-05,1,1,0.705282881,-0.000271618,0.000280952,-1.598524049,0.599575160,0.303381088,0.000003410,0.000009224,-0.804416936,0.486441932
0.812500,-0.000420000,-0.056584518,0.152580482,-0.310851000,-0.056584518,0.034888271,9.094012832e-05,4.909399474e-05,1,1,0.709131475,-0.000277031,0.000284231,-1.605982305,0.599573795,0.303381088,0.000003410,0.000009224,-0.804416936,0.486441932
0.815000,-0.000420000,-0.056584518,0.153881115,-0.310851000,-0.056584518,0.034888271,8.788419060e-05,4.909399474e-05,1,1,0.712672312,-0.000282178,0.000287355,-1.612844054,0.599572342,0.303381088,0.000003410,0.000009224,-0.804416936,0.486441932
0.817500,-0.000420000,-0.056584518,0.155071157,-0.310851000,-0.056584518,0.034888271,8.474464408e-05,4.909399474e-05,1,1,0.715901314,-0.000287041,0.000290319,-1.619101348,0.599570807,0.303381088,0.000003410,0.000009224,-0.804416936,0.486441932
0.820000,-0.000420000,-0.056584518,0.156147976,-0.310851000,-0.056584518,0.034888271,8.152644166e-05,4.909399474e-05,1,1,0.718814668,-0.000291602,0.000293120,-1.624746750,0.599569195,0.303381088,0.000003410,0.000009224,-0.804416936,0.486441932
0.822500,-0.000420000,-0.056584518,0.157109146,-0.310851000,-0.056584518,0.034888271,7.823471816e-05,4.909399474e-05,1,1,0.721408823,-0.000295843,0.000295756,-1.629773342,0.599567507,0.303381088,0.000003410,0.000009224,-0.804416936,0.486441932
0.825000,-0.000420000,-0.056584518,0.157952454,-0.310851000,-0.056584518,0.034888271,7.734228244e-05,4.909399474e-05,1,1,0.723600166,-0.000299663,0.000298185,-1.634137199,0.600000000,0.303381088,0.000003410,0.000009224,-0.804416936,0.486441932
0.827500,-0.000420000,-0.056584518,0.158675902,-0.310851000,-0.056584518,0.034888271,6.815121432e-05,4.909399474e-05,1,1,0.725595451,-0.000303269,0.000300504,-1.637930635,0.599902522,0.303381088,0.000003410,0.000009224,-0.804416936,0.486441932
0.830000,-0.000420000,-0.056584518,0.159277713,-0.310851000,-0.056584518,0.034888271,8.996952857e-05,4.909399474e-05,1,1,0.727130223,-0.000306014,0.000302243,-1.640927838,0.599959310,0.303381088,0.000003410,0.000009224,-0.804416936,0.486441932
0.832500,-0.000420000,-0.056584518,0.159756339,-0.310851000,-0.056584518,0.034888271,8.343988097e-05,4.909399474e-05,1,1,0.728426210,-0.000308496,0.000303858,-1.643438097,0.599943327,0.303381088,0.000003410,0.000009224,-0.804416936,0.486441932
0.835000,-0.000420000,-0.056584518,0.160110459,-0.310851000,-0.056584518,0.034888271,7.462333927e-05,4.909399474e-05,1,1,0.729397908,-0.000310613,0.000305312,-1.645314582,0.599921025,0.303381088,0.000003410,0.000009224,-0.804416936,0.486441932
0.837500,-0.000420000,-0.056584518,0.160338991,-0.310851000,-0.056584518,0.034888271,9.505881542e-05,4.909399474e-05,1,1,0.729983112,-0.000311945,0.000306244,-1.646419900,0.599578969,0.303381088,0.000003410,0.000009224,-0.804416936,0.486441932
0.840000,-0.000420000,-0.056584518,0.160441087,-0.310851000,-0.056584518,0.034888271,7.631819728e-05,4.909399474e-05,1,1,0.730247472,-0.000312917,0.000307021,-1.647015599,0.600000000,0.303381088,0.000003410,0.000009224,-0.804416936,0.486441932
0.842500,-0.000420000,-0.056584518,0.160416141,-0.310851000,-0.056584518,0.034888271,5.369770369e-05,4.909399474e-05,1,1,0.730247472,-0.000312917,0.000307021,-1.647015599,0.600000000,0.303381088,0.000003410,0.000009224,-0.804416936,0.486441932
0.845000,-0.000420000,-0.056584518,0.160263793,-0.310851000,-0.056584518,0.034888271,3.220435856e-05,4.909399474e-05,1,1,0.730072479,-0.000313057,0.000307269,-1.646577366,0.599520587,0.303381088,0.000003410,0.000009224,-0.804416936,0.486441932
0.847500,-0.000420000,-0.056584518,0.159983926,-0.310851000,-0.056584518,0.034888271,9.567159240e-05,4.909399474e-05,1,1,0.729545740,-0.000312801,0.000307353,-1.645537404,0.599670529,0.303381088,0.000003410,0.000009224,-0.804416936,0.486441932
0.850000,-0.000420000,-0.056584518,0.159576672,-0.310851000,-0.056584518,0.034888271,4.821511005e-05,4.909399474e-05,1,1,0.728313985,-0.000312068,0.000307429,-1.643175688,0.599918859,0.303381088,0.000003410,0.000009224,-0.804416936,0.486441932
0.852500,-0.000420000,-0.056584518,0.159042411,-0.310851000,-0.056584518,0.034888271,6.106671713e-05,4.909399474e-05,1,1,0.726899052,-0.000311107,0.000307399,-1.640469407,0.600000000,0.303381088,0.000003410,0.000009224,-0.804416936,0.486441932
0.855000,-0.000420000,-0.056584518,0.158381775,-0.310851000,-0.056584518,0.034888271,8.368969219e-05,4.909399474e-05,1,1,0.725262673,-0.000309876,0.000307244,-1.637199355,0.599539070,0.303381088,0.000003410,0.000009224,-0.804416936,0.486441932
0.857500,-0.000420000,-0.056584518,0.157595644,-0.310851000,-0.056584518,0.034888271,2.112259709e-05,4.909399474e-05,1,1,0.722967842,-0.000308158,0.000307030,-1.632774613,0.599774494,0.303381088,0.000003410,0.000009224,-0.804416936,0.486441932
0.860000,-0.000420000,-0.056584518,0.156685149,-0.310851000,-0.056584518,0.034888271,2.473897248e-05,4.909399474e-05,1,1,0.720510461,-0.000306214,0.000306680,-1.628047301,0.599950868,0.303381088,0.000003410,0.000009224,-0.804416936,0.486441932
0.862500,-0.000420000,-0.056584518,0.155651672,-0.310851000,-0.056584518,0.034888271,3.307227198e-05,4.909399474e-05,1,1,0.717742697,-0.000303881,0.000306127,-1.622696432,0.600000000,0.303381088,0.000003410,0.000009224,-0.804416936,0.486441932
0.865000,-0.000420000,-0.056584518,0.154496842,-0.310851000,-0.056584518,0.034888271,4.173712052e-05,4.909399474e-05,1,1,0.714716768,-0.000301217,0.000305389,-1.616732656,0.599525275,0.303381088,0.000003410,0.000009224,-0.804416936,0.486441932
0.867500,-0.000420000,-0.056584518,0.153222537,-0.310851000,-0.056584518,0.034888271,5.043163886e-05,4.909399474e-05,1,1,0.711317228,-0.000298102,0.000304408,-1.610101903,0.599402363,0.303381088,0.000003410,0.000009224,-0.804416936,0.486441932
0.870000,-0.000420000,-0.056584518,0.151830880,-0.310851000,-0.056584518,0.034888271,5.916403018e-05,4.909399474e-05,1,1,0.707592729,-0.000294595,0.000303200,-1.602830230,0.599173802,0.303381088,0.000003410,0.000009224,-0.804416936,0.486441932
0.872500,-0.000420000,-0.056584518,0.150324238,-0.310851000,-0.056584518,0.034888271,6.779249081e-05,4.909399474e-05,1,1,0.703552910,-0.000290712,0.000301764,-1.594926182,0.598841918,0.303381088,0.000003410,0.000009224,-0.804416936,0.486441932
0.875000,-0.000420000,-0.056584518,0.148705219,-0.310851000,-0.056584518,0.034888271,7.629813910e-05,4.909399474e-05,1,1,0.699200772,-0.000286462,0.000300096,-1.586395477,0.598407562,0.303381088,0.000003410,0.000009224,-0.804416936,0.486441932
0.877500,-0.000420000,-0.056584518,0.146976668,-0.310851000,-0.056584518,0.034888271,8.465772435e-05,4.909399474e-05,1,1,0.694539207,-0.000281859,0.000298192,-1.577244269,0.597871355,0.303381088,0.000003410,0.000009224,-0.804416936,0.486441932
0.880000,-0.000420000,-0.056584518,0.145141666,-0.310851000,-0.056584518,0.034888271,9.285019636e-05,4.909399474e-05,1,1,0.689571427,-0.000276914,0.000296047,-1.567479388,0.597233760,0.303381088,0.000003410,0.000009224,-0.804416936,0.486441932
0.882500,-0.000420000,-0.056584518,0.143203521,-0.310851000,-0.056584518,0.034888271,1.873275079e-05,4.909399474e-05,1,1,0.684029086,-0.000271402,0.000293576,-1.556634366,0.596721736,0.303381088,0.000003410,0.000009224,-0.804416936,0.486441932
0.885000,-0.000420000,-0.056584518,0.141165770,-0.310851000,-0.056584518,0.034888271,1.962001047e-05,4.909399474e-05,1,1,0.678395322,-0.000265773,0.000290926,-1.545600877,0.596166516,0.303381088,0.000003410,0.000009224,-0.804416936,0.486441932
0.887500,-0.000420000,-0.056584518,0.139032169,-0.310851000,-0.056584518,0.034888271,2.243241290e-05,4.909399474e-05,1,1,0.672474214,-0.000259834,0.000288001,-1.533989938,0.595504979,0.303381088,0.000003410,0.000009224,-0.804416936,0.486441932
0.890000,-0.000420000,-0.056584518,0.136806691,-0.310851000,-0.056584518,0.034888271,2.530798728e-05,4.909399474e-05,1,1,0.666264621,-0.000253597,0.000284800,-1.521799949,0.594735778,0.303381088,0.000003410,0.000009224,-0.804416936,0.486441932
0.892500,-0.000420000,-0.056584518,0.134493519,-0.310851000,-0.056584518,0.034888271,2.816080855e-05,4.909399474e-05,1,1,0.659771385,-0.000247084,0.000281320,-1.509041006,0.593859138,0.303381088,0.000003410,0.000009224,-0.804416936,0.486441932
0.895000,-0.000420000,-0.056584518,0.132097039,-0.310851000,-0.056584518,0.034888271,3.096679564e-05,4.909399474e-05,1,1,0.652999924,-0.000240315,0.000277561,-1.495724298,0.592875118,0.303381088,0.000003410,0.000009224,-0.804416936,0.486441932
0.897500,-0.000420000,-0.056584518,0.129621838,-0.310851000,-0.056584518,0.034888271,3.370978730e-05,4.909399474e-05,1,1,0.645956091,-0.000233312,0.000273526,-1.481861841,0.591783573,0.303381088,0.000003410,0.000009224,-0.804416936,0.486441932
0.900000,-0.000420000,-0.056584518,0.127072692,-0.310851000,-0.056584518,0.034888271,3.637759748e-05,4.909399474e-05,1,1,0.638646184,-0.000226100,0.000269214,-1.467466490,0.590584147,0.303381088,0.000003410,0.000009224,-0.804416936,0.486441932
0.902500,-0.000420000,-0.056584518,0.124454561,-0.310851000,-0.056584518,0.034888271,3.896056746e-05,4.909399474e-05,1,1,0.631076966,-0.000218701,0.000264628,-1.452551976,0.589276284,0.303381088,0.000003410,0.000009224,-0.804416936,0.486441932
0.905000,-0.000420000,-0.056584518,0.121772583,-0.310851000,-0.056584518,0.034888271,4.145074247e-05,4.909399474e-05,1,1,0.623255683,-0.000211139,0.000259772,-1.437132948,0.587859235,0.303381088,0.000003410,0.000009224,-0.804416936,0.486441932
0.907500,-0.000420000,-0.056584518,0.119032067,-0.310851000,-0.056584518,0.034888271,4.384137280e-05,4.909399474e-05,1,1,0.615190091,-0.000203441,0.000254651,-1.421225010,0.586332068,0.303381088,0.000003410,0.000009224,-0.804416936,0.486441932
0.910000,-0.000420000,-0.056584518,0.116238483,-0.310851000,-0.056584518,0.034888271,4.612659807e-05,4.909399474e-05,1,1,0.606888476,-0.000195630,0.000249269,-1.404844779,0.584693682,0.303381088,0.000003410,0.000009224,-0.804416936,0.486441932
0.912500,-0.000420000,-0.056584518,0.113397452,-0.310851000,-0.056584518,0.034888271,4.830124050e-05,4.909399474e-05,1,1,0.598359688,-0.000187733,0.000243633,-1.388009939,0.582942821,0.303381088,0.000003410,0.000009224,-0.804416936,0.486441932
0.915000,-0.000420000,-0.056584518,0.110514745,-0.310851000,-0.056584518,0.034888271,5.036066245e-05,4.909399474e-05,1,1,0.589613175,-0.000179775,0.000237751,-1.370739305,0.581078101,0.303381088,0.000003410,0.000009224,-0.804416936,0.486441932
0.917500,-0.000420000,-0.056584518,0.107596266,-0.310851000,-0.056584518,0.034888271,5.230066478e-05,4.909399474e-05,1,1,0.580659016,-0.000171781,0.000231632,-1.353052902,0.579098033,0.303381088,0.000003410,0.000009224,-0.804416936,0.486441932
0.920000,-0.000420000,-0.056584518,0.104648050,-0.310851000,-0.056584518,0.034888271,5.411740851e-05,4.909399474e-05,1,1,0.571507965,-0.000163777,0.000225284,-1.334972044,0.577001057,0.303381088,0.000003410,0.000009224,-0.804416936,0.486441932
0.922500,-0.000420000,-0.056584518,0.101676252,-0.310851000,-0.056584518,0.034888271,5.580735024e-05,4.909399474e-05,1,1,0.562171500,-0.000155787,0.000218720,-1.316519430,0.574785580,0.303381088,0.000003410,0.000009224,-0.804416936,0.486441932
0.925000,-0.000420000,-0.056584518,0.098687135,-0.310851000,-0.056584518,0.034888271,5.736718582e-05,4.909399474e-05,1,1,0.552661871,-0.000147837,0.000211951,-1.297719251,0.572450027,0.303381088,0.000003410,0.000009224,-0.804416936,0.486441932
0.927500,-0.000420000,-0.056584518,0.095687066,-0.310851000,-0.056584518,0.034888271,5.879379497e-05,4.909399474e-05,1,1,0.542992163,-0.000139949,0.000204989,-1.278597304,0.569992896,0.303381088,0.000003410,0.000009224,-0.804416936,0.486441932
0.930000,-0.000420000,-0.056584518,0.092682507,-0.310851000,-0.056584518,0.034888271,6.008418478e-05,4.909399474e-05,1,1,0.533176359,-0.000132149,0.000197851,-1.259181127,0.567412830,0.303381088,0.000003410,0.000009224,-0.804416936,0.486441932
0.932500,-0.000420000,-0.056584518,0.089680001,-0.310851000,-0.056584518,0.034888271,6.123543059e-05,4.909399474e-05,1,1,0.523229409,-0.000124457,0.000190550,-1.239500145,0.564708695,0.303381088,0.000003410,0.000009224,-0.804416936,0.486441932
0.935000,-0.000420000,-0.056584518,0.086686169,-0.310851000,-0.056584518,0.034888271,6.224460679e-05,4.909399474e-05,1,1,0.513167315,-0.000116895,0.000183103,-1.219585830,0.561879676,0.303381088,0.000003410,0.000009224,-0.804416936,0.486441932
0.937500,-0.000420000,-0.056584518,0.083707698,-0.310851000,-0.056584518,0.034888271,6.310871084e-05,4.909399474e-05,1,1,0.503007212,-0.000109485,0.000175529,-1.199471878,0.558925395,0.303381088,0.000003410,0.000009224,-0.804416936,0.486441932
0.940000,-0.000420000,-0.056584518,0.080751337,-0.310851000,-0.056584518,0.034888271,6.382457551e-05,4.909399474e-05,1,1,0.492767468,-0.000102246,0.000167845,-1.179194410,0.555846040,0.303381088,0.000003410,0.000009224,-0.804416936,0.486441932
0.942500,-0.000420000,-0.056584518,0.077823883,-0.310851000,-0.056584518,0.034888271,6.438876534e-05,4.909399474e-05,1,1,0.482467783,-0.000095196,0.000160072,-1.158792178,0.552642518,0.303381088,0.000003410,0.000009224,-0.804416936,0.486441932
0.945000,-0.000420000,-0.056584518,0.074932178,-0.310851000,-0.056584518,0.034888271,6.479745964e-05,4.909399474e-05,1,1,0.472129301,-0.000088353,0.000152230,-1.138306801,0.549316639,0.303381088,0.000003410,0.000009224,-0.804416936,0.486441932
0.947500,-0.000420000,-0.056584518,0.072083103,-0.310851000,-0.056584518,0.034888271,6.504631611e-05,4.909399474e-05,1,1,0.461774731,-0.000081732,0.000144342,-1.117783009,0.545871316,0.303381088,0.000003410,0.000009224,-0.804416936,0.486441932
0.950000,-0.000420000,-0.056584518,0.069283567,-0.310851000,-0.056584518,0.034888271,6.513031481e-05,4.909399474e-05,1,1,0.451428471,-0.000075347,0.000136430,-1.097268915,0.542310804,0.303381088,0.000003410,0.000009224,-0.804416936,0.486441932
0.952500,-0.000420000,-0.056584518,0.066540507,-0.310851000,-0.056584518,0.034888271,6.504358155e-05,4.909399474e-05,1,1,0.441116740,-0.000069212,0.000128519,-1.076816287,0.538640965,0.303381088,0.000003410,0.000009224,-0.804416936,0.486441932
0.955000,-0.000420000,-0.056584518,0.063860881,-0.310851000,-0.056584518,0.034888271,6.477918818e-05,4.909399474e-05,1,1,0.430867714,-0.000063338,0.000120634,-1.056480844,0.534869571,0.303381088,0.000003410,0.000009224,-0.804416936,0.486441932
0.957500,-0.000420000,-0.056584518,0.061251669,-0.310851000,-0.056584518,0.034888271,6.432893081e-05,4.909399474e-05,1,1,0.420711668,-0.000057735,0.000112801,-1.036322559,0.531006636,0.303381088,0.000003410,0.000009224,-0.804416936,0.486441932
0.960000,-0.000420000,-0.056584518,0.058719866,-0.310851000,-0.056584518,0.034888271,6.368308673e-05,4.909399474e-05,1,1,0.410681110,-0.000052412,0.000105048,-1.016405957,0.527064786,0.303381088,0.000003410,0.000009224,-0.804416936,0.486441932
0.962500,-0.000420000,-0.056584518,0.056272491,-0.310851000,-0.056584518,0.034888271,6.283015166e-05,4.909399474e-05,1,1,0.400810922,-0.000047375,0.000097403,-0.996800424,0.523059654,0.303381088,0.000003410,0.000009224,-0.804416936,0.486441932
0.965000,-0.000420000,-0.056584518,0.053916586,-0.310851000,-0.056584518,0.034888271,6.175656067e-05,4.909399474e-05,1,1,0.391138483,-0.000042630,0.000089897,-0.977580489,0.519010310,0.303381088,0.000003410,0.000009224,-0.804416936,0.486441932
0.967500,-0.000420000,-0.056584518,0.051659227,-0.310851000,-0.056584518,0.034888271,6.044639912e-05,4.909399474e-05,1,1,0.381703790,-0.000038180,0.000082561,-0.958826105,0.514939698,0.303381088,0.000003410,0.000009224,-0.804416936,0.486441932
0.970000,-0.000420000,-0.056584518,0.049507540,-0.310851000,-0.056584518,0.034888271,5.888110594e-05,4.909399474e-05,1,1,0.372549557,-0.000034029,0.000075426,-0.940622890,0.510875086,0.303381088,0.000003410,0.000009224,-0.804416936,0.486441932
0.972500,-0.000420000,-0.056584518,0.047468715,-0.310851000,-0.056584518,0.034888271,5.703917565e-05,4.909399474e-05,1,1,0.363721303,-0.000030177,0.000068527,-0.923062343,0.506848504,0.303381088,0.000003410,0.000009224,-0.804416936,0.486441932
0.975000,-0.000420000,-0.056584518,0.045550042,-0.310851000,-0.056584518,0.034888271,5.489585499e-05,4.909399474e-05,1,1,0.355267419,-0.000026623,0.000061898,-0.906242026,0.502897149,0.303381088,0.000003410,0.000009224,-0.804416936,0.486441932
0.977500,-0.000420000,-0.056584518,0.043758952,-0.310851000,-0.056584518,0.034888271,5.242281811e-05,4.909399474e-05,1,1,0.347239224,-0.000023368,0.000055576,-0.890265720,0.499063750,0.303381088,0.000003410,0.000009224,-0.804416936,0.486441932
0.980000,-0.000420000,-0.056584518,0.042103077,-0.310851000,-0.056584518,0.034888271,4.958777721e-05,4.909399474e-05,1,1,0.339691029,-0.000020408,0.000049598,-0.875243594,0.495396853,0.303381088,0.000003410,0.000009224,-0.804416936,0.486441932
0.982500,-0.000420000,-0.056584518,0.040590346,-0.310851000,-0.056584518,0.034888271,4.635392134e-05,4.909399474e-05,1,1,0.332680238,-0.000017740,0.000044003,-0.861292439,0.491951031,0.303381088,0.000003410,0.000009224,-0.804416936,0.486441932
0.985000,-0.000420000,-0.056584518,0.039229115,-0.310851000,-0.056584518,0.034888271,4.267896100e-05,4.909399474e-05,1,1,0.326267556,-0.000015362,0.000038831,-0.848536108,0.488787024,0.303381088,0.000003410,0.000009224,-0.804416936,0.486441932
0.987500,-0.000420000,-0.056584518,0.038028384,-0.310851000,-0.056584518,0.034888271,9.433954508e-05,4.909399474e-05,1,1,0.320841488,-0.000013471,0.000034581,-0.837704725,0.485856562,0.303381088,0.000003410,0.000009224,-0.804416936,0.486441932
0.990000,-0.000420000,-0.056584518,0.036998147,-0.310851000,-0.056584518,0.034888271,8.627302121e-05,4.909399474e-05,1,1,0.315872519,-0.000011763,0.000030650,-0.827793769,0.483176912,0.303381088,0.000003410,0.000009224,-0.804416936,0.486441932
0.992500,-0.000420000,-0.056584518,0.036150009,-0.310851000,-0.056584518,0.034888271,7.231807435e-05,4.909399474e-05,1,1,0.311681309,-0.000010322,0.000027241,-0.819451481,0.481005534,0.303381088,0.000003410,0.000009224,-0.804416936,0.486441932
0.995000,-0.000420000,-0.056584518,0.035498453,-0.310851000,-0.056584518,0.034888271,5.646579784e-05,4.909399474e-05,1,1,0.308374744,-0.000009159,0.000024422,-0.812895759,0.479446037,0.303381088,0.000003410,0.000009224,-0.804416936,0.486441932
0.997500,-0.000420000,-0.056584518,0.035064028,-0.310851000,-0.056584518,0.034888271,9.016918861e-05,4.909399474e-05,1,1,0.306371170,-0.000008458,0.000022683,-0.808926708,0.478528522,0.303381088,0.000003410,0.000009224,-0.804416936,0.486441932
1.000000,-0.000420000,-0.056584518,0.034888271,-0.310851000,-0.056584518,0.034888271,4.890886416e-05,4.909399474e-05,1,1,0.305227754,-0.000007987,0.000021509,-0.806703745,0.478263144,0.303381088,0.000003410,0.000009224,-0.804416936,0.486441932
1.002500,-0.000420000,-0.056584518,0.034888271,-0.310851000,-0.056584518,0.035064468,4.890886416e-05,5.456814342e-05,1,1,0.305227754,-0.000007987,0.000021509,-0.806703745,0.478263144,0.303683551,0.000003445,0.000009337,-0.805064852,0.486880482
1.005000,-0.000420000,-0.056584518,0.034888271,-0.310851000,-0.056584518,0.035501519,4.890886416e-05,9.056332120e-05,1,1,0.305227754,-0.000007987,0.000021509,-0.806703745,0.478263144,0.305492514,0.000003820,0.000010337,-0.808805486,0.488712279
1.007500,-0.000420000,-0.056584518,0.034888271,-0.310851000,-0.056584518,0.036159543,4.890886416e-05,5.969775808e-05,1,1,0.305227754,-0.000007987,0.000021509,-0.806703745,0.478263144,0.308606298,0.000004515,0.000012095,-0.815220259,0.491745630
1.010000,-0.000420000,-0.056584518,0.034888271,-0.310851000,-0.056584518,0.037019459,4.890886416e-05,7.353170477e-05,1,1,0.305227754,-0.000007987,0.000021509,-0.806703745,0.478263144,0.312429258,0.000005408,0.000014318,-0.823073638,0.495295530
1.012500,-0.000420000,-0.056584518,0.034888271,-0.310851000,-0.056584518,0.038068133,4.890886416e-05,8.977614070e-05,1,1,0.305227754,-0.000007987,0.000021509,-0.806703745,0.478263144,0.317078223,0.000006542,0.000017079,-0.832601480,0.499435709
1.015000,-0.000420000,-0.056584518,0.034888271,-0.310851000,-0.056584518,0.039295219,4.890886416e-05,4.733363935e-05,1,1,0.305227754,-0.000007987,0.000021509,-0.806703745,0.478263144,0.322731818,0.000007971,0.000020421,-0.844185486,0.504433995
