triton-droids/embedded/trajectory_generation/ik_stepping_y_big.csv
t,pL_tx,pL_ty,pL_tz,pR_tx,pR_ty,pR_tz,ik_err_L,ik_err_R,ik_ok_L,ik_ok_R,left_hip1_joint,left_hip2_joint,left_thigh_joint,left_knee_joint,left_ankle_joint,right_hip1_joint,right_hip2_joint,right_thigh_joint,right_knee_joint,right_ankle_joint
0.000000,-0.000420000,-0.056584518,0.034888271,-0.310851000,-0.056584518,0.034888271,0.000000000e+00,0.000000000e+00,1,1,0.300000000,0.000000000,0.000000000,-0.800000000,0.500000000,0.300000000,0.000000000,0.000000000,-0.800000000,0.500000000
0.002500,-0.000420000,-0.056582162,0.034888300,-0.310851000,-0.056586874,0.034888271,2.356267683e-06,2.356097597e-06,1,1,0.300000000,0.000000000,0.000000000,-0.800000000,0.500000000,0.300000000,0.000000000,0.000000000,-0.800000000,0.500000000
0.005000,-0.000420000,-0.056575094,0.034888468,-0.310851000,-0.056593941,0.034888271,9.425289327e-06,9.423227723e-06,1,1,0.300000000,0.000000000,0.000000000,-0.800000000,0.500000000,0.300000000,0.000000000,0.000000000,-0.800000000,0.500000000
0.007500,-0.000420000,-0.056563320,0.034888885,-0.310851000,-0.056605716,0.034888271,2.120677148e-05,2.119790282e-05,1,1,0.300000000,0.000000000,0.000000000,-0.800000000,0.500000000,0.300000000,0.000000000,0.000000000,-0.800000000,0.500000000
0.010000,-0.000420000,-0.056546843,0.034889643,-0.310851000,-0.056622192,0.034888271,3.769927257e-05,3.767431172e-05,1,1,0.300000000,0.000000000,0.000000000,-0.800000000,0.500000000,0.300000000,0.000000000,0.000000000,-0.800000000,0.500000000
0.012500,-0.000420000,-0.056525673,0.034890832,-0.310851000,-0.056643362,0.034888271,5.889999625e-05,5.884432180e-05,1,1,0.300000000,0.000000000,0.000000000,-0.800000000,0.500000000,0.300000000,0.000000000,0.000000000,-0.800000000,0.500000000
0.015000,-0.000420000,-0.056499820,0.034892534,-0.310851000,-0.056669215,0.034888271,8.480466552e-05,8.469748199e-05,1,1,0.300000000,0.000000000,0.000000000,-0.800000000,0.500000000,0.300000000,0.000000000,0.000000000,-0.800000000,0.500000000
0.017500,-0.000420000,-0.056469297,0.034894828,-0.310851000,-0.056699739,0.034888271,4.634292939e-05,4.620989263e-05,1,1,0.300153231,-0.000000035,0.000000099,-0.800057716,0.500052224,0.299864372,-0.000000031,-0.000000087,-0.799978228,0.499962323
0.020000,-0.000420000,-0.056434118,0.034897790,-0.310851000,-0.056734918,0.034888271,8.164410899e-05,8.138798735e-05,1,1,0.300153231,-0.000000035,0.000000099,-0.800057716,0.500052224,0.299864372,-0.000000031,-0.000000087,-0.799978228,0.499962323
0.022500,-0.000420000,-0.056394301,0.034901492,-0.310851000,-0.056774734,0.034888271,4.887645858e-05,4.861405172e-05,1,1,0.300322364,-0.000000075,0.000000208,-0.800134604,0.500113710,0.299720603,-0.000000065,-0.000000180,-0.799953077,0.499921780
0.025000,-0.000420000,-0.056349866,0.034906004,-0.310851000,-0.056819169,0.034888271,9.353956970e-05,9.304730592e-05,1,1,0.300322364,-0.000000075,0.000000208,-0.800134604,0.500113710,0.299720603,-0.000000065,-0.000000180,-0.799953077,0.499921780
0.027500,-0.000420000,-0.056300835,0.034911392,-0.310851000,-0.056868201,0.034888271,5.744913175e-05,5.698861849e-05,1,1,0.300528574,-0.000000123,0.000000341,-0.800240929,0.500192339,0.299551699,-0.000000104,-0.000000289,-0.799922817,0.499873942
0.030000,-0.000420000,-0.056247231,0.034917719,-0.310851000,-0.056921804,0.034888271,4.483456440e-05,4.436329473e-05,1,1,0.300693693,-0.000000161,0.000000447,-0.800333034,0.500257325,0.299419424,-0.000000135,-0.000000374,-0.799897608,0.499836038
0.032500,-0.000420000,-0.056189082,0.034925049,-0.310851000,-0.056979953,0.034888271,4.164371203e-05,4.112377637e-05,1,1,0.300849960,-0.000000198,0.000000547,-0.800424950,0.500320207,0.299296755,-0.000000164,-0.000000453,-0.799874110,0.499800852
0.035000,-0.000420000,-0.056126417,0.034933440,-0.310851000,-0.057042618,0.034888271,4.223419202e-05,4.163710989e-05,1,1,0.301010764,-0.000000236,0.000000651,-0.800523294,0.500386005,0.299172676,-0.000000193,-0.000000532,-0.799850553,0.499765323
0.037500,-0.000420000,-0.056059266,0.034942947,-0.310851000,-0.057109770,0.034888271,4.433914737e-05,4.364341625e-05,1,1,0.301181739,-0.000000276,0.000000761,-0.800631317,0.500456966,0.299042713,-0.000000224,-0.000000616,-0.799826048,0.499728158
0.040000,-0.000420000,-0.055987662,0.034953626,-0.310851000,-0.057181373,0.034888271,4.704685047e-05,4.623538970e-05,1,1,0.301365313,-0.000000319,0.000000879,-0.800750737,0.500534151,0.298905069,-0.000000256,-0.000000705,-0.799800157,0.499688815
0.042500,-0.000420000,-0.055911641,0.034965527,-0.310851000,-0.057257394,0.034888271,4.998990641e-05,4.904820126e-05,1,1,0.301562587,-0.000000365,0.000001006,-0.800882576,0.500618108,0.298759047,-0.000000290,-0.000000799,-0.799772669,0.499647071
0.045000,-0.000420000,-0.055831242,0.034978700,-0.310851000,-0.057337794,0.034888271,5.301968236e-05,5.193461262e-05,1,1,0.301774100,-0.000000415,0.000001142,-0.801027526,0.500709160,0.298604398,-0.000000326,-0.000000898,-0.799743484,0.499602840
0.047500,-0.000420000,-0.055746503,0.034993191,-0.310851000,-0.057422533,0.034888271,5.607549605e-05,5.483467165e-05,1,1,0.302000152,-0.000000468,0.000001288,-0.801186119,0.500807529,0.298441062,-0.000000365,-0.000001003,-0.799712553,0.499556093
0.050000,-0.000420000,-0.055657467,0.035009044,-0.310851000,-0.057511569,0.034888271,5.913203038e-05,5.772344763e-05,1,1,0.302240935,-0.000000525,0.000001443,-0.801358803,0.500913385,0.298269058,-0.000000405,-0.000001114,-0.799679851,0.499506828
0.052500,-0.000420000,-0.055564178,0.035026301,-0.310851000,-0.057604858,0.034888271,6.217818487e-05,6.059006648e-05,1,1,0.302496583,-0.000000585,0.000001608,-0.801545972,0.501026870,0.298088442,-0.000000447,-0.000001230,-0.799645365,0.499455053
0.055000,-0.000420000,-0.055466683,0.035045000,-0.310851000,-0.057702353,0.034888271,6.520856646e-05,6.342930077e-05,1,1,0.302767199,-0.000000648,0.000001782,-0.801747982,0.501148106,0.297899283,-0.000000492,-0.000001352,-0.799609088,0.499400784
0.057500,-0.000420000,-0.055365029,0.035065178,-0.310851000,-0.057804006,0.034888271,6.822006425e-05,6.623819582e-05,1,1,0.303052862,-0.000000716,0.000001966,-0.801965158,0.501277201,0.297701663,-0.000000538,-0.000001479,-0.799571015,0.499344036
0.060000,-0.000420000,-0.055259269,0.035086868,-0.310851000,-0.057909766,0.034888271,7.121047064e-05,6.901471625e-05,1,1,0.303353633,-0.000000787,0.000002160,-0.802197794,0.501414248,0.297495667,-0.000000586,-0.000001611,-0.799531141,0.499284828
0.062500,-0.000420000,-0.055149455,0.035110102,-0.310851000,-0.058019581,0.034888271,7.417792624e-05,7.175720311e-05,1,1,0.303669550,-0.000000861,0.000002363,-0.802446157,0.501559327,0.297281387,-0.000000636,-0.000001749,-0.799489463,0.499223181
0.065000,-0.000420000,-0.055035641,0.035134908,-0.310851000,-0.058133394,0.034888271,7.712069678e-05,7.446415634e-05,1,1,0.304000640,-0.000000939,0.000002576,-0.802710485,0.501712507,0.297058918,-0.000000688,-0.000001892,-0.799445979,0.499159116
0.067500,-0.000420000,-0.054917885,0.035161312,-0.310851000,-0.058251151,0.034888271,8.003708400e-05,7.713414776e-05,1,1,0.304346907,-0.000001021,0.000002799,-0.802990991,0.501873842,0.296828361,-0.000000742,-0.000002040,-0.799400686,0.499092656
0.070000,-0.000420000,-0.054796245,0.035189336,-0.310851000,-0.058372791,0.034888271,8.292539053e-05,7.976578646e-05,1,1,0.304708340,-0.000001107,0.000003032,-0.803287856,0.502043375,0.296589818,-0.000000798,-0.000002193,-0.799353582,0.499023823
0.072500,-0.000420000,-0.054670782,0.035219002,-0.310851000,-0.058498253,0.034888271,8.578390660e-05,8.235770512e-05,1,1,0.305084913,-0.000001196,0.000003275,-0.803601237,0.502221136,0.296343397,-0.000000855,-0.000002352,-0.799304667,0.498952642
0.075000,-0.000420000,-0.054541560,0.035250327,-0.310851000,-0.058627475,0.034888271,8.861090574e-05,8.490855494e-05,1,1,0.305476578,-0.000001289,0.000003527,-0.803931262,0.502407141,0.296089209,-0.000000915,-0.000002515,-0.799253939,0.498879139
0.077500,-0.000420000,-0.054408644,0.035283326,-0.310851000,-0.058760391,0.034888271,9.140464395e-05,8.741700382e-05,1,1,0.305883275,-0.000001386,0.000003789,-0.804278029,0.502601395,0.295827371,-0.000000976,-0.000002683,-0.799201398,0.498803340
0.080000,-0.000420000,-0.054272100,0.035318011,-0.310851000,-0.058896935,0.034888271,9.416336046e-05,8.988173594e-05,1,1,0.306304922,-0.000001486,0.000004061,-0.804641610,0.502803889,0.295558001,-0.000001039,-0.000002856,-0.799147045,0.498725273
0.082500,-0.000420000,-0.054131997,0.035354391,-0.310851000,-0.059037038,0.034888271,9.688527913e-05,9.230145193e-05,1,1,0.306741423,-0.000001590,0.000004342,-0.805022049,0.503014603,0.295281223,-0.000001104,-0.000003034,-0.799090880,0.498644966
0.085000,-0.000420000,-0.053988406,0.035392473,-0.310851000,-0.059180629,0.034888271,9.956861006e-05,9.467486913e-05,1,1,0.307192665,-0.000001697,0.000004633,-0.805419362,0.503233503,0.294997162,-0.000001170,-0.000003217,-0.799032906,0.498562450
0.087500,-0.000420000,-0.053841400,0.035432262,-0.310851000,-0.059327635,0.034888271,4.170581482e-05,9.700072206e-05,1,1,0.307852627,-0.000001857,0.000005058,-0.806013949,0.503557293,0.294705951,-0.000001238,-0.000003404,-0.798973125,0.498477755
0.090000,-0.000420000,-0.053691053,0.035473757,-0.310851000,-0.059477982,0.034888271,8.028750407e-05,9.927776290e-05,1,1,0.308219793,-0.000001945,0.000005295,-0.806342988,0.503736832,0.294407723,-0.000001308,-0.000003595,-0.798911541,0.498390913
0.092500,-0.000420000,-0.053537441,0.035516958,-0.310851000,-0.059631594,0.034888271,9.742413964e-05,4.079799658e-05,1,1,0.308667251,-0.000002051,0.000005583,-0.806746364,0.503956260,0.293977602,-0.000001409,-0.000003871,-0.798817318,0.498264090
0.095000,-0.000420000,-0.053380642,0.035561860,-0.310851000,-0.059788393,0.034888271,4.327171131e-05,7.932592674e-05,1,1,0.309360184,-0.000002219,0.000006030,-0.807385198,0.504299848,0.293739481,-0.000001464,-0.000004024,-0.798768255,0.498194782
0.097500,-0.000420000,-0.053220737,0.035608456,-0.310851000,-0.059948298,0.034888271,8.532235223e-05,9.603297215e-05,1,1,0.309755815,-0.000002314,0.000006285,-0.807748226,0.504495424,0.293451270,-0.000001531,-0.000004209,-0.798709093,0.498110959
0.100000,-0.000420000,-0.053057806,0.035656735,-0.310851000,-0.060111229,0.034888271,4.250429311e-05,4.179257969e-05,1,1,0.310440773,-0.000002480,0.000006727,-0.808388323,0.504837080,0.293010765,-0.000001634,-0.000004492,-0.798612414,0.497981019
0.102500,-0.000420000,-0.052891933,0.035706686,-0.310851000,-0.060277102,0.034888271,8.779258844e-05,8.337708241e-05,1,1,0.310851054,-0.000002578,0.000006992,-0.808769846,0.505041096,0.292760201,-0.000001692,-0.000004653,-0.798560166,0.497907907
0.105000,-0.000420000,-0.052723203,0.035758292,-0.310851000,-0.060445832,0.034888271,4.408713451e-05,4.070126978e-05,1,1,0.311566462,-0.000002752,0.000007453,-0.809447313,0.505400024,0.292331295,-0.000001793,-0.000004928,-0.798465835,0.497781328
0.107500,-0.000420000,-0.052551703,0.035811535,-0.310851000,-0.060617333,0.034888271,9.108723612e-05,8.520531638e-05,1,1,0.311995513,-0.000002856,0.000007730,-0.809851585,0.505614608,0.292075111,-0.000001852,-0.000005092,-0.798412108,0.497706485
0.110000,-0.000420000,-0.052377519,0.035866395,-0.310851000,-0.060791516,0.034888271,4.575613011e-05,4.188633371e-05,1,1,0.312742906,-0.000003038,0.000008212,-0.810568250,0.505991603,0.291633348,-0.000001955,-0.000005376,-0.798314035,0.497575843
0.112500,-0.000420000,-0.052200743,0.035922847,-0.310851000,-0.060968292,0.034888271,9.427856104e-05,8.780591732e-05,1,1,0.313190241,-0.000003146,0.000008501,-0.810994890,0.506216482,0.291369020,-0.000002016,-0.000005545,-0.798257924,0.497498423
0.115000,-0.000420000,-0.052021466,0.035980866,-0.310851000,-0.061147570,0.034888271,4.735368810e-05,4.313879258e-05,1,1,0.313968323,-0.000003337,0.000009003,-0.811749535,0.506610802,0.290913500,-0.000002123,-0.000005837,-0.798155544,0.497363345
0.117500,-0.000420000,-0.051839779,0.036040423,-0.310851000,-0.061329256,0.034888271,9.729422708e-05,9.028757770e-05,1,1,0.314433038,-0.000003450,0.000009304,-0.812197647,0.506845460,0.290641329,-0.000002186,-0.000006012,-0.798097002,0.497283401
0.120000,-0.000420000,-0.051655779,0.036101485,-0.310851000,-0.061513257,0.034888271,4.886390738e-05,4.431303522e-05,1,1,0.315240163,-0.000003649,0.000009825,-0.812988573,0.507256146,0.290172812,-0.000002295,-0.000006312,-0.797990345,0.497144070
0.122500,-0.000420000,-0.051469559,0.036164019,-0.310851000,-0.061699477,0.034888271,4.134730017e-05,9.258710651e-05,1,1,0.315922085,-0.000003817,0.000010265,-0.813660442,0.507603605,0.289893314,-0.000002360,-0.000006491,-0.797929415,0.497061736
0.125000,-0.000420000,-0.051281217,0.036227988,-0.310851000,-0.061887819,0.034888271,9.810313968e-05,4.539697749e-05,1,1,0.316393832,-0.000003932,0.000010570,-0.814120812,0.507842753,0.289412710,-0.000002472,-0.000006799,-0.797818580,0.496918390
0.127500,-0.000420000,-0.051090852,0.036293353,-0.310851000,-0.062078184,0.034888271,5.039353460e-05,9.469510405e-05,1,1,0.317230950,-0.000004139,0.000011111,-0.814951314,0.508270452,0.289126435,-0.000002538,-0.000006983,-0.797755324,0.496833810
0.130000,-0.000420000,-0.050898562,0.036360073,-0.310851000,-0.062270473,0.034888271,4.294135153e-05,4.638730662e-05,1,1,0.317942965,-0.000004316,0.000011571,-0.815661543,0.508634680,0.288634695,-0.000002652,-0.000007298,-0.797640434,0.496686704
0.132500,-0.000420000,-0.050704450,0.036428103,-0.310851000,-0.062464585,0.034888271,4.211479247e-05,9.660592104e-05,1,1,0.318640778,-0.000004489,0.000012023,-0.816358742,0.508991541,0.288342213,-0.000002720,-0.000007485,-0.797574922,0.496600029
0.135000,-0.000420000,-0.050508618,0.036497396,-0.310851000,-0.062660417,0.034888271,4.237093023e-05,4.728140922e-05,1,1,0.319343353,-0.000004664,0.000012477,-0.817062653,0.509351008,0.287840321,-0.000002837,-0.000007807,-0.797456116,0.496449430
0.137500,-0.000420000,-0.050311168,0.036567905,-0.310851000,-0.062857867,0.034888271,4.278952280e-05,9.831442804e-05,1,1,0.320053643,-0.000004841,0.000012937,-0.817776545,0.509714673,0.287542222,-0.000002905,-0.000007998,-0.797388432,0.496360820
0.140000,-0.000420000,-0.050112206,0.036639578,-0.310851000,-0.063056829,0.034888271,4.321681027e-05,4.807685162e-05,1,1,0.320771791,-0.000005021,0.000013402,-0.818500584,0.510082600,0.287031193,-0.000003024,-0.000008325,-0.797265869,0.496207008
0.142500,-0.000420000,-0.049911838,0.036712362,-0.310851000,-0.063257198,0.034888271,4.362665848e-05,9.981581383e-05,1,1,0.321497438,-0.000005203,0.000013872,-0.819234342,0.510454567,0.286728085,-0.000003094,-0.000008519,-0.797196105,0.496116630
0.145000,-0.000420000,-0.049710169,0.036786201,-0.310851000,-0.063458866,0.034888271,4.401427696e-05,4.877134983e-05,1,1,0.322230129,-0.000005387,0.000014346,-0.819977266,0.510830296,0.286208965,-0.000003214,-0.000008851,-0.797069963,0.495959896
0.147500,-0.000420000,-0.049507308,0.036861038,-0.310851000,-0.063661727,0.034888271,4.437846759e-05,4.075454270e-05,1,1,0.322969380,-0.000005573,0.000014825,-0.820728763,0.511209493,0.285775380,-0.000003315,-0.000009128,-0.796963799,0.495828745
0.150000,-0.000420000,-0.049303365,0.036936814,-0.310851000,-0.063865671,0.034888271,4.471864762e-05,9.832809449e-05,1,1,0.323714696,-0.000005761,0.000015309,-0.821488225,0.511591855,0.285476580,-0.000003384,-0.000009320,-0.796894435,0.495739471
0.152500,-0.000420000,-0.049098448,0.037013467,-0.310851000,-0.064070588,0.034888271,4.503434878e-05,4.908051110e-05,1,1,0.324465573,-0.000005951,0.000015795,-0.822255022,0.511977075,0.284953528,-0.000003505,-0.000009654,-0.796765565,0.495581019
0.155000,-0.000420000,-0.048892668,0.037090933,-0.310851000,-0.064276367,0.034888271,4.532513290e-05,4.130037620e-05,1,1,0.325221494,-0.000006143,0.000016286,-0.823028513,0.512364840,0.284513400,-0.000003607,-0.000009935,-0.796655893,0.495447319
0.157500,-0.000420000,-0.048686138,0.037169147,-0.310851000,-0.064482897,0.034888271,4.559057817e-05,9.960235832e-05,1,1,0.325981937,-0.000006337,0.000016779,-0.823808040,0.512754832,0.284210056,-0.000003676,-0.000010129,-0.796584066,0.495356269
0.160000,-0.000420000,-0.048478970,0.037248043,-0.310851000,-0.064690066,0.034888271,4.583027715e-05,4.967538851e-05,1,1,0.326746368,-0.000006532,0.000017275,-0.824592933,0.513146728,0.283679600,-0.000003799,-0.000010468,-0.796450838,0.495194819
0.162500,-0.000420000,-0.048271276,0.037327552,-0.310851000,-0.064897759,0.034888271,4.604383703e-05,4.173148680e-05,1,1,0.327514247,-0.000006728,0.000017773,-0.825382511,0.513540201,0.283234024,-0.000003902,-0.000010753,-0.796337653,0.495058820
0.165000,-0.000420000,-0.048063172,0.037407603,-0.310851000,-0.065105864,0.034888271,4.623087997e-05,4.052651282e-05,1,1,0.328285026,-0.000006926,0.000018274,-0.826176078,0.513934923,0.282801738,-0.000004002,-0.000011029,-0.796228203,0.494926975
0.167500,-0.000420000,-0.047854771,0.037488125,-0.310851000,-0.065314264,0.034888271,4.639104376e-05,4.038907483e-05,1,1,0.329058149,-0.000007125,0.000018776,-0.826972929,0.514330558,0.282370883,-0.000004101,-0.000011304,-0.796118810,0.494795471
0.170000,-0.000420000,-0.047646190,0.037569044,-0.310851000,-0.065522846,0.034888271,4.652398216e-05,4.040528522e-05,1,1,0.329833056,-0.000007325,0.000019280,-0.827772348,0.514726771,0.281939652,-0.000004200,-0.000011579,-0.796008728,0.494663673
0.172500,-0.000420000,-0.047437543,0.037650285,-0.310851000,-0.065731492,0.034888271,4.662936556e-05,4.042768609e-05,1,1,0.330609178,-0.000007526,0.000019784,-0.828573613,0.515123224,0.281507937,-0.000004299,-0.000011855,-0.795897852,0.494531525
0.175000,-0.000420000,-0.047228949,0.037731774,-0.310851000,-0.065940086,0.034888271,4.670688129e-05,4.043238659e-05,1,1,0.331385942,-0.000007727,0.000020289,-0.829375989,0.515519576,0.281075919,-0.000004399,-0.000012131,-0.795786208,0.494399076
0.177500,-0.000420000,-0.047020524,0.037813432,-0.310851000,-0.066148511,0.034888271,4.675623415e-05,4.041543800e-05,1,1,0.332162770,-0.000007929,0.000020795,-0.830178736,0.515915483,0.280643831,-0.000004498,-0.000012406,-0.795673853,0.494266398
0.180000,-0.000420000,-0.046812386,0.037895182,-0.310851000,-0.066356650,0.034888271,4.677714682e-05,9.994751862e-05,1,1,0.332939078,-0.000008131,0.000021300,-0.830981108,0.516310603,0.280337567,-0.000004568,-0.000012602,-0.795597306,0.494173262
0.182500,-0.000420000,-0.046604652,0.037976944,-0.310851000,-0.066564384,0.034888271,4.676936025e-05,4.990757782e-05,1,1,0.333714281,-0.000008334,0.000021805,-0.831782352,0.516704592,0.279801643,-0.000004691,-0.000012944,-0.795455196,0.494007892
0.185000,-0.000420000,-0.046397441,0.038058639,-0.310851000,-0.066771594,0.034888271,4.673263396e-05,4.177651700e-05,1,1,0.334487786,-0.000008537,0.000022309,-0.832581711,0.517097104,0.279353188,-0.000004794,-0.000013230,-0.795334831,0.493869072
0.187500,-0.000420000,-0.046190873,0.038140184,-0.310851000,-0.066978162,0.034888271,4.666674659e-05,9.988271807e-05,1,1,0.335259000,-0.000008740,0.000022811,-0.833378424,0.517487795,0.279046241,-0.000004864,-0.000013426,-0.795256292,0.493775183
0.190000,-0.000420000,-0.045985066,0.038221499,-0.310851000,-0.067183970,0.034888271,4.657149600e-05,4.961684459e-05,1,1,0.336027328,-0.000008942,0.000023312,-0.834171726,0.517876319,0.278512316,-0.000004987,-0.000013766,-0.795111900,0.493609583
0.192500,-0.000420000,-0.045780139,0.038302501,-0.310851000,-0.067388896,0.034888271,4.644669976e-05,4.139142709e-05,1,1,0.336792170,-0.000009144,0.000023811,-0.834960851,0.518262333,0.278067232,-0.000005089,-0.000014049,-0.794990259,0.493471144
0.195000,-0.000420000,-0.045576213,0.038383108,-0.310851000,-0.067592823,0.034888271,4.629219530e-05,9.868708860e-05,1,1,0.337552928,-0.000009346,0.000024307,-0.835745030,0.518645494,0.277763303,-0.000005158,-0.000014243,-0.794911058,0.493377744
0.197500,-0.000420000,-0.045373406,0.038463235,-0.310851000,-0.067795629,0.034888271,4.610784024e-05,4.897099491e-05,1,1,0.338308999,-0.000009547,0.000024801,-0.836523495,0.519025461,0.277235420,-0.000005279,-0.000014580,-0.794765812,0.493213262
0.200000,-0.000420000,-0.045171839,0.038542800,-0.310851000,-0.067997196,0.034888271,4.589351262e-05,4.077604786e-05,1,1,0.339059784,-0.000009747,0.000025291,-0.837295479,0.519401893,0.276796294,-0.000005380,-0.000014859,-0.794643743,0.493076048
0.202500,-0.000420000,-0.044971633,0.038621718,-0.310851000,-0.068197403,0.034888271,4.564911111e-05,9.696662042e-05,1,1,0.339804681,-0.000009946,0.000025778,-0.838060213,0.519774452,0.276497046,-0.000005448,-0.000015050,-0.794564385,0.492983667
0.205000,-0.000420000,-0.044772905,0.038699905,-0.310851000,-0.068396130,0.034888271,4.537455519e-05,4.806701621e-05,1,1,0.340543089,-0.000010143,0.000026261,-0.838816934,0.520142804,0.275978086,-0.000005566,-0.000015380,-0.794419202,0.492821235
0.207500,-0.000420000,-0.044575778,0.038777278,-0.310851000,-0.068593258,0.034888271,4.506978529e-05,9.867237770e-05,1,1,0.341274409,-0.000010340,0.000026740,-0.839564880,0.520506614,0.275672698,-0.000005636,-0.000015575,-0.794336531,0.492726457
0.210000,-0.000420000,-0.044380370,0.038853751,-0.310851000,-0.068788666,0.034888271,4.473476301e-05,4.782797783e-05,1,1,0.341998043,-0.000010534,0.000027213,-0.840303292,0.520865555,0.275155379,-0.000005754,-0.000015904,-0.794189563,0.492563862
0.212500,-0.000420000,-0.044186801,0.038929242,-0.310851000,-0.068982234,0.034888271,4.436947115e-05,9.716115388e-05,1,1,0.342713394,-0.000010727,0.000027682,-0.841031417,0.521219298,0.274854197,-0.000005823,-0.000016096,-0.794106995,0.492470074
0.215000,-0.000420000,-0.043995191,0.039003666,-0.310851000,-0.069173844,0.034888271,4.397391384e-05,4.699300832e-05,1,1,0.343419869,-0.000010918,0.000028145,-0.841748507,0.521567522,0.274345393,-0.000005939,-0.000016419,-0.793960840,0.492309662
0.217500,-0.000420000,-0.043805660,0.039076940,-0.310851000,-0.069363375,0.034888271,4.354811666e-05,9.521862681e-05,1,1,0.344116877,-0.000011107,0.000028602,-0.842453820,0.521909907,0.274049856,-0.000006006,-0.000016608,-0.793878942,0.492217363
0.220000,-0.000420000,-0.043618326,0.039148981,-0.310851000,-0.069550709,0.034888271,4.309212658e-05,4.601145232e-05,1,1,0.344803833,-0.000011294,0.000029052,-0.843146620,0.522246139,0.273551270,-0.000006120,-0.000016924,-0.793734269,0.492059722
0.222500,-0.000420000,-0.043433308,0.039219708,-0.310851000,-0.069735727,0.034888271,9.963767591e-05,9.302589531e-05,1,1,0.345280936,-0.000011422,0.000029365,-0.843620941,0.522479194,0.273262198,-0.000006185,-0.000017108,-0.793653338,0.491969188
0.225000,-0.000420000,-0.043250725,0.039289038,-0.310851000,-0.069918310,0.034888271,5.152965931e-05,4.491290181e-05,1,1,0.346109913,-0.000011648,0.000029908,-0.844452841,0.522884605,0.272775171,-0.000006296,-0.000017418,-0.793510643,0.491814774
0.227500,-0.000420000,-0.043070695,0.039356891,-0.310851000,-0.070098341,0.034888271,4.311937786e-05,9.059584951e-05,1,1,0.346791723,-0.000011835,0.000030356,-0.845134676,0.523215318,0.272493338,-0.000006360,-0.000017597,-0.793430957,0.491726265
0.230000,-0.000420000,-0.042893335,0.039423187,-0.310851000,-0.070275701,0.034888271,9.610637051e-05,4.369989592e-05,1,1,0.347247419,-0.000011958,0.000030655,-0.845582241,0.523435436,0.272019186,-0.000006468,-0.000017898,-0.793290732,0.491575525
0.232500,-0.000420000,-0.042718762,0.039487847,-0.310851000,-0.070450273,0.034888271,4.947940494e-05,8.793083019e-05,1,1,0.348032802,-0.000012173,0.000031170,-0.846359714,0.523814728,0.271745360,-0.000006530,-0.000018072,-0.793212572,0.491489301
0.235000,-0.000420000,-0.042547094,0.039550792,-0.310851000,-0.070621941,0.034888271,9.606509810e-05,4.237339146e-05,1,1,0.348485681,-0.000012297,0.000031467,-0.846800864,0.524031971,0.271285391,-0.000006634,-0.000018364,-0.793075316,0.491342686
0.237500,-0.000420000,-0.042378446,0.039611947,-0.310851000,-0.070790590,0.034888271,4.837318478e-05,8.503284799e-05,1,1,0.349246474,-0.000012507,0.000031967,-0.847546340,0.524396132,0.271020340,-0.000006694,-0.000018532,-0.792998970,0.491259008
0.240000,-0.000420000,-0.042212933,0.039671236,-0.310851000,-0.070956103,0.034888271,9.274024202e-05,4.093442024e-05,1,1,0.349679566,-0.000012625,0.000032252,-0.847962980,0.524601792,0.270575858,-0.000006795,-0.000018814,-0.792865190,0.491116967
0.242500,-0.000420000,-0.042050670,0.039728584,-0.310851000,-0.071118365,0.034888271,4.662304636e-05,8.190424721e-05,1,1,0.350403959,-0.000012826,0.000032728,-0.848663213,0.524944667,0.270320342,-0.000006853,-0.000018976,-0.792790946,0.491036096
0.245000,-0.000420000,-0.041891771,0.039783920,-0.310851000,-0.071277264,0.034888271,8.893246859e-05,9.701670413e-05,1,1,0.350814573,-0.000012938,0.000032998,-0.849052184,0.525137346,0.270017172,-0.000006921,-0.000019169,-0.792702586,0.490940076
0.247500,-0.000420000,-0.041736350,0.039837172,-0.310851000,-0.071432686,0.034888271,4.469658589e-05,4.126796996e-05,1,1,0.351499249,-0.000013128,0.000033450,-0.849703218,0.525457238,0.269567771,-0.000007023,-0.000019454,-0.792564461,0.490795595
0.250000,-0.000420000,-0.041584518,0.039888271,-0.310851000,-0.071584518,0.034888271,8.483785063e-05,7.787019067e-05,1,1,0.351885781,-0.000013235,0.000033704,-0.850062629,0.525636134,0.269324304,-0.000007078,-0.000019608,-0.792492391,0.490718129
0.252500,-0.000420000,-0.041436387,0.039937150,-0.310851000,-0.071732649,0.034888271,9.947878844e-05,9.109454306e-05,1,1,0.352339129,-0.000013359,0.000034003,-0.850480300,0.525845664,0.269039166,-0.000007142,-0.000019789,-0.792408027,0.490627427
0.255000,-0.000420000,-0.041292067,0.039983742,-0.310851000,-0.071876968,0.034888271,4.430367519e-05,9.488030580e-05,1,1,0.353006100,-0.000013546,0.000034443,-0.851097344,0.526151466,0.268741564,-0.000007209,-0.000019978,-0.792318979,0.490532468
0.257500,-0.000420000,-0.041151669,0.040027985,-0.310851000,-0.072017366,0.034888271,7.932707073e-05,9.483292271e-05,1,1,0.353359485,-0.000013644,0.000034676,-0.851415173,0.526311208,0.268443633,-0.000007276,-0.000020167,-0.792228915,0.490437130
0.260000,-0.000420000,-0.041015301,0.040069816,-0.310851000,-0.072153735,0.034888271,9.172503928e-05,9.320296247e-05,1,1,0.353767212,-0.000013756,0.000034945,-0.851776819,0.526494864,0.268150504,-0.000007343,-0.000020353,-0.792139607,0.490343118
0.262500,-0.000420000,-0.040883070,0.040109176,-0.310851000,-0.072285966,0.034888271,9.482165450e-05,9.089427823e-05,1,1,0.354186341,-0.000013872,0.000035222,-0.852144133,0.526682473,0.267864433,-0.000007407,-0.000020535,-0.792051931,0.490251209
0.265000,-0.000420000,-0.040755082,0.040146008,-0.310851000,-0.072413953,0.034888271,9.409236926e-05,8.827019430e-05,1,1,0.354598789,-0.000013986,0.000035494,-0.852500356,0.526865455,0.267586491,-0.000007470,-0.000020711,-0.791966342,0.490161785
0.267500,-0.000420000,-0.040631444,0.040180256,-0.310851000,-0.072537591,0.034888271,9.176322371e-05,8.547706674e-05,1,1,0.354996794,-0.000014097,0.000035756,-0.852837996,0.527040059,0.267317259,-0.000007531,-0.000020881,-0.791883102,0.490075056
0.270000,-0.000420000,-0.040512260,0.040211868,-0.310851000,-0.072656776,0.034888271,8.873947846e-05,8.257415664e-05,1,1,0.355376887,-0.000014202,0.000036008,-0.853153575,0.527204584,0.267057116,-0.000007589,-0.000021046,-0.791802382,0.489991160
0.272500,-0.000420000,-0.040397631,0.040240794,-0.310851000,-0.072771404,0.034888271,8.539028441e-05,7.958576849e-05,1,1,0.355737389,-0.000014303,0.000036246,-0.853445358,0.527358206,0.266806356,-0.000007646,-0.000021205,-0.791724313,0.489910205
0.275000,-0.000420000,-0.040287660,0.040266987,-0.310851000,-0.072881375,0.034888271,8.186722210e-05,7.652218549e-05,1,1,0.356077375,-0.000014398,0.000036471,-0.853712374,0.527500474,0.266565234,-0.000007700,-0.000021358,-0.791649007,0.489832283
0.277500,-0.000420000,-0.040182447,0.040290400,-0.310851000,-0.072986588,0.034888271,7.823364440e-05,7.338807776e-05,1,1,0.356396240,-0.000014487,0.000036683,-0.853953992,0.527631101,0.266333989,-0.000007752,-0.000021504,-0.791576566,0.489757479
0.280000,-0.000420000,-0.040082092,0.040310993,-0.310851000,-0.073086943,0.034888271,7.451724329e-05,7.018588036e-05,1,1,0.356693522,-0.000014569,0.000036881,-0.854169742,0.527749876,0.266112853,-0.000007802,-0.000021644,-0.791507088,0.489685875
0.282500,-0.000420000,-0.039986691,0.040328726,-0.310851000,-0.073182344,0.034888271,7.073145783e-05,6.691715136e-05,1,1,0.356968825,-0.000014646,0.000037064,-0.854359234,0.527856622,0.265902050,-0.000007849,-0.000021777,-0.791440668,0.489617551
0.285000,-0.000420000,-0.039896341,0.040343561,-0.310851000,-0.073272694,0.034888271,6.688424481e-05,6.358311871e-05,1,1,0.357221792,-0.000014717,0.000037233,-0.854522128,0.527951185,0.265701801,-0.000007894,-0.000021904,-0.791377397,0.489552587
0.287500,-0.000420000,-0.039811137,0.040355466,-0.310851000,-0.073357899,0.034888271,6.298174301e-05,6.018490175e-05,1,1,0.357452086,-0.000014781,0.000037387,-0.854658118,0.528033425,0.265512322,-0.000007937,-0.000022023,-0.791317366,0.489491058
0.290000,-0.000420000,-0.039731171,0.040364410,-0.310851000,-0.073437865,0.034888271,5.902990530e-05,5.672360267e-05,1,1,0.357659394,-0.000014839,0.000037527,-0.854766927,0.528103209,0.265333826,-0.000007977,-0.000022136,-0.791260663,0.489433041
0.292500,-0.000420000,-0.039656535,0.040370365,-0.310851000,-0.073512500,0.034888271,5.503537168e-05,5.320034685e-05,1,1,0.357843416,-0.000014890,0.000037651,-0.854848304,0.528160420,0.265166522,-0.000008014,-0.000022241,-0.791207375,0.489378610
0.295000,-0.000420000,-0.039587319,0.040373306,-0.310851000,-0.073581716,0.034888271,5.100613944e-05,4.961630443e-05,1,1,0.358003870,-0.000014935,0.000037760,-0.854902025,0.528204945,0.265010616,-0.000008049,-0.000022339,-0.791157587,0.489327836
0.297500,-0.000420000,-0.039523612,0.040373212,-0.310851000,-0.073645423,0.034888271,4.695232235e-05,4.597270743e-05,1,1,0.358140489,-0.000014973,0.000037854,-0.854927890,0.528236684,0.264866310,-0.000008081,-0.000022430,-0.791111379,0.489280792
0.300000,-0.000420000,-0.039465500,0.040370064,-0.310851000,-0.073703535,0.034888271,4.288723147e-05,4.227086985e-05,1,1,0.358253024,-0.000015004,0.000037932,-0.854925725,0.528255545,0.264733800,-0.000008111,-0.000022514,-0.791068833,0.489237547
0.302500,-0.000420000,-0.039413068,0.040363849,-0.310851000,-0.073755967,0.034888271,9.479937832e-05,9.463572583e-05,1,1,0.358253024,-0.000015004,0.000037932,-0.854925725,0.528255545,0.264733800,-0.000008111,-0.000022514,-0.791068833,0.489237547
0.305000,-0.000420000,-0.039366400,0.040354554,-0.310851000,-0.073802636,0.034888271,5.727024155e-05,5.720962055e-05,1,1,0.358368833,-0.000015034,0.000038012,-0.854847889,0.528254642,0.264554463,-0.000008151,-0.000022627,-0.791013023,0.489179583
0.307500,-0.000420000,-0.039325575,0.040342171,-0.310851000,-0.073843460,0.034888271,9.880854184e-05,9.799312443e-05,1,1,0.358368833,-0.000015034,0.000038012,-0.854847889,0.528254642,0.264554463,-0.000008151,-0.000022627,-0.791013023,0.489179583
0.310000,-0.000420000,-0.039290675,0.040326696,-0.310851000,-0.073878360,0.034888271,5.433180234e-05,5.384458386e-05,1,1,0.358427299,-0.000015049,0.000038056,-0.854673357,0.528214881,0.264385322,-0.000008189,-0.000022733,-0.790959420,0.489124623
0.312500,-0.000420000,-0.039261776,0.040308126,-0.310851000,-0.073907259,0.034888271,8.670548181e-05,8.270609031e-05,1,1,0.358427299,-0.000015049,0.000038056,-0.854673357,0.528214881,0.264385322,-0.000008189,-0.000022733,-0.790959420,0.489124623
0.315000,-0.000420000,-0.039238955,0.040286464,-0.310851000,-0.073930080,0.034888271,4.571115618e-05,4.288008523e-05,1,1,0.358402838,-0.000015039,0.000038045,-0.854392532,0.528128010,0.264250605,-0.000008219,-0.000022818,-0.790915614,0.489080491
0.317500,-0.000420000,-0.039222285,0.040261716,-0.310851000,-0.073946750,0.034888271,7.213959517e-05,5.951493146e-05,1,1,0.358402838,-0.000015039,0.000038045,-0.854392532,0.528128010,0.264250605,-0.000008219,-0.000022818,-0.790915614,0.489080491
0.320000,-0.000420000,-0.039211838,0.040233890,-0.310851000,-0.073957197,0.034888271,9.800129475e-05,6.994842252e-05,1,1,0.358402838,-0.000015039,0.000038045,-0.854392532,0.528128010,0.264250605,-0.000008219,-0.000022818,-0.790915614,0.489080491
0.322500,-0.000420000,-0.039207684,0.040203000,-0.310851000,-0.073961351,0.034888271,4.872420366e-05,7.409829624e-05,1,1,0.358208991,-0.000014982,0.000037925,-0.853840338,0.527929994,0.264250605,-0.000008219,-0.000022818,-0.790915614,0.489080491
0.325000,-0.000420000,-0.039209890,0.040169062,-0.310851000,-0.073959145,0.034888271,7.748214841e-05,7.189415404e-05,1,1,0.358208991,-0.000014982,0.000037925,-0.853840338,0.527929994,0.264250605,-0.000008219,-0.000022818,-0.790915614,0.489080491
0.327500,-0.000420000,-0.039218523,0.040132095,-0.310851000,-0.073950512,0.034888271,4.342391087e-05,6.327176925e-05,1,1,0.357929312,-0.000014901,0.000037749,-0.853236530,0.527699062,0.264250605,-0.000008219,-0.000022818,-0.790915614,0.489080491
0.330000,-0.000420000,-0.039233645,0.040092124,-0.310851000,-0.073935390,0.034888271,8.295894760e-05,4.817609188e-05,1,1,0.357929312,-0.000014901,0.000037749,-0.853236530,0.527699062,0.264250605,-0.000008219,-0.000022818,-0.790915614,0.489080491
0.332500,-0.000420000,-0.039255319,0.040049174,-0.310851000,-0.073913716,0.034888271,5.105696069e-05,2.659372229e-05,1,1,0.357554280,-0.000014793,0.000037511,-0.852546685,0.527423681,0.264250605,-0.000008219,-0.000022818,-0.790915614,0.489080491
0.335000,-0.000420000,-0.039283603,0.040003278,-0.310851000,-0.073885432,0.034888271,4.021290197e-05,3.785894893e-06,1,1,0.357244841,-0.000014704,0.000037316,-0.852012611,0.527205394,0.264250605,-0.000008219,-0.000022818,-0.790915614,0.489080491
0.337500,-0.000420000,-0.039318554,0.039954470,-0.310851000,-0.073850481,0.034888271,9.963449783e-05,3.699011812e-05,1,1,0.357244841,-0.000014704,0.000037316,-0.852012611,0.527205394,0.264250605,-0.000008219,-0.000022818,-0.790915614,0.489080491
0.340000,-0.000420000,-0.039360228,0.039902787,-0.310851000,-0.073808807,0.034888271,6.624152028e-05,7.858660262e-05,1,1,0.356768595,-0.000014570,0.000037011,-0.851258767,0.526890249,0.264250605,-0.000008219,-0.000022818,-0.790915614,0.489080491
0.342500,-0.000420000,-0.039408676,0.039848272,-0.310851000,-0.073760359,0.034888271,5.491417532e-05,5.056269747e-05,1,1,0.356372479,-0.000014457,0.000036759,-0.850650745,0.526632754,0.264409334,-0.000008184,-0.000022715,-0.790957583,0.489129362
0.345000,-0.000420000,-0.039463950,0.039790970,-0.310851000,-0.073705086,0.034888271,5.297991261e-05,4.206224856e-05,1,1,0.355995596,-0.000014351,0.000036518,-0.850090144,0.526392568,0.264544118,-0.000008153,-0.000022628,-0.790997517,0.489172098
0.347500,-0.000420000,-0.039526096,0.039730930,-0.310851000,-0.073642939,0.034888271,5.500587632e-05,4.140961692e-05,1,1,0.355612219,-0.000014243,0.000036274,-0.849535053,0.526152525,0.264677789,-0.000008123,-0.000022542,-0.791038785,0.489214968
0.350000,-0.000420000,-0.039595161,0.039668204,-0.310851000,-0.073573875,0.034888271,5.869826055e-05,4.392315774e-05,1,1,0.355211523,-0.000014130,0.000036017,-0.848967775,0.525905370,0.264819724,-0.000008091,-0.000022451,-0.791083087,0.489260641
0.352500,-0.000420000,-0.039671187,0.039602850,-0.310851000,-0.073497848,0.034888271,6.309987686e-05,4.772478885e-05,1,1,0.354789006,-0.000014012,0.000035747,-0.848380994,0.525648084,0.264973805,-0.000008056,-0.000022351,-0.791131255,0.489310259
0.355000,-0.000420000,-0.039754216,0.039534927,-0.310851000,-0.073414819,0.034888271,6.781071857e-05,5.206024056e-05,1,1,0.354342857,-0.000013888,0.000035460,-0.847771851,0.525379463,0.265141664,-0.000008017,-0.000022244,-0.791183688,0.489364316
0.357500,-0.000420000,-0.039844285,0.039464498,-0.310851000,-0.073324750,0.034888271,7.266171160e-05,5.662587434e-05,1,1,0.353872417,-0.000013757,0.000035158,-0.847139409,0.525099085,0.265324010,-0.000007976,-0.000022126,-0.791240571,0.489423030
0.360000,-0.000420000,-0.039941432,0.039391632,-0.310851000,-0.073227604,0.034888271,7.757973925e-05,6.129880274e-05,1,1,0.353377523,-0.000013620,0.000034840,-0.846483573,0.524806866,0.265521170,-0.000007931,-0.000022000,-0.791301982,0.489486499
0.362500,-0.000420000,-0.040045688,0.039316397,-0.310851000,-0.073123347,0.034888271,8.253179209e-05,6.602865571e-05,1,1,0.352858239,-0.000013477,0.000034506,-0.845804623,0.524502873,0.265733308,-0.000007883,-0.000021864,-0.791367950,0.489554770
0.365000,-0.000420000,-0.040157085,0.039238869,-0.310851000,-0.073011950,0.034888271,8.750177856e-05,7.079416297e-05,1,1,0.352314732,-0.000013327,0.000034156,-0.845103017,0.524187248,0.265960521,-0.000007831,-0.000021718,-0.791438477,0.489627865
0.367500,-0.000420000,-0.040275652,0.039159124,-0.310851000,-0.072893383,0.034888271,9.248085336e-05,7.558573301e-05,1,1,0.351747227,-0.000013170,0.000033790,-0.844379307,0.523860168,0.266202872,-0.000007776,-0.000021563,-0.791513549,0.489705795
0.370000,-0.000420000,-0.040401414,0.039077245,-0.310851000,-0.072767621,0.034888271,9.746335828e-05,8.039846090e-05,1,1,0.351155984,-0.000013008,0.000033409,-0.843634098,0.523521832,0.266460407,-0.000007718,-0.000021398,-0.791593146,0.489788563
0.372500,-0.000420000,-0.040534395,0.038993315,-0.310851000,-0.072634640,0.034888271,3.992692473e-05,8.522932089e-05,1,1,0.350283240,-0.000012766,0.000032847,-0.842538143,0.523023213,0.266733158,-0.000007656,-0.000021223,-0.791677237,0.489876169
0.375000,-0.000420000,-0.040674615,0.038907422,-0.310851000,-0.072494420,0.034888271,8.174000701e-05,9.007603853e-05,1,1,0.349795021,-0.000012633,0.000032532,-0.841939774,0.522748365,0.267021153,-0.000007591,-0.000021039,-0.791765789,0.489968609
0.377500,-0.000420000,-0.040822093,0.038819657,-0.310851000,-0.072346943,0.034888271,3.974064258e-05,9.493663724e-05,1,1,0.348946378,-0.000012401,0.000031985,-0.840902590,0.522271470,0.267324408,-0.000007522,-0.000020845,-0.791858762,0.490065874
0.380000,-0.000420000,-0.040976844,0.038730114,-0.310851000,-0.072192192,0.034888271,8.754227802e-05,9.980925573e-05,1,1,0.348435128,-0.000012263,0.000031654,-0.840290784,0.521987722,0.267642935,-0.000007449,-0.000020641,-0.791956111,0.490167953
0.382500,-0.000420000,-0.041138880,0.038638891,-0.310851000,-0.072030155,0.034888271,4.317223333e-05,4.164380079e-05,1,1,0.347536533,-0.000012018,0.000031074,-0.839216146,0.521489304,0.268113659,-0.000007342,-0.000020340,-0.792104720,0.490320163
0.385000,-0.000420000,-0.041308214,0.038546089,-0.310851000,-0.071860822,0.034888271,9.480586856e-05,8.428161195e-05,1,1,0.346993913,-0.000011872,0.000030722,-0.838580283,0.521191770,0.268382022,-0.000007281,-0.000020169,-0.792185170,0.490405702
0.387500,-0.000420000,-0.041484851,0.038451811,-0.310851000,-0.071684185,0.034888271,4.682966515e-05,4.150575448e-05,1,1,0.346041696,-0.000011614,0.000030106,-0.837464339,0.520669789,0.268849080,-0.000007174,-0.000019870,-0.792329143,0.490555723
0.390000,-0.000420000,-0.041668796,0.038356165,-0.310851000,-0.071500239,0.034888271,4.002385178e-05,9.009709824e-05,1,1,0.345227773,-0.000011395,0.000029580,-0.836521321,0.520226869,0.269134975,-0.000007109,-0.000019687,-0.792413406,0.490646437
0.392500,-0.000420000,-0.041860053,0.038259259,-0.310851000,-0.071308982,0.034888271,4.009833142e-05,4.480656010e-05,1,1,0.344421587,-0.000011178,0.000029057,-0.835599136,0.519791458,0.269637449,-0.000006995,-0.000019366,-0.792566417,0.490807301
0.395000,-0.000420000,-0.042058621,0.038161207,-0.310851000,-0.071110415,0.034888271,4.131740350e-05,9.729823044e-05,1,1,0.343600571,-0.000010958,0.000028525,-0.834670226,0.519350789,0.269945487,-0.000006925,-0.000019169,-0.792656283,0.490904777
0.397500,-0.000420000,-0.042264495,0.038062123,-0.310851000,-0.070904540,0.034888271,4.272140511e-05,4.833165828e-05,1,1,0.342761148,-0.000010735,0.000027981,-0.833730258,0.518902816,0.270485930,-0.000006801,-0.000018824,-0.792819254,0.491077342
0.400000,-0.000420000,-0.042477672,0.037962128,-0.310851000,-0.070691364,0.034888271,4.414882297e-05,4.163289046e-05,1,1,0.341903110,-0.000010506,0.000027424,-0.832779237,0.518447460,0.270951761,-0.000006695,-0.000018526,-0.792958893,0.491225837
0.402500,-0.000420000,-0.042698141,0.037861341,-0.310851000,-0.070470895,0.034888271,4.557198943e-05,4.173514072e-05,1,1,0.341026858,-0.000010274,0.000026855,-0.831817995,0.517985009,0.271417510,-0.000006589,-0.000018229,-0.793096521,0.491373731
0.405000,-0.000420000,-0.042925892,0.037759887,-0.310851000,-0.070243144,0.034888271,4.698577882e-05,4.293066395e-05,1,1,0.340132916,-0.000010038,0.000026274,-0.830847539,0.517515829,0.271895659,-0.000006480,-0.000017923,-0.793236597,0.491525211
0.407500,-0.000420000,-0.043160910,0.037657892,-0.310851000,-0.070008126,0.034888271,4.838888679e-05,4.430033697e-05,1,1,0.339221844,-0.000009798,0.000025682,-0.829868928,0.517040309,0.272388256,-0.000006367,-0.000017609,-0.793379961,0.491680996
0.410000,-0.000420000,-0.043403179,0.037555485,-0.310851000,-0.069765857,0.034888271,4.978067079e-05,4.569566687e-05,1,1,0.338294225,-0.000009554,0.000025080,-0.828883253,0.516558856,0.272895584,-0.000006251,-0.000017285,-0.793526699,0.491841175
0.412500,-0.000420000,-0.043652678,0.037452797,-0.310851000,-0.069516357,0.034888271,5.116061543e-05,4.709226070e-05,1,1,0.337350657,-0.000009307,0.000024466,-0.827891632,0.516071887,0.273417619,-0.000006132,-0.000016951,-0.793676743,0.492005722
0.415000,-0.000420000,-0.043909386,0.037349963,-0.310851000,-0.069259649,0.034888271,5.252824202e-05,4.848572391e-05,1,1,0.336391757,-0.000009056,0.000023843,-0.826895208,0.515579834,0.273954279,-0.000006010,-0.000016609,-0.793829990,0.492174588
0.417500,-0.000420000,-0.044173278,0.037247119,-0.310851000,-0.068995757,0.034888271,5.388309361e-05,4.987488703e-05,1,1,0.335418161,-0.000008803,0.000023209,-0.825895150,0.515083141,0.274505467,-0.000005884,-0.000016257,-0.793986327,0.492347715
0.420000,-0.000420000,-0.044444325,0.037144403,-0.310851000,-0.068724710,0.034888271,5.522473296e-05,5.125910131e-05,1,1,0.334430517,-0.000008547,0.000022567,-0.824892649,0.514582265,0.275071077,-0.000005754,-0.000015896,-0.794145635,0.492525045
0.422500,-0.000420000,-0.044722497,0.037041955,-0.310851000,-0.068446538,0.034888271,5.655274255e-05,5.263780236e-05,1,1,0.333429494,-0.000008288,0.000021915,-0.823888926,0.514077675,0.275650998,-0.000005622,-0.000015525,-0.794307794,0.492706514
0.425000,-0.000420000,-0.045007760,0.036939920,-0.310851000,-0.068161275,0.034888271,5.786672492e-05,5.401043984e-05,1,1,0.332415776,-0.000008027,0.000021256,-0.822885220,0.513569854,0.276245108,-0.000005486,-0.000015146,-0.794472678,0.492892057
0.427500,-0.000420000,-0.045300078,0.036838443,-0.310851000,-0.067868957,0.034888271,5.916630331e-05,5.537646604e-05,1,1,0.331390063,-0.000007763,0.000020588,-0.821882799,0.513059298,0.276853282,-0.000005346,-0.000014758,-0.794640156,0.493081607
0.430000,-0.000420000,-0.045599412,0.036737670,-0.310851000,-0.067569623,0.034888271,6.045112219e-05,5.673533428e-05,1,1,0.330353070,-0.000007498,0.000019913,-0.820882953,0.512546516,0.277475386,-0.000005204,-0.000014361,-0.794810097,0.493275093
0.432500,-0.000420000,-0.045905720,0.036637752,-0.310851000,-0.067263315,0.034888271,6.172084757e-05,5.808649863e-05,1,1,0.329305531,-0.000007230,0.000019231,-0.819886994,0.512032030,0.278111281,-0.000005058,-0.000013955,-0.794982364,0.493472442
0.435000,-0.000420000,-0.046218958,0.036538839,-0.310851000,-0.066950078,0.034888271,6.297516769e-05,5.942941409e-05,1,1,0.328248194,-0.000006962,0.000018543,-0.818896262,0.511516374,0.278760821,-0.000004909,-0.000013540,-0.795156819,0.493673580
0.437500,-0.000420000,-0.046539078,0.036441085,-0.310851000,-0.066629958,0.034888271,6.421379347e-05,6.076353670e-05,1,1,0.327181822,-0.000006691,0.000017849,-0.817912115,0.511000098,0.279423851,-0.000004757,-0.000013117,-0.795333318,0.493878427
0.440000,-0.000420000,-0.046866029,0.036344647,-0.310851000,-0.066303006,0.034888271,6.543645898e-05,6.208832359e-05,1,1,0.326107197,-0.000006420,0.000017149,-0.816935941,0.510483762,0.280100213,-0.000004601,-0.000012685,-0.795511716,0.494086906
0.442500,-0.000420000,-0.047199761,0.036249680,-0.310851000,-0.065969275,0.034888271,6.664292205e-05,6.340323332e-05,1,1,0.325025113,-0.000006148,0.000016445,-0.815969147,0.509967942,0.280789741,-0.000004443,-0.000012245,-0.795691867,0.494298932
0.445000,-0.000420000,-0.047540215,0.036156346,-0.310851000,-0.065628820,0.034888271,6.783296474e-05,6.470772587e-05,1,1,0.323936383,-0.000005874,0.000015736,-0.815013166,0.509453227,0.281492263,-0.000004281,-0.000011796,-0.795873617,0.494514422
0.447500,-0.000420000,-0.047887335,0.036064806,-0.310851000,-0.065281700,0.034888271,6.900639387e-05,6.600126292e-05,1,1,0.322841835,-0.000005601,0.000015023,-0.814069458,0.508940220,0.282207601,-0.000004117,-0.000011339,-0.796056816,0.494733290
0.450000,-0.000420000,-0.048241059,0.035975224,-0.310851000,-0.064927977,0.034888271,7.016304175e-05,6.728330793e-05,1,1,0.321742313,-0.000005327,0.000014308,-0.813139505,0.508429539,0.282935569,-0.000003949,-0.000010874,-0.796241306,0.494955447
0.452500,-0.000420000,-0.048601323,0.035887767,-0.310851000,-0.064567713,0.034888271,7.130276655e-05,6.855332640e-05,1,1,0.320638681,-0.000005053,0.000013589,-0.812224819,0.507921816,0.283675978,-0.000003778,-0.000010401,-0.796426931,0.495180802
0.455000,-0.000420000,-0.048968060,0.035802604,-0.310851000,-0.064200975,0.034888271,7.242545330e-05,6.981078595e-05,1,1,0.319531816,-0.000004779,0.000012869,-0.811326937,0.507417698,0.284428630,-0.000003605,-0.000009921,-0.796613531,0.495409264
0.457500,-0.000420000,-0.049341202,0.035719905,-0.310851000,-0.063827833,0.034888271,7.353101451e-05,7.105515659e-05,1,1,0.318422616,-0.000004505,0.000012147,-0.810447429,0.506917849,0.285193324,-0.000003428,-0.000009432,-0.796800945,0.495640737
0.460000,-0.000420000,-0.049720677,0.035639847,-0.310851000,-0.063448359,0.034888271,7.461939103e-05,7.228591080e-05,1,1,0.317312000,-0.000004232,0.000011425,-0.809587895,0.506422951,0.285969852,-0.000003249,-0.000008936,-0.796989009,0.495875127
0.462500,-0.000420000,-0.050106409,0.035562606,-0.310851000,-0.063062627,0.034888271,7.569055306e-05,7.350252380e-05,1,1,0.316200905,-0.000003960,0.000010702,-0.808749971,0.505933701,0.286758000,-0.000003067,-0.000008432,-0.797177559,0.496112335
0.465000,-0.000420000,-0.050498321,0.035488364,-0.310851000,-0.062670714,0.034888271,7.674450138e-05,7.470447366e-05,1,1,0.315090293,-0.000003688,0.000009980,-0.807935333,0.505450819,0.287557548,-0.000002882,-0.000007921,-0.797366429,0.496352262
0.467500,-0.000420000,-0.050896334,0.035417307,-0.310851000,-0.062272701,0.034888271,7.778126878e-05,7.589124151e-05,1,1,0.313981149,-0.000003418,0.000009258,-0.807145700,0.504975044,0.288368272,-0.000002694,-0.000007402,-0.797555452,0.496594808
0.470000,-0.000420000,-0.051300365,0.035349626,-0.310851000,-0.061868671,0.034888271,7.880092176e-05,7.706231169e-05,1,1,0.312874488,-0.000003149,0.000008539,-0.806382841,0.504507142,0.289189942,-0.000002503,-0.000006877,-0.797744461,0.496839871
0.472500,-0.000420000,-0.051710328,0.035285518,-0.310851000,-0.061458708,0.034888271,7.980356263e-05,7.821717197e-05,1,1,0.311771357,-0.000002882,0.000007822,-0.805648588,0.504047903,0.290022323,-0.000002310,-0.000006344,-0.797933286,0.497087348
0.475000,-0.000420000,-0.052126135,0.035225188,-0.310851000,-0.061042900,0.034888271,8.078933214e-05,7.935531370e-05,1,1,0.310672842,-0.000002616,0.000007108,-0.804944839,0.503598152,0.290865175,-0.000002115,-0.000005805,-0.798121759,0.497337133
0.477500,-0.000420000,-0.052547697,0.035168847,-0.310851000,-0.060621338,0.034888271,8.175841297e-05,8.047623202e-05,1,1,0.309580072,-0.000002353,0.000006398,-0.804273582,0.503158751,0.291718252,-0.000001916,-0.000005259,-0.798309711,0.497589122
0.480000,-0.000420000,-0.052974921,0.035116721,-0.310851000,-0.060194115,0.034888271,8.271103381e-05,8.157942601e-05,1,1,0.308494234,-0.000002092,0.000005692,-0.803636909,0.502730607,0.292581305,-0.000001716,-0.000004706,-0.798496972,0.497843207
0.482500,-0.000420000,-0.053407709,0.035069049,-0.310851000,-0.059761326,0.034888271,8.364747495e-05,8.266439882e-05,1,1,0.307416582,-0.000001834,0.000004992,-0.803037051,0.502314686,0.293454078,-0.000001513,-0.000004147,-0.798683372,0.498099281
0.485000,-0.000420000,-0.053845966,0.035026088,-0.310851000,-0.059323070,0.034888271,8.456807522e-05,8.373065797e-05,1,1,0.306348465,-0.000001578,0.000004299,-0.802476414,0.501912029,0.294336314,-0.000001307,-0.000003582,-0.798868743,0.498357234
0.487500,-0.000420000,-0.054289589,0.034988125,-0.310851000,-0.058879446,0.034888271,8.547324076e-05,8.477771541e-05,1,1,0.305291348,-0.000001326,0.000003613,-0.801957650,0.501523776,0.295227747,-0.000001099,-0.000003011,-0.799052915,0.498616958
0.490000,-0.000420000,-0.054738476,0.034955482,-0.310851000,-0.058430559,0.034888271,8.636345494e-05,8.580508778e-05,1,1,0.304246874,-0.000001077,0.000002935,-0.801483757,0.501151211,0.296128111,-0.000000889,-0.000002433,-0.799235721,0.498878343
0.492500,-0.000420000,-0.055192522,0.034928541,-0.310851000,-0.057976513,0.034888271,8.723928596e-05,8.681229651e-05,1,1,0.303216944,-0.000000832,0.000002267,-0.801058259,0.500795830,0.297037133,-0.000000677,-0.000001850,-0.799416993,0.499141277
0.495000,-0.000420000,-0.055651618,0.034907787,-0.310851000,-0.057517417,0.034888271,8.810137272e-05,8.779886804e-05,1,1,0.302203896,-0.000000591,0.000001610,-0.800685567,0.500459492,0.297954538,-0.000000463,-0.000001262,-0.799596565,0.499405650
0.497500,-0.000420000,-0.056115654,0.034893905,-0.310851000,-0.057053381,0.034888271,8.895027235e-05,8.876433398e-05,1,1,0.301210935,-0.000000356,0.000000966,-0.800371854,0.500144766,0.298880045,-0.000000246,-0.000000668,-0.799774272,0.499671349
0.500000,-0.000420000,-0.056584518,0.034888271,-0.310851000,-0.056584518,0.034888271,8.978450522e-05,8.970823127e-05,1,1,0.300244063,-0.000000127,0.000000339,-0.800129002,0.499856535,0.299813371,-0.000000028,-0.000000069,-0.799949951,0.499938263
0.502500,-0.000420000,-0.057058093,0.034888271,-0.310851000,-0.056110942,0.034893962,9.064506795e-05,9.067595258e-05,1,1,0.299294484,0.000000098,-0.000000276,-0.799938696,0.499587458,0.300776086,0.000000198,0.000000549,-0.800168021,0.500224325
0.505000,-0.000420000,-0.057536264,0.034888271,-0.310851000,-0.055632772,0.034908181,9.153874539e-05,9.168402537e-05,1,1,0.298339072,0.000000324,-0.000000895,-0.799753373,0.499318349,0.301782861,0.000000433,0.000001196,-0.800458733,0.500541729
0.507500,-0.000420000,-0.058018909,0.034888271,-0.310851000,-0.055150126,0.034929768,9.242071799e-05,9.269994763e-05,1,1,0.297373693,0.000000551,-0.000001520,-0.799564210,0.499045688,0.302831724,0.000000679,0.000001870,-0.800818384,0.500888911
0.510000,-0.000420000,-0.058505908,0.034888271,-0.310851000,-0.054663128,0.034958225,9.328224681e-05,9.371329961e-05,1,1,0.296397736,0.000000781,-0.000002151,-0.799369526,0.498768845,0.303920157,0.000000935,0.000002570,-0.801242214,0.501263861
0.512500,-0.000420000,-0.058997135,0.034888271,-0.310851000,-0.054171900,0.034993245,9.412107664e-05,9.472088870e-05,1,1,0.295411248,0.000001014,-0.000002789,-0.799168956,0.498487728,0.305046265,0.000001200,0.000003295,-0.801726756,0.501665089
0.515000,-0.000420000,-0.059492465,0.034888271,-0.310851000,-0.053676571,0.035034613,9.493639049e-05,9.572119913e-05,1,1,0.294414400,0.000001248,-0.000003433,-0.798962383,0.498202343,0.306208614,0.000001475,0.000004043,-0.802269485,0.502091478
0.517500,-0.000420000,-0.059991768,0.034888271,-0.310851000,-0.053177267,0.035082162,9.572768928e-05,9.671304219e-05,1,1,0.293407394,0.000001484,-0.000004084,-0.798749739,0.497912718,0.307406042,0.000001758,0.000004813,-0.802868446,0.502542137
0.520000,-0.000420000,-0.060494915,0.034888271,-0.310851000,-0.052674121,0.035135758,9.649454568e-05,9.769530175e-05,1,1,0.292390440,0.000001723,-0.000004740,-0.798530970,0.497618888,0.308637558,0.000002050,0.000005606,-0.803522033,0.503016309
0.522500,-0.000420000,-0.061001771,0.034888271,-0.310851000,-0.052167264,0.035195289,9.723655197e-05,9.866689285e-05,1,1,0.291363757,0.000001964,-0.000005403,-0.798306025,0.497320889,0.309902271,0.000002351,0.000006421,-0.804228861,0.503513324
0.525000,-0.000420000,-0.061512203,0.034888271,-0.310851000,-0.051656832,0.035260652,9.795330947e-05,9.962675344e-05,1,1,0.290327570,0.000002206,-0.000006071,-0.798074862,0.497018760,0.311199362,0.000002661,0.000007257,-0.804987688,0.504032562
0.527500,-0.000420000,-0.062026074,0.034888271,-0.310851000,-0.051142962,0.035331759,9.864442647e-05,4.080593451e-05,1,1,0.289282108,0.000002450,-0.000006745,-0.797837440,0.496712545,0.312688706,0.000003019,0.000008217,-0.805906378,0.504641946
0.530000,-0.000420000,-0.062543243,0.034888271,-0.310851000,-0.050625792,0.035408523,9.930951791e-05,9.179819812e-05,1,1,0.288227609,0.000002697,-0.000007424,-0.797593727,0.496402288,0.313915149,0.000003312,0.000009008,-0.806677726,0.505147664
0.532500,-0.000420000,-0.063063572,0.034888271,-0.310851000,-0.050105464,0.035490863,9.994820555e-05,4.103213621e-05,1,1,0.287164315,0.000002944,-0.000008109,-0.797343693,0.496088036,0.315447601,0.000003684,0.000009997,-0.807688449,0.505792452
0.535000,-0.000420000,-0.063586916,0.034888271,-0.310851000,-0.049582120,0.035578700,4.054776384e-05,9.333760754e-05,1,1,0.285964103,0.000003225,-0.000008881,-0.797047274,0.495730537,0.316725623,0.000003991,0.000010822,-0.808544535,0.506333541
0.537500,-0.000420000,-0.064113131,0.034888271,-0.310851000,-0.049055905,0.035671957,9.147716703e-05,4.186212449e-05,1,1,0.284990255,0.000003451,-0.000009508,-0.796815462,0.495441963,0.318321879,0.000004381,0.000011853,-0.809659392,0.507021627
0.540000,-0.000420000,-0.064642070,0.034888271,-0.310851000,-0.048526965,0.035770555,4.041455546e-05,9.491781672e-05,1,1,0.283791913,0.000003730,-0.000010279,-0.796512419,0.495082541,0.319650418,0.000004703,0.000012712,-0.810597888,0.507596851
0.542500,-0.000420000,-0.065173585,0.034888271,-0.310851000,-0.047995450,0.035874416,9.235673233e-05,4.268140788e-05,1,1,0.282805210,0.000003958,-0.000010913,-0.796269917,0.494787597,0.321307576,0.000005111,0.000013783,-0.811812722,0.508325936
0.545000,-0.000420000,-0.065707527,0.034888271,-0.310851000,-0.047461509,0.035983460,4.085076021e-05,9.643218060e-05,1,1,0.281590337,0.000004241,-0.000011694,-0.795952885,0.494419864,0.322684050,0.000005447,0.000014674,-0.812830096,0.508933340
0.547500,-0.000420000,-0.066243742,0.034888271,-0.310851000,-0.046925293,0.036097606,9.323315587e-05,4.347972230e-05,1,1,0.280590540,0.000004471,-0.000012335,-0.795699081,0.494118317,0.324398862,0.000005873,0.000015783,-0.814140446,0.509700935
0.550000,-0.000420000,-0.066782078,0.034888271,-0.310851000,-0.046386957,0.036216769,4.124983389e-05,9.787245977e-05,1,1,0.279360131,0.000004756,-0.000013125,-0.795367954,0.493742475,0.325820606,0.000006224,0.000016705,-0.815233074,0.510338506
0.552500,-0.000420000,-0.067322380,0.034888271,-0.310851000,-0.045846655,0.036340865,9.400647094e-05,4.425326156e-05,1,1,0.278348260,0.000004988,-0.000013773,-0.795102879,0.493434569,0.327589736,0.000006667,0.000017851,-0.816634362,0.511142052
0.555000,-0.000420000,-0.067864490,0.034888271,-0.310851000,-0.045304545,0.036469803,4.160441491e-05,9.923149949e-05,1,1,0.277103597,0.000005276,-0.000014571,-0.794757745,0.493050938,0.329054003,0.000007032,0.000018800,-0.817798504,0.511807716
0.557500,-0.000420000,-0.068408251,0.034888271,-0.310851000,-0.044760784,0.036603493,9.467338329e-05,4.499823686e-05,1,1,0.276080727,0.000005510,-0.000015226,-0.794481491,0.492736946,0.330874002,0.000007493,0.000019981,-0.819285993,0.512644573
0.560000,-0.000420000,-0.068953503,0.034888271,-0.310851000,-0.044215533,0.036741840,4.191347334e-05,4.171509121e-05,1,1,0.274823150,0.000005799,-0.000016030,-0.794122501,0.492345878,0.332561459,0.000007921,0.000021077,-0.820680311,0.513422908
0.562500,-0.000420000,-0.069500084,0.034888271,-0.310851000,-0.043668952,0.036884746,9.523172706e-05,4.180143680e-05,1,1,0.273790400,0.000006035,-0.000016691,-0.793835206,0.492026094,0.334258753,0.000008353,0.000022180,-0.822100086,0.514209117
0.565000,-0.000420000,-0.070047831,0.034888271,-0.310851000,-0.043121204,0.037032112,4.217609427e-05,4.210604745e-05,1,1,0.272521301,0.000006326,-0.000017502,-0.793462572,0.491627967,0.335975339,0.000008793,0.000023297,-0.823553956,0.515007714
0.567500,-0.000420000,-0.070596582,0.034888271,-0.310851000,-0.042572454,0.037183832,9.567946609e-05,4.241759715e-05,1,1,0.271479835,0.000006563,-0.000018167,-0.793164426,0.491302710,0.337711116,0.000009240,0.000024426,-0.825041540,0.515818453
0.570000,-0.000420000,-0.071146169,0.034888271,-0.310851000,-0.042022866,0.037339800,4.239141347e-05,4.272141357e-05,1,1,0.270200659,0.000006855,-0.000018983,-0.792778422,0.490897930,0.339465272,0.000009694,0.000025569,-0.826561706,0.516640715
0.572500,-0.000420000,-0.071696428,0.034888271,-0.310851000,-0.041472607,0.037499905,9.601468644e-05,4.301608788e-05,1,1,0.269151681,0.000007092,-0.000019652,-0.792469665,0.490567540,0.341236936,0.000010155,0.000026724,-0.828113242,0.517473845
0.575000,-0.000420000,-0.072247190,0.034888271,-0.310851000,-0.040921845,0.037664032,4.255861793e-05,4.330111592e-05,1,1,0.267863924,0.000007385,-0.000020473,-0.792070630,0.490156543,0.343025214,0.000010623,0.000027891,-0.829694910,0.518317180
0.577500,-0.000420000,-0.072798286,0.034888271,-0.310851000,-0.040370750,0.037832064,9.623559957e-05,4.357605842e-05,1,1,0.266808680,0.000007623,-0.000021145,-0.791751555,0.489821385,0.344829203,0.000011098,0.000029069,-0.831305453,0.519170050
0.580000,-0.000420000,-0.073349546,0.034888271,-0.310851000,-0.039819490,0.038003881,4.267694712e-05,4.384048411e-05,1,1,0.265513888,0.000007917,-0.000021969,-0.791339894,0.489404634,0.346647984,0.000011580,0.000030258,-0.832943593,0.520031781
0.582500,-0.000420000,-0.073900798,0.034888271,-0.310851000,-0.039268237,0.038179358,9.634054525e-05,4.409396635e-05,1,1,0.264453663,0.000008155,-0.000022644,-0.791010845,0.489065097,0.348480625,0.000012069,0.000031456,-0.834608033,0.520901692
0.585000,-0.000420000,-0.074451871,0.034888271,-0.310851000,-0.038717164,0.038358367,4.274569424e-05,4.433608360e-05,1,1,0.263153433,0.000008449,-0.000023470,-0.790587028,0.488643086,0.350326184,0.000012563,0.000032664,-0.836297458,0.521779102
0.587500,-0.000420000,-0.075002592,0.034888271,-0.310851000,-0.038166443,0.038540778,9.632799454e-05,4.456641995e-05,1,1,0.262089553,0.000008687,-0.000024146,-0.790248405,0.488299581,0.352183705,0.000013064,0.000033881,-0.838010535,0.522663324
0.590000,-0.000420000,-0.075552786,0.034888271,-0.310851000,-0.037616249,0.038726457,4.276420751e-05,4.478456588e-05,1,1,0.260785528,0.000008980,-0.000024973,-0.789812971,0.487872833,0.354052221,0.000013571,0.000035107,-0.839745917,0.523553670
0.592500,-0.000420000,-0.076102279,0.034888271,-0.310851000,-0.037066756,0.038915266,9.619655268e-05,4.499011886e-05,1,1,0.259719355,0.000009218,-0.000025650,-0.789465227,0.487525797,0.355930756,0.000014084,0.000036340,-0.841502239,0.524449449
0.595000,-0.000420000,-0.076650894,0.034888271,-0.310851000,-0.036518141,0.039107065,4.273189139e-05,4.518268384e-05,1,1,0.258413224,0.000009510,-0.000026478,-0.789018781,0.487094865,0.357818320,0.000014603,0.000037580,-0.843278123,0.525349972
0.597500,-0.000420000,-0.077198456,0.034888271,-0.310851000,-0.035970579,0.039301711,9.594496179e-05,4.536187399e-05,1,1,0.257346158,0.000009747,-0.000027154,-0.788662423,0.486744756,0.359713916,0.000015127,0.000038827,-0.845072178,0.526254546
0.600000,-0.000420000,-0.077744787,0.034888271,-0.310851000,-0.035424249,0.039499056,4.264820786e-05,4.552731110e-05,1,1,0.256039654,0.000010039,-0.000027981,-0.788205638,0.486310222,0.361616538,0.000015656,0.000040079,-0.846882999,0.527162482
0.602500,-0.000420000,-0.078289709,0.034888271,-0.310851000,-0.034879327,0.039698953,9.557210353e-05,4.567862620e-05,1,1,0.254973129,0.000010275,-0.000028656,-0.787841227,0.485957526,0.363525169,0.000016190,0.000041337,-0.848709172,0.528073092
0.605000,-0.000420000,-0.078833044,0.034888271,-0.310851000,-0.034335992,0.039901248,4.251267775e-05,4.581546001e-05,1,1,0.253668030,0.000010564,-0.000029481,-0.787374843,0.485520000,0.365438787,0.000016729,0.000042599,-0.850549272,0.528985688
0.607500,-0.000420000,-0.079374613,0.034888271,-0.310851000,-0.033794423,0.040105787,9.507700173e-05,4.593746350e-05,1,1,0.252603513,0.000010799,-0.000030154,-0.787002996,0.485165223,0.367356359,0.000017273,0.000043865,-0.852401864,0.529899586
0.610000,-0.000420000,-0.079914236,0.034888271,-0.310851000,-0.033254800,0.040312412,4.232488207e-05,4.604429819e-05,1,1,0.251301633,0.000011086,-0.000030975,-0.786527820,0.484725347,0.369276849,0.000017821,0.000045135,-0.854265507,0.530814106
0.612500,-0.000420000,-0.080451733,0.034888271,-0.310851000,-0.032717302,0.040520964,9.445882485e-05,4.613563678e-05,1,1,0.250240623,0.000011319,-0.000031645,-0.786149203,0.484369020,0.371199212,0.000018373,0.000046407,-0.856138754,0.531728572
0.615000,-0.000420000,-0.080986926,0.034888271,-0.310851000,-0.032182110,0.040731279,4.208446340e-05,4.621116338e-05,1,1,0.248943818,0.000011604,-0.000032462,-0.785666107,0.483927463,0.373122398,0.000018929,0.000047681,-0.858020149,0.532642311
0.617500,-0.000420000,-0.081519631,0.034888271,-0.310851000,-0.031649404,0.040943194,9.371688850e-05,4.627057399e-05,1,1,0.247887843,0.000011834,-0.000033128,-0.785281443,0.483570138,0.375045354,0.000019488,0.000048957,-0.859908236,0.533554659
0.620000,-0.000420000,-0.082049670,0.034888271,-0.310851000,-0.031119365,0.041156541,4.179112740e-05,4.631357684e-05,1,1,0.246598001,0.000012117,-0.000033940,-0.784791365,0.483127597,0.376967020,0.000020051,0.000050233,-0.861801552,0.534464954
0.622500,-0.000420000,-0.082576861,0.034888271,-0.310851000,-0.030592175,0.041371152,9.285065776e-05,4.633989272e-05,1,1,0.245548618,0.000012344,-0.000034601,-0.784401424,0.482769851,0.378886335,0.000020616,0.000051509,-0.863698635,0.535372544
0.625000,-0.000420000,-0.083101022,0.034888271,-0.310851000,-0.030068013,0.041586855,4.144464439e-05,4.634925530e-05,1,1,0.244267661,0.000012623,-0.000035405,-0.783905363,0.482327050,0.380802234,0.000021184,0.000052785,-0.865598019,0.536276780
0.627500,-0.000420000,-0.083621973,0.034888271,-0.310851000,-0.029547063,0.041803479,9.185974961e-05,4.634141144e-05,1,1,0.243226449,0.000012849,-0.000036060,-0.783510967,0.481969480,0.382713648,0.000021755,0.000054059,-0.867498242,0.537177024
0.630000,-0.000420000,-0.084139532,0.034888271,-0.310851000,-0.029029504,0.042020848,9.950911767e-05,4.631612145e-05,1,1,0.242092893,0.000013094,-0.000036773,-0.783073242,0.481577545,0.384619508,0.000022327,0.000055331,-0.869397840,0.538072646
0.632500,-0.000420000,-0.084653518,0.034888271,-0.310851000,-0.028515518,0.042238787,4.135748150e-05,4.627315937e-05,1,1,0.240810334,0.000013371,-0.000037577,-0.782560362,0.481128561,0.386518746,0.000022901,0.000056600,-0.871295352,0.538963022
0.635000,-0.000420000,-0.085163749,0.034888271,-0.310851000,-0.028005286,0.042457119,9.022555171e-05,4.621231319e-05,1,1,0.239783210,0.000013592,-0.000038222,-0.782160147,0.480771917,0.388410289,0.000023477,0.000057866,-0.873189322,0.539847539
0.637500,-0.000420000,-0.085670046,0.034888271,-0.310851000,-0.027498989,0.042675665,9.754201429e-05,4.613338510e-05,1,1,0.238667324,0.000013832,-0.000038923,-0.781717469,0.480381959,0.390293069,0.000024053,0.000059128,-0.875078298,0.540725594
0.640000,-0.000420000,-0.086172226,0.034888271,-0.310851000,-0.026996809,0.042894245,9.810001972e-05,4.603619166e-05,1,1,0.237542102,0.000014073,-0.000039629,-0.781265136,0.479986765,0.392166016,0.000024630,0.000060385,-0.876960832,0.541596591
0.642500,-0.000420000,-0.086670110,0.034888271,-0.310851000,-0.026498925,0.043112679,9.753602753e-05,4.592056405e-05,1,1,0.236421488,0.000014313,-0.000040331,-0.780810240,0.479591655,0.394028063,0.000025207,0.000061636,-0.878835485,0.542459946
0.645000,-0.000420000,-0.087163517,0.034888271,-0.310851000,-0.026005519,0.043330786,9.676137256e-05,4.578634813e-05,1,1,0.235308260,0.000014551,-0.000041029,-0.780354454,0.479197763,0.395878144,0.000025784,0.000062881,-0.880700824,0.543315085
0.647500,-0.000420000,-0.087652267,0.034888271,-0.310851000,-0.025516769,0.043548384,9.592362311e-05,4.563340480e-05,1,1,0.234203278,0.000014786,-0.000041720,-0.779898344,0.478805455,0.397715197,0.000026361,0.000064119,-0.882555426,0.544161446
0.650000,-0.000420000,-0.088136180,0.034888271,-0.310851000,-0.025032855,0.043765290,9.504675532e-05,4.546160998e-05,1,1,0.233107078,0.000015019,-0.000042406,-0.779442255,0.478414956,0.399538163,0.000026937,0.000065350,-0.884397875,0.544998476
0.652500,-0.000420000,-0.088615079,0.034888271,-0.310851000,-0.024553956,0.043981320,9.413472519e-05,9.975484166e-05,1,1,0.232020136,0.000015250,-0.000043086,-0.778986498,0.478026467,0.401147652,0.000027441,0.000066430,-0.886016359,0.545742739
0.655000,-0.000420000,-0.089088784,0.034888271,-0.310851000,-0.024080251,0.044196293,9.318824854e-05,4.874191226e-05,1,1,0.230942923,0.000015477,-0.000043759,-0.778531375,0.477640186,0.403120664,0.000028073,0.000067761,-0.888021065,0.546648595
0.657500,-0.000420000,-0.089557118,0.034888271,-0.310851000,-0.023611917,0.044410024,9.220752398e-05,9.879706871e-05,1,1,0.229875905,0.000015702,-0.000044425,-0.778077193,0.477256314,0.404711977,0.000028578,0.000068832,-0.889625127,0.547380189
0.660000,-0.000420000,-0.090019904,0.034888271,-0.310851000,-0.023149132,0.044622331,9.119267573e-05,4.822948739e-05,1,1,0.228819551,0.000015925,-0.000045084,-0.777624265,0.476875051,0.406648370,0.000029205,0.000070142,-0.891595186,0.548262469
0.662500,-0.000420000,-0.090476964,0.034888271,-0.310851000,-0.022692071,0.044833031,9.014382579e-05,9.703228699e-05,1,1,0.227774331,0.000016144,-0.000045736,-0.777172905,0.476496601,0.408206118,0.000029705,0.000071193,-0.893166712,0.548973525
0.665000,-0.000420000,-0.090928125,0.034888271,-0.310851000,-0.022240911,0.045041942,8.906110581e-05,4.758949326e-05,1,1,0.226740714,0.000016360,-0.000046379,-0.776723432,0.476121168,0.410099076,0.000030326,0.000072479,-0.895093438,0.549828826
0.667500,-0.000420000,-0.091373210,0.034888271,-0.310851000,-0.021795826,0.045248881,8.794465920e-05,9.508023412e-05,1,1,0.225719168,0.000016574,-0.000047015,-0.776276169,0.475748959,0.411619436,0.000030820,0.000073508,-0.896627456,0.550517506
0.670000,-0.000420000,-0.091812046,0.034888271,-0.310851000,-0.021356989,0.045453668,8.679464151e-05,4.686450139e-05,1,1,0.224710164,0.000016784,-0.000047643,-0.775831441,0.475380181,0.413464447,0.000031432,0.000074766,-0.898504976,0.551343724
0.672500,-0.000420000,-0.092244461,0.034888271,-0.310851000,-0.020924575,0.045656123,8.561122068e-05,9.294854991e-05,1,1,0.223714168,0.000016991,-0.000048262,-0.775389577,0.475015042,0.414943800,0.000031918,0.000075770,-0.899996815,0.552008351
0.675000,-0.000420000,-0.092670282,0.034888271,-0.310851000,-0.020498753,0.045856067,8.439457714e-05,9.962330367e-05,1,1,0.222731650,0.000017194,-0.000048872,-0.774950910,0.474653754,0.416539493,0.000032445,0.000076852,-0.901609791,0.552727088
0.677500,-0.000420000,-0.093089339,0.034888271,-0.310851000,-0.020079697,0.046053322,8.314490403e-05,9.963179266e-05,1,1,0.221763077,0.000017395,-0.000049473,-0.774515772,0.474296528,0.418134211,0.000032975,0.000077933,-0.903222802,0.553443343
0.680000,-0.000420000,-0.093501461,0.034888271,-0.310851000,-0.019667574,0.046247712,8.186240740e-05,9.848734866e-05,1,1,0.220808913,0.000017591,-0.000050065,-0.774084500,0.473943574,0.419706955,0.000033501,0.000079002,-0.904812801,0.554146731
0.682500,-0.000420000,-0.093906482,0.034888271,-0.310851000,-0.019262554,0.046439062,8.054730637e-05,9.710946969e-05,1,1,0.219869623,0.000017784,-0.000050647,-0.773657432,0.473595106,0.421253312,0.000034021,0.000080054,-0.906374616,0.554835073
0.685000,-0.000420000,-0.094304233,0.034888271,-0.310851000,-0.018864803,0.046627199,7.919983340e-05,9.565210759e-05,1,1,0.218945670,0.000017974,-0.000051219,-0.773234906,0.473251337,0.422771739,0.000034534,0.000081090,-0.907906345,0.555507654
0.687500,-0.000420000,-0.094694548,0.034888271,-0.310851000,-0.018474487,0.046811952,7.782023452e-05,9.414135340e-05,1,1,0.218037513,0.000018160,-0.000051781,-0.772817263,0.472912481,0.424261200,0.000035040,0.000082107,-0.909406691,0.556164031
0.690000,-0.000420000,-0.095077264,0.034888271,-0.310851000,-0.018091771,0.046993151,7.640876972e-05,9.258190352e-05,1,1,0.217145612,0.000018342,-0.000052332,-0.772404844,0.472578750,0.425720757,0.000035538,0.000083107,-0.910874489,0.556803817
0.692500,-0.000420000,-0.095452217,0.034888271,-0.310851000,-0.017716818,0.047170631,7.496571321e-05,9.097488712e-05,1,1,0.216270422,0.000018520,-0.000052872,-0.771997990,0.472250359,0.427149501,0.000036028,0.000084087,-0.912308615,0.557426646
0.695000,-0.000420000,-0.095819246,0.034888271,-0.310851000,-0.017349790,0.047344227,7.349135384e-05,8.932085996e-05,1,1,0.215412396,0.000018694,-0.000053402,-0.771597042,0.471927521,0.428546540,0.000036510,0.000085047,-0.913707973,0.558032165
0.697500,-0.000420000,-0.096178190,0.034888271,-0.310851000,-0.016990845,0.047513777,7.198599565e-05,8.762030900e-05,1,1,0.214571984,0.000018864,-0.000053920,-0.771202341,0.471610451,0.429910995,0.000036983,0.000085987,-0.915071491,0.558620034
0.700000,-0.000420000,-0.096528891,0.034888271,-0.310851000,-0.016640144,0.047679122,7.044995829e-05,8.587373711e-05,1,1,0.213749632,0.000019030,-0.000054426,-0.770814229,0.471299359,0.431242003,0.000037446,0.000086906,-0.916398122,0.559189923
0.702500,-0.000420000,-0.096871193,0.034888271,-0.310851000,-0.016297842,0.047840105,6.888357774e-05,8.408167769e-05,1,1,0.212945783,0.000019192,-0.000054920,-0.770433043,0.470994459,0.432538716,0.000037900,0.000087804,-0.917686847,0.559741514
0.705000,-0.000420000,-0.097204941,0.034888271,-0.310851000,-0.015964095,0.047996573,6.728720699e-05,8.224469683e-05,1,1,0.212160877,0.000019350,-0.000055403,-0.770059121,0.470695962,0.433800305,0.000038344,0.000088679,-0.918936669,0.560274502
0.707500,-0.000420000,-0.097529980,0.034888271,-0.310851000,-0.015639055,0.048148377,6.566121706e-05,8.036339377e-05,1,1,0.211395349,0.000019503,-0.000055873,-0.769692801,0.470404077,0.435025952,0.000038776,0.000089532,-0.920146621,0.560788593
0.710000,-0.000420000,-0.097846160,0.034888271,-0.310851000,-0.015322875,0.048295370,6.400599791e-05,7.843840092e-05,1,1,0.210649628,0.000019652,-0.000056330,-0.769334415,0.470119014,0.436214859,0.000039198,0.000090361,-0.921315761,0.561283504
0.712500,-0.000420000,-0.098153332,0.034888271,-0.310851000,-0.015015704,0.048437407,6.232195980e-05,7.647038379e-05,1,1,0.209924142,0.000019797,-0.000056775,-0.768984294,0.469840981,0.437366246,0.000039609,0.000091166,-0.922443175,0.561758964
0.715000,-0.000420000,-0.098451347,0.034888271,-0.310851000,-0.014717689,0.048574350,6.060953483e-05,7.446004129e-05,1,1,0.209219310,0.000019937,-0.000057206,-0.768642767,0.469570182,0.438479350,0.000040007,0.000091947,-0.923527978,0.562214713
0.717500,-0.000420000,-0.098740060,0.034888271,-0.310851000,-0.014428976,0.048706063,5.886917873e-05,7.240810560e-05,1,1,0.208535549,0.000020073,-0.000057624,-0.768310158,0.469306823,0.439553424,0.000040394,0.000092703,-0.924569312,0.562650501
0.720000,-0.000420000,-0.099019327,0.034888271,-0.310851000,-0.014149708,0.048832414,5.710137319e-05,7.031534271e-05,1,1,0.207873269,0.000020204,-0.000058028,-0.767986789,0.469051104,0.440587742,0.000040767,0.000093433,-0.925566347,0.563066091
0.722500,-0.000420000,-0.099289007,0.034888271,-0.310851000,-0.013880028,0.048953274,5.530662863e-05,6.818255273e-05,1,1,0.207232874,0.000020330,-0.000058419,-0.767672976,0.468803226,0.441581597,0.000041128,0.000094137,-0.926518286,0.563461257
0.725000,-0.000420000,-0.099548960,0.034888271,-0.310851000,-0.013620075,0.049068521,5.348548769e-05,6.601057068e-05,1,1,0.206614763,0.000020452,-0.000058795,-0.767369032,0.468563385,0.442534301,0.000041475,0.000094815,-0.927424359,0.563835782
0.727500,-0.000420000,-0.099799050,0.034888271,-0.310851000,-0.013369985,0.049178034,5.163852950e-05,6.380026730e-05,1,1,0.206019326,0.000020568,-0.000059157,-0.767075264,0.468331776,0.443445186,0.000041809,0.000095465,-0.928283825,0.564189462
0.730000,-0.000420000,-0.100039142,0.034888271,-0.310851000,-0.013129894,0.049281700,4.976637516e-05,6.155255038e-05,1,1,0.205446951,0.000020680,-0.000059504,-0.766791973,0.468108590,0.444313604,0.000042128,0.000096088,-0.929095976,0.564522102
0.732500,-0.000420000,-0.100269102,0.034888271,-0.310851000,-0.012899934,0.049379407,4.786969455e-05,5.926836660e-05,1,1,0.204898015,0.000020787,-0.000059837,-0.766519457,0.467894017,0.445138928,0.000042433,0.000096683,-0.929860134,0.564833518
0.735000,-0.000420000,-0.100488800,0.034888271,-0.310851000,-0.012680235,0.049471049,4.594921527e-05,5.694870396e-05,1,1,0.204372890,0.000020889,-0.000060155,-0.766258005,0.467688240,0.445920551,0.000042723,0.000097249,-0.930575652,0.565123537
0.737500,-0.000420000,-0.100698110,0.034888271,-0.310851000,-0.012470926,0.049556527,4.400573390e-05,5.459459495e-05,1,1,0.203871940,0.000020987,-0.000060457,-0.766007901,0.467491442,0.446657890,0.000042998,0.000097786,-0.931241916,0.565391996
0.740000,-0.000420000,-0.100896904,0.034888271,-0.310851000,-0.012272131,0.049635745,9.908975903e-05,5.220712126e-05,1,1,0.203534772,0.000021052,-0.000060663,-0.765843626,0.467360975,0.447350382,0.000043258,0.000098294,-0.931858340,0.565638742
0.742500,-0.000420000,-0.101085062,0.034888271,-0.310851000,-0.012083974,0.049708611,4.923389676e-05,4.978741973e-05,1,1,0.202967540,0.000021163,-0.000061007,-0.765557396,0.467137698,0.447997486,0.000043502,0.000098771,-0.932424375,0.565863633
0.745000,-0.000420000,-0.101262461,0.034888271,-0.310851000,-0.011906574,0.049775040,9.267165747e-05,4.733669085e-05,1,1,0.202651767,0.000021224,-0.000061199,-0.765401262,0.467014591,0.448598684,0.000043730,0.000099219,-0.932939502,0.566066537
0.747500,-0.000420000,-0.101428985,0.034888271,-0.310851000,-0.011740051,0.049834952,4.480028994e-05,9.504398870e-05,1,1,0.202139198,0.000021323,-0.000061509,-0.765140159,0.466811486,0.448989519,0.000043873,0.000099503,-0.933262026,0.566203081
0.750000,-0.000420000,-0.101584518,0.034888271,-0.310851000,-0.011584518,0.049888271,8.213837204e-05,5.044339794e-05,1,1,0.201860267,0.000021377,-0.000061678,-0.765001353,0.466702126,0.449629617,0.000044114,0.000099976,-0.933784862,0.566416351
0.752500,-0.000420000,-0.101728948,0.034888271,-0.310851000,-0.011440088,0.049934929,9.282096542e-05,8.593574108e-05,1,1,0.201543393,0.000021438,-0.000061871,-0.764843365,0.466578104,0.449969892,0.000044240,0.000100227,-0.934048642,0.566527932
0.755000,-0.000420000,-0.101862165,0.034888271,-0.310851000,-0.011306870,0.049974862,9.264617905e-05,9.527248591e-05,1,1,0.201226369,0.000021500,-0.000062064,-0.764683883,0.466453568,0.450344548,0.000044377,0.000100500,-0.934327269,0.566650438
0.757500,-0.000420000,-0.101984062,0.034888271,-0.310851000,-0.011184973,0.050008012,8.805749800e-05,9.371780018e-05,1,1,0.200925001,0.000021558,-0.000062247,-0.764531084,0.466334670,0.450705108,0.000044509,0.000100765,-0.934581946,0.566764138
0.760000,-0.000420000,-0.102094536,0.034888271,-0.310851000,-0.011074499,0.050034325,8.165287320e-05,8.769379798e-05,1,1,0.200646007,0.000021612,-0.000062416,-0.764388787,0.466224135,0.451031377,0.000044629,0.000101007,-0.934795896,0.566860693
0.762500,-0.000420000,-0.102193486,0.034888271,-0.310851000,-0.010975550,0.050053756,7.448036843e-05,7.982082913e-05,1,1,0.200392334,0.000021661,-0.000062569,-0.764258820,0.466123206,0.451314827,0.000044734,0.000101221,-0.934961794,0.566936557
0.765000,-0.000420000,-0.102280812,0.034888271,-0.310851000,-0.010888224,0.050066265,6.696489328e-05,7.116903513e-05,1,1,0.200165362,0.000021705,-0.000062705,-0.764142108,0.466032490,0.451551755,0.000044822,0.000101404,-0.935076380,0.566990197
0.767500,-0.000420000,-0.102356420,0.034888271,-0.310851000,-0.010812616,0.050071816,5.928160315e-05,6.218191057e-05,1,1,0.199965812,0.000021743,-0.000062824,-0.764039160,0.465952317,0.451740459,0.000044893,0.000101555,-0.935138149,0.567020931
0.770000,-0.000420000,-0.102420217,0.034888271,-0.310851000,-0.010748818,0.050070381,5.150696276e-05,5.305399015e-05,1,1,0.199794128,0.000021775,-0.000062925,-0.763950293,0.465882893,0.451880083,0.000044947,0.000101673,-0.935146365,0.567028442
0.772500,-0.000420000,-0.102472114,0.034888271,-0.310851000,-0.010696921,0.050061937,4.368130083e-05,4.388982705e-05,1,1,0.199650632,0.000021802,-0.000063009,-0.763875733,0.465824367,0.451970131,0.000044983,0.000101759,-0.935100641,0.567012572
0.775000,-0.000420000,-0.102512026,0.034888271,-0.310851000,-0.010657010,0.050046469,8.314074955e-05,8.166104372e-05,1,1,0.199650632,0.000021802,-0.000063009,-0.763875733,0.465824367,0.451970131,0.000044983,0.000101759,-0.935100641,0.567012572
0.777500,-0.000420000,-0.102539868,0.034888271,-0.310851000,-0.010629168,0.050023966,4.679646613e-05,4.488392437e-05,1,1,0.199496574,0.000021831,-0.000063100,-0.763796973,0.465762106,0.451982402,0.000044987,0.000101795,-0.934885086,0.566938886
0.780000,-0.000420000,-0.102555561,0.034888271,-0.310851000,-0.010613474,0.049994425,6.226970529e-05,6.784364667e-05,1,1,0.199496574,0.000021831,-0.000063100,-0.763796973,0.465762106,0.451982402,0.000044987,0.000101795,-0.934885086,0.566938886
0.782500,-0.000420000,-0.102559029,0.034888271,-0.310851000,-0.010610007,0.049957849,6.570279221e-05,9.278486121e-05,1,1,0.199496574,0.000021831,-0.000063100,-0.763796973,0.465762106,0.451982402,0.000044987,0.000101795,-0.934885086,0.566938886
0.785000,-0.000420000,-0.102550197,0.034888271,-0.310851000,-0.010618838,0.049914246,5.696752413e-05,4.410019077e-05,1,1,0.199496574,0.000021831,-0.000063100,-0.763796973,0.465762106,0.451727093,0.000044891,0.000101657,-0.934264100,0.566709694
0.787500,-0.000420000,-0.102528996,0.034888271,-0.310851000,-0.010640039,0.049863632,3.618883645e-05,8.824443202e-05,1,1,0.199496574,0.000021831,-0.000063100,-0.763796973,0.465762106,0.451727093,0.000044891,0.000101657,-0.934264100,0.566709694
0.790000,-0.000420000,-0.102495360,0.034888271,-0.310851000,-0.010673676,0.049806028,9.115382472e-06,5.389236788e-05,1,1,0.199496574,0.000021831,-0.000063100,-0.763796973,0.465762106,0.451298292,0.000044735,0.000101403,-0.933493871,0.566407986
0.792500,-0.000420000,-0.102449223,0.034888271,-0.310851000,-0.010719812,0.049741464,4.562055001e-05,4.625284294e-05,1,1,0.199496574,0.000021831,-0.000063100,-0.763796973,0.465762106,0.450914177,0.000044598,0.000101177,-0.932868716,0.566152100
0.795000,-0.000420000,-0.102390526,0.034888271,-0.310851000,-0.010778509,0.049669974,4.076780195e-05,4.969431868e-05,1,1,0.199642393,0.000021801,-0.000063001,-0.763862092,0.465813340,0.450519727,0.000044459,0.000100942,-0.932273803,0.565902098
0.797500,-0.000420000,-0.102319213,0.034888271,-0.310851000,-0.010849822,0.049591598,4.380791895e-05,5.711809439e-05,1,1,0.199802806,0.000021767,-0.000062894,-0.763939888,0.465871838,0.450091606,0.000044309,0.000100684,-0.931660754,0.565641101
0.800000,-0.000420000,-0.102235230,0.034888271,-0.310851000,-0.010933805,0.049506386,5.006782618e-05,6.598386086e-05,1,1,0.199987039,0.000021728,-0.000062773,-0.764031690,0.465940172,0.449619949,0.000044144,0.000100396,-0.931009297,0.565362004
0.802500,-0.000420000,-0.102138528,0.034888271,-0.310851000,-0.011030508,0.049414391,5.765878909e-05,7.541527286e-05,1,1,0.200198916,0.000021684,-0.000062634,-0.764138181,0.466019444,0.449100622,0.000043963,0.000100077,-0.930311052,0.565061851
0.805000,-0.000420000,-0.102029059,0.034888271,-0.310851000,-0.011139977,0.049315674,6.581341106e-05,8.508522368e-05,1,1,0.200440051,0.000021634,-0.000062477,-0.764259689,0.466110136,0.448531940,0.000043764,0.000099724,-0.929562683,0.564739440
0.807500,-0.000420000,-0.101906781,0.034888271,-0.310851000,-0.011262254,0.049210301,7.421876812e-05,9.486149213e-05,1,1,0.200711144,0.000021578,-0.000062301,-0.764396356,0.466212452,0.447913270,0.000043548,0.000099337,-0.928763008,0.564394322
0.810000,-0.000420000,-0.101771655,0.034888271,-0.310851000,-0.011397380,0.049098348,8.274594657e-05,3.714236507e-05,1,1,0.201012511,0.000021516,-0.000062106,-0.764548225,0.466326482,0.446967066,0.000043219,0.000098753,-0.927551296,0.563863288
0.812500,-0.000420000,-0.101623645,0.034888271,-0.310851000,-0.011545390,0.048979893,9.134054151e-05,8.673945552e-05,1,1,0.201344305,0.000021448,-0.000061892,-0.764715281,0.466452256,0.446411288,0.000043027,0.000098405,-0.926857517,0.563559108
0.815000,-0.000420000,-0.101462719,0.034888271,-0.310851000,-0.011706316,0.048855024,9.997840475e-05,4.073301131e-05,1,1,0.201706605,0.000021373,-0.000061659,-0.764897480,0.466589778,0.445419704,0.000042684,0.000097786,-0.925625967,0.563016440
0.817500,-0.000420000,-0.101288848,0.034888271,-0.310851000,-0.011880187,0.048723834,4.255648118e-05,9.984866208e-05,1,1,0.202262011,0.000021258,-0.000061301,-0.765183724,0.466801944,0.444800266,0.000042471,0.000097394,-0.924871669,0.562685078
0.820000,-0.000420000,-0.101102009,0.034888271,-0.310851000,-0.012067027,0.048586420,9.073640466e-05,4.775580773e-05,1,1,0.202590310,0.000021190,-0.000061090,-0.765347040,0.466926011,0.443689205,0.000042088,0.000096693,-0.923521111,0.562090289
0.822500,-0.000420000,-0.100902179,0.034888271,-0.310851000,-0.012266857,0.048442890,4.523741796e-05,4.160454388e-05,1,1,0.203176451,0.000021069,-0.000060713,-0.765644745,0.467149150,0.442710626,0.000041752,0.000096076,-0.922344049,0.561568447
0.825000,-0.000420000,-0.100689341,0.034888271,-0.310851000,-0.012479695,0.048293355,4.004169510e-05,4.299054144e-05,1,1,0.203696430,0.000020961,-0.000060378,-0.765907653,0.467346581,0.441714691,0.000041411,0.000095446,-0.921158698,0.561042414
0.827500,-0.000420000,-0.100463481,0.034888271,-0.310851000,-0.012705554,0.048137933,4.128731728e-05,4.561729237e-05,1,1,0.204230326,0.000020850,-0.000060035,-0.766175134,0.467548835,0.440675667,0.000041056,0.000094784,-0.919932614,0.560498557
0.830000,-0.000420000,-0.100224590,0.034888271,-0.310851000,-0.012944445,0.047976748,4.357311039e-05,4.844651247e-05,1,1,0.204791782,0.000020734,-0.000059675,-0.766454999,0.467761435,0.439589402,0.000040685,0.000094090,-0.918660522,0.559934604
0.832500,-0.000420000,-0.099972662,0.034888271,-0.310851000,-0.013196374,0.047809931,4.603197169e-05,5.130379363e-05,1,1,0.205383088,0.000020612,-0.000059296,-0.766748660,0.467985334,0.438455524,0.000040298,0.000093362,-0.917342112,0.559350318
0.835000,-0.000420000,-0.099707693,0.034888271,-0.310851000,-0.013461342,0.047637617,4.852302544e-05,5.415863562e-05,1,1,0.206004570,0.000020484,-0.000058899,-0.767056243,0.468220639,0.437274348,0.000039896,0.000092601,-0.915978002,0.558745838
0.837500,-0.000420000,-0.099429686,0.034888271,-0.310851000,-0.013739349,0.047459949,5.102244443e-05,5.700471483e-05,1,1,0.206656208,0.000020349,-0.000058484,-0.767377607,0.468467296,0.436046328,0.000039478,0.000091807,-0.914569015,0.558121377
0.840000,-0.000420000,-0.099138645,0.034888271,-0.310851000,-0.014030390,0.047277075,5.352536750e-05,5.983982541e-05,1,1,0.207337908,0.000020209,-0.000058050,-0.767712551,0.468725215,0.434771972,0.000039046,0.000090981,-0.913116040,0.557477175
0.842500,-0.000420000,-0.098834580,0.034888271,-0.310851000,-0.014334456,0.047089148,5.603005905e-05,6.266249861e-05,1,1,0.208049552,0.000020062,-0.000057597,-0.768060850,0.468994293,0.433451815,0.000038598,0.000090123,-0.911620014,0.556813485
0.845000,-0.000420000,-0.098517503,0.034888271,-0.310851000,-0.014651533,0.046896329,5.853533738e-05,6.547142669e-05,1,1,0.208791010,0.000019909,-0.000057127,-0.768422263,0.469274418,0.432086424,0.000038137,0.000089233,-0.910081917,0.556130571
0.847500,-0.000420000,-0.098187431,0.034888271,-0.310851000,-0.014981605,0.046698783,6.104014890e-05,6.826536114e-05,1,1,0.209562135,0.000019750,-0.000056638,-0.768796536,0.469565472,0.430676396,0.000037662,0.000088311,-0.908502766,0.555428714
0.850000,-0.000420000,-0.097844384,0.034888271,-0.310851000,-0.015324651,0.046496680,6.354349164e-05,7.104309210e-05,1,1,0.210362770,0.000019585,-0.000056131,-0.769183401,0.469867327,0.429222355,0.000037173,0.000087359,-0.906883621,0.554708204
0.852500,-0.000420000,-0.097488388,0.034888271,-0.310851000,-0.015680647,0.046290196,6.604439700e-05,7.380344268e-05,1,1,0.211192741,0.000019414,-0.000055606,-0.769582578,0.470179849,0.427724952,0.000036672,0.000086376,-0.905225584,0.553969347
0.855000,-0.000420000,-0.097119470,0.034888271,-0.310851000,-0.016049566,0.046079512,6.854192232e-05,7.654526641e-05,1,1,0.212051866,0.000019236,-0.000055063,-0.769993772,0.470502896,0.426184869,0.000036157,0.000085363,-0.903529795,0.553212464
0.857500,-0.000420000,-0.096737662,0.034888271,-0.310851000,-0.016431373,0.045864816,7.103514600e-05,7.926744559e-05,1,1,0.212939944,0.000019053,-0.000054502,-0.770416677,0.470836320,0.424602815,0.000035631,0.000084321,-0.901797436,0.552437886
0.860000,-0.000420000,-0.096343001,0.034888271,-0.310851000,-0.016826034,0.045646299,7.352316400e-05,8.196889022e-05,1,1,0.213856767,0.000018863,-0.000053924,-0.770850976,0.471179965,0.422979528,0.000035093,0.000083250,-0.900029731,0.551645962
0.862500,-0.000420000,-0.095935526,0.034888271,-0.310851000,-0.017233509,0.045424156,7.600508698e-05,8.464853734e-05,1,1,0.214802111,0.000018667,-0.000053327,-0.771296337,0.471533669,0.421315771,0.000034543,0.000082151,-0.898227942,0.550837055
0.865000,-0.000420000,-0.095515282,0.034888271,-0.310851000,-0.017653753,0.045198591,7.848003806e-05,8.730535076e-05,1,1,0.215775739,0.000018465,-0.000052714,-0.771752417,0.471897262,0.419612339,0.000033983,0.000081024,-0.896393374,0.550011542
0.867500,-0.000420000,-0.095082316,0.034888271,-0.310851000,-0.018086719,0.044969809,8.094715109e-05,8.993832058e-05,1,1,0.216777403,0.000018257,-0.000052083,-0.772218863,0.472270569,0.417870051,0.000033413,0.000079870,-0.894527373,0.549169816
0.870000,-0.000420000,-0.094636680,0.034888271,-0.310851000,-0.018532355,0.044738020,8.340556928e-05,9.254646350e-05,1,1,0.217806842,0.000018043,-0.000051435,-0.772695310,0.472653407,0.416089755,0.000032832,0.000078689,-0.892631323,0.548312288
0.872500,-0.000420000,-0.094178429,0.034888271,-0.310851000,-0.018990606,0.044503440,8.585444396e-05,9.512882259e-05,1,1,0.218863783,0.000017823,-0.000050770,-0.773181381,0.473045587,0.414272328,0.000032242,0.000077482,-0.890706651,0.547439382
0.875000,-0.000420000,-0.093707624,0.034888271,-0.310851000,-0.019461412,0.044266289,8.829293388e-05,9.768446783e-05,1,1,0.219947941,0.000017597,-0.000050089,-0.773676690,0.473446916,0.412418670,0.000031643,0.000076250,-0.888754823,0.546551540
0.877500,-0.000420000,-0.093224326,0.034888271,-0.310851000,-0.019944709,0.044026790,9.072020431e-05,3.747404510e-05,1,1,0.221059018,0.000017365,-0.000049390,-0.774180839,0.473857193,0.410296593,0.000030954,0.000074832,-0.886519635,0.545543210
0.880000,-0.000420000,-0.092728605,0.034888271,-0.310851000,-0.020440430,0.043785171,9.313542665e-05,9.229660034e-05,1,1,0.222196705,0.000017127,-0.000048675,-0.774693423,0.474276212,0.408563905,0.000030402,0.000073675,-0.884725886,0.544722346
0.882500,-0.000420000,-0.092220530,0.034888271,-0.310851000,-0.020948505,0.043541663,9.553777802e-05,3.891636040e-05,1,1,0.223360682,0.000016883,-0.000047944,-0.775214025,0.474703761,0.406402915,0.000029708,0.000072227,-0.882480823,0.543703080
0.885000,-0.000420000,-0.091700178,0.034888271,-0.310851000,-0.021468858,0.043296502,9.792644078e-05,9.663259481e-05,1,1,0.224550616,0.000016634,-0.000047197,-0.775742220,0.475139625,0.404613781,0.000029144,0.000071031,-0.880651865,0.542859970
0.887500,-0.000420000,-0.091167626,0.034888271,-0.310851000,-0.022001409,0.043049928,3.941710577e-05,4.096262021e-05,1,1,0.225912188,0.000016346,-0.000046344,-0.776352116,0.475640823,0.402382968,0.000028435,0.000069534,-0.878362661,0.541813425
0.890000,-0.000420000,-0.090622959,0.034888271,-0.310851000,-0.022546077,0.042802182,9.282477486e-05,3.815075291e-05,1,1,0.227031659,0.000016111,-0.000045642,-0.776834165,0.476046604,0.400310739,0.000027781,0.000068138,-0.876257368,0.540849417
0.892500,-0.000420000,-0.090066262,0.034888271,-0.310851000,-0.023102773,0.042553510,4.068734680e-05,3.881668342e-05,1,1,0.228426154,0.000015816,-0.000044769,-0.777445341,0.476555896,0.398223150,0.000027126,0.000066731,-0.874152505,0.539881501
0.895000,-0.000420000,-0.089497626,0.034888271,-0.310851000,-0.023671409,0.042304162,9.694085314e-05,3.970507297e-05,1,1,0.229588621,0.000015572,-0.000044039,-0.777936946,0.476974474,0.396108609,0.000026467,0.000065305,-0.872035119,0.538903557
0.897500,-0.000420000,-0.088917147,0.034888271,-0.310851000,-0.024251889,0.042054390,4.253085815e-05,4.059857950e-05,1,1,0.231036292,0.000015264,-0.000043134,-0.778560307,0.477499734,0.393967331,0.000025803,0.000063860,-0.869905880,0.537915651
0.900000,-0.000420000,-0.088324921,0.034888271,-0.310851000,-0.024844114,0.041804449,3.980367102e-05,4.148216575e-05,1,1,0.232386288,0.000014978,-0.000042290,-0.779130718,0.477986589,0.391800415,0.000025136,0.000062398,-0.867766571,0.536918340
0.902500,-0.000420000,-0.087721052,0.034888271,-0.310851000,-0.025447983,0.041554596,4.040133865e-05,4.235441917e-05,1,1,0.233751019,0.000014688,-0.000041436,-0.779700324,0.478476583,0.389609047,0.000024465,0.000060918,-0.865619097,0.535912243
0.905000,-0.000420000,-0.087105645,0.034888271,-0.310851000,-0.026063390,0.041305092,4.120808979e-05,4.321486766e-05,1,1,0.235137995,0.000014393,-0.000040569,-0.780273329,0.478972690,0.387394442,0.000023791,0.000059423,-0.863465408,0.534897999
0.907500,-0.000420000,-0.086478810,0.034888271,-0.310851000,-0.026690225,0.041056200,4.202220095e-05,4.406311989e-05,1,1,0.236547353,0.000014093,-0.000039688,-0.780849653,0.479474902,0.385157838,0.000023115,0.000057913,-0.861307492,0.533876272
0.910000,-0.000420000,-0.085840661,0.034888271,-0.310851000,-0.027328375,0.040808185,4.283028408e-05,4.489880598e-05,1,1,0.237978696,0.000013787,-0.000038793,-0.781428837,0.479982976,0.382900493,0.000022437,0.000056388,-0.859147372,0.532847749
0.912500,-0.000420000,-0.085191314,0.034888271,-0.310851000,-0.027977721,0.040561314,4.363116021e-05,4.572157302e-05,1,1,0.239431582,0.000013475,-0.000037885,-0.782010388,0.480496651,0.380623692,0.000021758,0.000054851,-0.856987110,0.531813138
0.915000,-0.000420000,-0.084530891,0.034888271,-0.310851000,-0.028638144,0.040315857,4.442444784e-05,4.653108437e-05,1,1,0.240905558,0.000013159,-0.000036963,-0.782593805,0.481015661,0.378328737,0.000021078,0.000053301,-0.854828800,0.530773173
0.917500,-0.000420000,-0.083859517,0.034888271,-0.310851000,-0.029309518,0.040072086,4.520982175e-05,4.732701948e-05,1,1,0.242400160,0.000012837,-0.000036028,-0.783178586,0.481539738,0.376016954,0.000020397,0.000051741,-0.852674575,0.529728609
0.920000,-0.000420000,-0.083177320,0.034888271,-0.310851000,-0.029991715,0.039830273,4.598696459e-05,4.810907341e-05,1,1,0.243914918,0.000012511,-0.000035081,-0.783764224,0.482068610,0.373689690,0.000019717,0.000050170,-0.850526602,0.528680228
0.922500,-0.000420000,-0.082484433,0.034888271,-0.310851000,-0.030684602,0.039590694,4.675556361e-05,4.887695711e-05,1,1,0.245449351,0.000012179,-0.000034121,-0.784350211,0.482602007,0.371348310,0.000019037,0.000048590,-0.848387082,0.527628832
0.925000,-0.000420000,-0.081780990,0.034888271,-0.310851000,-0.031388045,0.039353625,4.751531039e-05,4.963039713e-05,1,1,0.247002972,0.000011842,-0.000033148,-0.784936038,0.483139654,0.368994202,0.000018358,0.000047001,-0.846258250,0.526575253
0.927500,-0.000420000,-0.081067132,0.034888271,-0.310851000,-0.032101903,0.039119346,4.826590070e-05,5.036913571e-05,1,1,0.248575288,0.000011500,-0.000032164,-0.785521193,0.483681277,0.366628773,0.000017681,0.000045406,-0.844142377,0.525520344
0.930000,-0.000420000,-0.080343002,0.034888271,-0.310851000,-0.032826033,0.038888134,4.900703451e-05,5.109293092e-05,1,1,0.250165796,0.000011154,-0.000031168,-0.786105165,0.484226600,0.364253449,0.000017005,0.000043804,-0.842041765,0.524464984
0.932500,-0.000420000,-0.079608746,0.034888271,-0.310851000,-0.033560289,0.038660273,4.973841588e-05,5.180155679e-05,1,1,0.251773986,0.000010802,-0.000030161,-0.786687441,0.484775346,0.361869677,0.000016332,0.000042198,-0.839958754,0.523410080
0.935000,-0.000420000,-0.078864514,0.034888271,-0.310851000,-0.034304521,0.038436043,5.045975297e-05,5.249480356e-05,1,1,0.253399344,0.000010447,-0.000029142,-0.787267509,0.485327238,0.359478921,0.000015662,0.000040587,-0.837895713,0.522356562
0.937500,-0.000420000,-0.078110461,0.034888271,-0.310851000,-0.035058575,0.038215730,5.117075799e-05,5.317247797e-05,1,1,0.255041347,0.000010086,-0.000028113,-0.787844860,0.485882000,0.357082666,0.000014994,0.000038973,-0.835855048,0.521305389
0.940000,-0.000420000,-0.077346742,0.034888271,-0.310851000,-0.035822293,0.037999618,5.187114725e-05,5.383440350e-05,1,1,0.256699466,0.000009721,-0.000027073,-0.788418982,0.486439353,0.354682416,0.000014331,0.000037358,-0.833839198,0.520257543
0.942500,-0.000420000,-0.076573520,0.034888271,-0.310851000,-0.036595515,0.037787995,5.256064110e-05,5.448042083e-05,1,1,0.258373169,0.000009352,-0.000026023,-0.788989369,0.486999020,0.352279691,0.000013671,0.000035742,-0.831850636,0.519214037
0.945000,-0.000420000,-0.075790958,0.034888271,-0.310851000,-0.037378078,0.037581149,5.323896397e-05,5.511038832e-05,1,1,0.260061914,0.000008978,-0.000024963,-0.789555516,0.487560724,0.349876035,0.000013016,0.000034126,-0.829891872,0.518175910
0.947500,-0.000420000,-0.074999223,0.034888271,-0.310851000,-0.038169812,0.037379370,5.390584437e-05,5.572418238e-05,1,1,0.261765157,0.000008601,-0.000023894,-0.790116919,0.488124189,0.347473009,0.000012365,0.000032511,-0.827965450,0.517144227
0.950000,-0.000420000,-0.074198486,0.034888271,-0.310851000,-0.038970549,0.037182950,5.456101490e-05,5.632169816e-05,1,1,0.263482348,0.000008219,-0.000022815,-0.790673079,0.488689138,0.345072195,0.000011719,0.000030899,-0.826073955,0.516120086
0.952500,-0.000420000,-0.073388922,0.034888271,-0.310851000,-0.039780113,0.036992182,5.520421236e-05,5.690285008e-05,1,1,0.265212932,0.000007834,-0.000021727,-0.791223502,0.489255299,0.342675195,0.000011079,0.000029291,-0.824220010,0.515104612
0.955000,-0.000420000,-0.072570708,0.034888271,-0.310851000,-0.040598327,0.036807364,5.583517763e-05,5.746757247e-05,1,1,0.266956350,0.000007444,-0.000020631,-0.791767696,0.489822396,0.340283637,0.000010445,0.000027687,-0.822406281,0.514098959
0.957500,-0.000420000,-0.071744024,0.034888271,-0.310851000,-0.041425011,0.036628795,5.645365580e-05,5.801582046e-05,1,1,0.268712040,0.000007051,-0.000019526,-0.792305175,0.490390159,0.337899168,0.000009817,0.000026089,-0.820635481,0.513104318
0.960000,-0.000420000,-0.070909055,0.034888271,-0.310851000,-0.042259980,0.036456776,5.705939622e-05,5.854757067e-05,1,1,0.270479434,0.000006654,-0.000018413,-0.792835459,0.490958316,0.335523465,0.000009195,0.000024499,-0.818910374,0.512121908
0.962500,-0.000420000,-0.070065987,0.034888271,-0.310851000,-0.043103048,0.036291615,5.765215246e-05,5.906282228e-05,1,1,0.272257963,0.000006254,-0.000017292,-0.793358073,0.491526600,0.333158234,0.000008580,0.000022916,-0.817233781,0.511152988
0.965000,-0.000420000,-0.069215011,0.034888271,-0.310851000,-0.043954024,0.036133624,5.823168244e-05,5.956159789e-05,1,1,0.274047052,0.000005850,-0.000016164,-0.793872548,0.492094743,0.330805210,0.000007972,0.000021343,-0.815608587,0.510198853
0.967500,-0.000420000,-0.068356320,0.034888271,-0.310851000,-0.044812715,0.035983121,5.879774835e-05,6.004394487e-05,1,1,0.275846126,0.000005444,-0.000015029,-0.794378423,0.492662482,0.328466169,0.000007372,0.000019781,-0.814037752,0.509260842
0.970000,-0.000420000,-0.067490110,0.034888271,-0.310851000,-0.045678925,0.035840429,5.935011683e-05,6.050993650e-05,1,1,0.277654605,0.000005034,-0.000013888,-0.794875243,0.493229555,0.326142928,0.000006779,0.000018230,-0.812524323,0.508340339
0.972500,-0.000420000,-0.066616581,0.034888271,-0.310851000,-0.046552455,0.035705886,5.988855886e-05,6.095967354e-05,1,1,0.279471910,0.000004621,-0.000012740,-0.795362562,0.493795702,0.323837359,0.000006194,0.000016692,-0.811071453,0.507438783
0.975000,-0.000420000,-0.065735934,0.034888271,-0.310851000,-0.047433101,0.035579836,6.041284997e-05,6.139328577e-05,1,1,0.281297456,0.000004205,-0.000011585,-0.795839941,0.494360667,0.321551393,0.000005618,0.000015169,-0.809682422,0.506557673
0.977500,-0.000420000,-0.064848375,0.034888271,-0.310851000,-0.048320660,0.035462643,6.092277013e-05,6.181093406e-05,1,1,0.283130661,0.000003787,-0.000010426,-0.796306951,0.494924196,0.319287041,0.000005050,0.000013662,-0.808360666,0.505698583
0.980000,-0.000420000,-0.063954112,0.034888271,-0.310851000,-0.049214924,0.035354689,6.141810389e-05,6.221281206e-05,1,1,0.284970937,0.000003366,-0.000009260,-0.796763170,0.495486039,0.317046411,0.000004491,0.000012171,-0.807109822,0.504863175
0.982500,-0.000420000,-0.063053355,0.034888271,-0.310851000,-0.050115680,0.035256382,6.189864035e-05,6.259914859e-05,1,1,0.286817698,0.000002943,-0.000008090,-0.797208189,0.496045948,0.314831737,0.000003942,0.000010699,-0.805933787,0.504053225
0.985000,-0.000420000,-0.062146319,0.034888271,-0.310851000,-0.051022716,0.035168167,6.236417328e-05,6.297020912e-05,1,1,0.288670358,0.000002517,-0.000006915,-0.797641606,0.496603679,0.312645424,0.000003402,0.000009248,-0.804836801,0.503270653
0.987500,-0.000420000,-0.061233219,0.034888271,-0.310851000,-0.051935816,0.035090538,6.281450107e-05,6.332629642e-05,1,1,0.290528328,0.000002090,-0.000005736,-0.798063031,0.497158993,0.310490107,0.000002872,0.000007818,-0.803823584,0.502517579
0.990000,-0.000420000,-0.060314275,0.034888271,-0.310851000,-0.052854761,0.035024063,6.324942688e-05,6.366774635e-05,1,1,0.292391020,0.000001660,-0.000004553,-0.798472084,0.497711652,0.308368762,0.000002353,0.000006411,-0.802899544,0.501796408
0.992500,-0.000420000,-0.059389707,0.034888271,-0.310851000,-0.053779329,0.034969424,6.366875856e-05,6.399491039e-05,1,1,0.294257848,0.000001229,-0.000003366,-0.798868397,0.498261424,0.306284882,0.000001845,0.000005031,-0.802071157,0.501109975
0.995000,-0.000420000,-0.058459740,0.034888271,-0.310851000,-0.054709295,0.034927499,6.407230876e-05,6.430809017e-05,1,1,0.296128225,0.000000796,-0.000002176,-0.799251613,0.498808080,0.304242853,0.000001349,0.000003680,-0.801346717,0.500461856
0.997500,-0.000420000,-0.057524601,0.034888271,-0.310851000,-0.055644435,0.034899567,6.445989495e-05,6.460725600e-05,1,1,0.298001564,0.000000361,-0.000000983,-0.799621388,0.499351397,0.302248864,0.000000866,0.000002362,-0.800738215,0.499857119
1.000000,-0.000420000,-0.056584518,0.034888271,-0.310851000,-0.056584518,0.034888271,6.483133948e-05,6.488952473e-05,1,1,0.299877281,-0.000000075,0.000000212,-0.799977389,0.499891152,0.300315152,0.000000399,0.000001084,-0.800269983,0.499305819
1.002500,-0.000420000,-0.055639723,0.034899624,-0.310851000,-0.057529313,0.034888271,6.524208523e-05,6.519906300e-05,1,1,0.301804054,-0.000000524,0.000001442,-0.800419679,0.500467761,0.298419790,-0.000000058,-0.000000167,-0.799896723,0.498789849
1.005000,-0.000420000,-0.054690449,0.034927893,-0.310851000,-0.058478586,0.034888271,6.569842844e-05,6.554954444e-05,1,1,0.303809420,-0.000000992,0.000002723,-0.801004934,0.501104043,0.296512335,-0.000000516,-0.000001424,-0.799514847,0.498267495
1.007500,-0.000420000,-0.053736933,0.034970651,-0.310851000,-0.059432103,0.034888271,6.615795946e-05,6.589026368e-05,1,1,0.305884539,-0.000001478,0.000004051,-0.801715681,0.501792740,0.294589103,-0.000000977,-0.000002689,-0.799116020,0.497735513
1.010000,-0.000420000,-0.052779412,0.035026807,-0.310851000,-0.060389623,0.034888271,6.661701746e-05,6.621646851e-05,1,1,0.308023454,-0.000001981,0.000005421,-0.802540422,0.502528988,0.292650143,-0.000001441,-0.000003963,-0.798699454,0.497193712
