triton-droids/embedded/trajectory_generation/ik_standing_leg_swing_fast_tall_faster.csv
t,pL_tx,pL_ty,pL_tz,pR_tx,pR_ty,pR_tz,ik_err_L,ik_err_R,ik_ok_L,ik_ok_R,left_hip1_joint,left_hip2_joint,left_thigh_joint,left_knee_joint,left_ankle_joint,right_hip1_joint,right_hip2_joint,right_thigh_joint,right_knee_joint,right_ankle_joint
0.000000,-0.000420000,-0.056584518,0.034888271,-0.310851000,-0.056584518,0.034888271,0.000000000e+00,0.000000000e+00,1,1,0.300000000,0.000000000,0.000000000,-0.800000000,0.500000000,0.300000000,0.000000000,0.000000000,-0.800000000,0.500000000
0.002500,-0.000420000,-0.056584518,0.034888586,-0.310851000,-0.056584518,0.034888271,3.144529839e-07,0.000000000e+00,1,1,0.300000000,0.000000000,0.000000000,-0.800000000,0.500000000,0.300000000,0.000000000,0.000000000,-0.800000000,0.500000000
0.005000,-0.000420000,-0.056584518,0.034890461,-0.310851000,-0.056584518,0.034888271,2.189277548e-06,0.000000000e+00,1,1,0.300000000,0.000000000,0.000000000,-0.800000000,0.500000000,0.300000000,0.000000000,0.000000000,-0.800000000,0.500000000
0.007500,-0.000420000,-0.056584518,0.034895081,-0.310851000,-0.056584518,0.034888271,6.809650958e-06,0.000000000e+00,1,1,0.300000000,0.000000000,0.000000000,-0.800000000,0.500000000,0.300000000,0.000000000,0.000000000,-0.800000000,0.500000000
0.010000,-0.000420000,-0.056584518,0.034903499,-0.310851000,-0.056584518,0.034888271,1.522751980e-05,0.000000000e+00,1,1,0.300000000,0.000000000,0.000000000,-0.800000000,0.500000000,0.300000000,0.000000000,0.000000000,-0.800000000,0.500000000
0.012500,-0.000420000,-0.056584518,0.034916687,-0.310851000,-0.056584518,0.034888271,2.841583205e-05,0.000000000e+00,1,1,0.300000000,0.000000000,0.000000000,-0.800000000,0.500000000,0.300000000,0.000000000,0.000000000,-0.800000000,0.500000000
0.015000,-0.000420000,-0.056584518,0.034935560,-0.310851000,-0.056584518,0.034888271,4.728879893e-05,0.000000000e+00,1,1,0.300000000,0.000000000,0.000000000,-0.800000000,0.500000000,0.300000000,0.000000000,0.000000000,-0.800000000,0.500000000
0.017500,-0.000420000,-0.056584518,0.034960983,-0.310851000,-0.056584518,0.034888271,7.271213376e-05,0.000000000e+00,1,1,0.300000000,0.000000000,0.000000000,-0.800000000,0.500000000,0.300000000,0.000000000,0.000000000,-0.800000000,0.500000000
0.020000,-0.000420000,-0.056584518,0.034993780,-0.310851000,-0.056584518,0.034888271,4.530744497e-05,0.000000000e+00,1,1,0.300283255,-0.000000063,0.000000184,-0.800578417,0.500234092,0.300000000,0.000000000,0.000000000,-0.800000000,0.500000000
0.022500,-0.000420000,-0.056584518,0.035034734,-0.310851000,-0.056584518,0.034888271,8.626082048e-05,0.000000000e+00,1,1,0.300283255,-0.000000063,0.000000184,-0.800578417,0.500234092,0.300000000,0.000000000,0.000000000,-0.800000000,0.500000000
0.025000,-0.000420000,-0.056584518,0.035084593,-0.310851000,-0.056584518,0.034888271,5.847673681e-05,0.000000000e+00,1,1,0.300648743,-0.000000146,0.000000420,-0.801323956,0.500535673,0.300000000,0.000000000,0.000000000,-0.800000000,0.500000000
0.027500,-0.000420000,-0.056584518,0.035144066,-0.310851000,-0.056584518,0.034888271,5.072157558e-05,0.000000000e+00,1,1,0.300965331,-0.000000220,0.000000623,-0.801969084,0.500796442,0.300000000,0.000000000,0.000000000,-0.800000000,0.500000000
0.030000,-0.000420000,-0.056584518,0.035213832,-0.310851000,-0.056584518,0.034888271,5.184433858e-05,0.000000000e+00,1,1,0.301288387,-0.000000296,0.000000831,-0.802627322,0.501062277,0.300000000,0.000000000,0.000000000,-0.800000000,0.500000000
0.032500,-0.000420000,-0.056584518,0.035294532,-0.310851000,-0.056584518,0.034888271,5.705126688e-05,0.000000000e+00,1,1,0.301643377,-0.000000380,0.000001060,-0.803350700,0.501354143,0.300000000,0.000000000,0.000000000,-0.800000000,0.500000000
0.035000,-0.000420000,-0.056584518,0.035386772,-0.310851000,-0.056584518,0.034888271,6.427209906e-05,0.000000000e+00,1,1,0.302042810,-0.000000474,0.000001317,-0.804164695,0.501682232,0.300000000,0.000000000,0.000000000,-0.800000000,0.500000000
0.037500,-0.000420000,-0.056584518,0.035491128,-0.310851000,-0.056584518,0.034888271,7.260398556e-05,0.000000000e+00,1,1,0.302493515,-0.000000580,0.000001608,-0.805083187,0.502052016,0.300000000,0.000000000,0.000000000,-0.800000000,0.500000000
0.040000,-0.000420000,-0.056584518,0.035608136,-0.310851000,-0.056584518,0.034888271,8.164447273e-05,0.000000000e+00,1,1,0.302999770,-0.000000700,0.000001934,-0.806114858,0.502466833,0.300000000,0.000000000,0.000000000,-0.800000000,0.500000000
0.042500,-0.000420000,-0.056584518,0.035738302,-0.310851000,-0.056584518,0.034888271,9.120547669e-05,0.000000000e+00,1,1,0.303564645,-0.000000834,0.000002297,-0.807265937,0.502928997,0.300000000,0.000000000,0.000000000,-0.800000000,0.500000000
0.045000,-0.000420000,-0.056584518,0.035882093,-0.310851000,-0.056584518,0.034888271,4.392619000e-05,0.000000000e+00,1,1,0.304459153,-0.000001052,0.000002872,-0.809086930,0.503658603,0.300000000,0.000000000,0.000000000,-0.800000000,0.500000000
0.047500,-0.000420000,-0.056584518,0.036039943,-0.310851000,-0.056584518,0.034888271,8.704489876e-05,0.000000000e+00,1,1,0.304994782,-0.000001179,0.000003217,-0.810178526,0.504094969,0.300000000,0.000000000,0.000000000,-0.800000000,0.500000000
0.050000,-0.000420000,-0.056584518,0.036212249,-0.310851000,-0.056584518,0.034888271,4.861190139e-05,0.000000000e+00,1,1,0.305978037,-0.000001419,0.000003849,-0.812180600,0.504893594,0.300000000,0.000000000,0.000000000,-0.800000000,0.500000000
0.052500,-0.000420000,-0.056584518,0.036399372,-0.310851000,-0.056584518,0.034888271,4.441768507e-05,0.000000000e+00,1,1,0.306868939,-0.000001638,0.000004422,-0.813994563,0.505614929,0.300000000,0.000000000,0.000000000,-0.800000000,0.500000000
0.055000,-0.000420000,-0.056584518,0.036601638,-0.310851000,-0.056584518,0.034888271,4.655707111e-05,0.000000000e+00,1,1,0.307798932,-0.000001866,0.000005021,-0.815888361,0.506365884,0.300000000,0.000000000,0.000000000,-0.800000000,0.500000000
0.057500,-0.000420000,-0.056584518,0.036819333,-0.310851000,-0.056584518,0.034888271,4.991349665e-05,0.000000000e+00,1,1,0.308792957,-0.000002111,0.000005660,-0.817912518,0.507166210,0.300000000,0.000000000,0.000000000,-0.800000000,0.500000000
0.060000,-0.000420000,-0.056584518,0.037052708,-0.310851000,-0.056584518,0.034888271,5.354284483e-05,0.000000000e+00,1,1,0.309856198,-0.000002374,0.000006345,-0.820077468,0.508019571,0.300000000,0.000000000,0.000000000,-0.800000000,0.500000000
0.062500,-0.000420000,-0.056584518,0.037301976,-0.310851000,-0.056584518,0.034888271,5.726491538e-05,0.000000000e+00,1,1,0.310990036,-0.000002657,0.000007075,-0.822385962,0.508926513,0.300000000,0.000000000,0.000000000,-0.800000000,0.500000000
0.065000,-0.000420000,-0.056584518,0.037567313,-0.310851000,-0.056584518,0.034888271,6.103926269e-05,0.000000000e+00,1,1,0.312194985,-0.000002960,0.000007850,-0.824839001,0.509886846,0.300000000,0.000000000,0.000000000,-0.800000000,0.500000000
0.067500,-0.000420000,-0.056584518,0.037848855,-0.310851000,-0.056584518,0.034888271,6.485096222e-05,0.000000000e+00,1,1,0.313471230,-0.000003283,0.000008672,-0.827436918,0.510900076,0.300000000,0.000000000,0.000000000,-0.800000000,0.500000000
0.070000,-0.000420000,-0.056584518,0.038146701,-0.310851000,-0.056584518,0.034888271,6.868972795e-05,0.000000000e+00,1,1,0.314818730,-0.000003628,0.000009540,-0.830179580,0.511965492,0.300000000,0.000000000,0.000000000,-0.800000000,0.500000000
0.072500,-0.000420000,-0.056584518,0.038460912,-0.310851000,-0.056584518,0.034888271,7.254610997e-05,0.000000000e+00,1,1,0.316237235,-0.000003993,0.000010453,-0.833066432,0.513082181,0.300000000,0.000000000,0.000000000,-0.800000000,0.500000000
0.075000,-0.000420000,-0.056584518,0.038791511,-0.310851000,-0.056584518,0.034888271,7.641081604e-05,0.000000000e+00,1,1,0.317726293,-0.000004380,0.000011412,-0.836096503,0.514249041,0.300000000,0.000000000,0.000000000,-0.800000000,0.500000000
0.077500,-0.000420000,-0.056584518,0.039138481,-0.310851000,-0.056584518,0.034888271,8.027460389e-05,0.000000000e+00,1,1,0.319285253,-0.000004788,0.000012416,-0.839268417,0.515464787,0.300000000,0.000000000,0.000000000,-0.800000000,0.500000000
0.080000,-0.000420000,-0.056584518,0.039501768,-0.310851000,-0.056584518,0.034888271,8.412827728e-05,0.000000000e+00,1,1,0.320913274,-0.000005219,0.000013465,-0.842580406,0.516727958,0.300000000,0.000000000,0.000000000,-0.800000000,0.500000000
0.082500,-0.000420000,-0.056584518,0.039881279,-0.310851000,-0.056584518,0.034888271,8.796270083e-05,0.000000000e+00,1,1,0.322609321,-0.000005672,0.000014557,-0.846030309,0.518036930,0.300000000,0.000000000,0.000000000,-0.800000000,0.500000000
0.085000,-0.000420000,-0.056584518,0.040276882,-0.310851000,-0.056584518,0.034888271,9.176881815e-05,0.000000000e+00,1,1,0.324372177,-0.000006148,0.000015693,-0.849615595,0.519389922,0.300000000,0.000000000,0.000000000,-0.800000000,0.500000000
0.087500,-0.000420000,-0.056584518,0.040688410,-0.310851000,-0.056584518,0.034888271,9.553766960e-05,0.000000000e+00,1,1,0.326200446,-0.000006647,0.000016871,-0.853333363,0.520785005,0.300000000,0.000000000,0.000000000,-0.800000000,0.500000000
0.090000,-0.000420000,-0.056584518,0.041115654,-0.310851000,-0.056584518,0.034888271,9.926040966e-05,0.000000000e+00,1,1,0.328092558,-0.000007168,0.000018090,-0.857180362,0.522220120,0.300000000,0.000000000,0.000000000,-0.800000000,0.500000000
0.092500,-0.000420000,-0.056584518,0.041558371,-0.310851000,-0.056584518,0.034888271,4.734974561e-05,0.000000000e+00,1,1,0.330296514,-0.000007791,0.000019510,-0.861656901,0.523871911,0.300000000,0.000000000,0.000000000,-0.800000000,0.500000000
0.095000,-0.000420000,-0.056584518,0.042016280,-0.310851000,-0.056584518,0.034888271,9.652703391e-05,0.000000000e+00,1,1,0.332107913,-0.000008298,0.000020680,-0.865339784,0.525225817,0.300000000,0.000000000,0.000000000,-0.800000000,0.500000000
0.097500,-0.000420000,-0.056584518,0.042489061,-0.310851000,-0.056584518,0.034888271,5.001519797e-05,0.000000000e+00,1,1,0.334403815,-0.000008959,0.000022161,-0.870001966,0.526921888,0.300000000,0.000000000,0.000000000,-0.800000000,0.500000000
0.100000,-0.000420000,-0.056584518,0.042976362,-0.310851000,-0.056584518,0.034888271,4.786957093e-05,0.000000000e+00,1,1,0.336558736,-0.000009584,0.000023554,-0.874377636,0.528498010,0.300000000,0.000000000,0.000000000,-0.800000000,0.500000000
0.102500,-0.000420000,-0.056584518,0.043477790,-0.310851000,-0.056584518,0.034888271,4.908392133e-05,0.000000000e+00,1,1,0.338752063,-0.000010227,0.000024973,-0.878830662,0.530089523,0.300000000,0.000000000,0.000000000,-0.800000000,0.500000000
0.105000,-0.000420000,-0.056584518,0.043992922,-0.310851000,-0.056584518,0.034888271,5.052242393e-05,0.000000000e+00,1,1,0.340995262,-0.000010893,0.000026425,-0.883384007,0.531704189,0.300000000,0.000000000,0.000000000,-0.800000000,0.500000000
0.107500,-0.000420000,-0.056584518,0.044521298,-0.310851000,-0.056584518,0.034888271,5.194276840e-05,0.000000000e+00,1,1,0.343286808,-0.000011582,0.000027908,-0.888034467,0.533340056,0.300000000,0.000000000,0.000000000,-0.800000000,0.500000000
0.110000,-0.000420000,-0.056584518,0.045062423,-0.310851000,-0.056584518,0.034888271,5.332360659e-05,0.000000000e+00,1,1,0.345624076,-0.000012293,0.000029423,-0.892776644,0.534994398,0.300000000,0.000000000,0.000000000,-0.800000000,0.500000000
0.112500,-0.000420000,-0.056584518,0.045615772,-0.310851000,-0.056584518,0.034888271,5.466052423e-05,0.000000000e+00,1,1,0.348004261,-0.000013027,0.000030966,-0.897604773,0.536664412,0.300000000,0.000000000,0.000000000,-0.800000000,0.500000000
0.115000,-0.000420000,-0.056584518,0.046180785,-0.310851000,-0.056584518,0.034888271,5.595049086e-05,0.000000000e+00,1,1,0.350424451,-0.000013783,0.000032536,-0.902512885,0.538347273,0.300000000,0.000000000,0.000000000,-0.800000000,0.500000000
0.117500,-0.000420000,-0.056584518,0.046756871,-0.310851000,-0.056584518,0.034888271,5.719067978e-05,0.000000000e+00,1,1,0.352881645,-0.000014560,0.000034131,-0.907494829,0.540040155,0.300000000,0.000000000,0.000000000,-0.800000000,0.500000000
0.120000,-0.000420000,-0.056584518,0.047343412,-0.310851000,-0.056584518,0.034888271,5.837838163e-05,0.000000000e+00,1,1,0.355372761,-0.000015359,0.000035749,-0.912544288,0.541740236,0.300000000,0.000000000,0.000000000,-0.800000000,0.500000000
0.122500,-0.000420000,-0.056584518,0.047939755,-0.310851000,-0.056584518,0.034888271,5.951100021e-05,0.000000000e+00,1,1,0.357894639,-0.000016178,0.000037388,-0.917654802,0.543444712,0.300000000,0.000000000,0.000000000,-0.800000000,0.500000000
0.125000,-0.000420000,-0.056584518,0.048545222,-0.310851000,-0.056584518,0.034888271,6.058605452e-05,0.000000000e+00,1,1,0.360444054,-0.000017017,0.000039047,-0.922819777,0.545150803,0.300000000,0.000000000,0.000000000,-0.800000000,0.500000000
0.127500,-0.000420000,-0.056584518,0.049159108,-0.310851000,-0.056584518,0.034888271,6.160118090e-05,0.000000000e+00,1,1,0.363017722,-0.000017876,0.000040723,-0.928032504,0.546855765,0.300000000,0.000000000,0.000000000,-0.800000000,0.500000000
0.130000,-0.000420000,-0.056584518,0.049780680,-0.310851000,-0.056584518,0.034888271,6.255413513e-05,0.000000000e+00,1,1,0.365612305,-0.000018753,0.000042414,-0.933286171,0.548556895,0.300000000,0.000000000,0.000000000,-0.800000000,0.500000000
0.132500,-0.000420000,-0.056584518,0.050409180,-0.310851000,-0.056584518,0.034888271,6.344279367e-05,0.000000000e+00,1,1,0.368224423,-0.000019649,0.000044118,-0.938573884,0.550251538,0.300000000,0.000000000,0.000000000,-0.800000000,0.500000000
0.135000,-0.000420000,-0.056584518,0.051043827,-0.310851000,-0.056584518,0.034888271,6.426515517e-05,0.000000000e+00,1,1,0.370850655,-0.000020561,0.000045833,-0.943888674,0.551937095,0.300000000,0.000000000,0.000000000,-0.800000000,0.500000000
0.137500,-0.000420000,-0.056584518,0.051683816,-0.310851000,-0.056584518,0.034888271,6.501934153e-05,0.000000000e+00,1,1,0.373487552,-0.000021489,0.000047556,-0.949223516,0.553611030,0.300000000,0.000000000,0.000000000,-0.800000000,0.500000000
0.140000,-0.000420000,-0.056584518,0.052328323,-0.310851000,-0.056584518,0.034888271,6.570359882e-05,0.000000000e+00,1,1,0.376131637,-0.000022432,0.000049287,-0.954571342,0.555270872,0.300000000,0.000000000,0.000000000,-0.800000000,0.500000000
0.142500,-0.000420000,-0.056584518,0.052976502,-0.310851000,-0.056584518,0.034888271,6.631629808e-05,0.000000000e+00,1,1,0.378779420,-0.000023390,0.000051022,-0.959925049,0.556914221,0.300000000,0.000000000,0.000000000,-0.800000000,0.500000000
0.145000,-0.000420000,-0.056584518,0.053627488,-0.310851000,-0.056584518,0.034888271,6.685593567e-05,0.000000000e+00,1,1,0.381427394,-0.000024360,0.000052759,-0.965277520,0.558538755,0.300000000,0.000000000,0.000000000,-0.800000000,0.500000000
0.147500,-0.000420000,-0.056584518,0.054280401,-0.310851000,-0.056584518,0.034888271,6.732113391e-05,0.000000000e+00,1,1,0.384072049,-0.000025342,0.000054496,-0.970621629,0.560142228,0.300000000,0.000000000,0.000000000,-0.800000000,0.500000000
0.150000,-0.000420000,-0.056584518,0.054934343,-0.310851000,-0.056584518,0.034888271,6.771064135e-05,0.000000000e+00,1,1,0.386709875,-0.000026335,0.000056231,-0.975950255,0.561722477,0.300000000,0.000000000,0.000000000,-0.800000000,0.500000000
0.152500,-0.000420000,-0.056584518,0.055588403,-0.310851000,-0.056584518,0.034888271,6.802333277e-05,0.000000000e+00,1,1,0.389337365,-0.000027336,0.000057962,-0.981256292,0.563277422,0.300000000,0.000000000,0.000000000,-0.800000000,0.500000000
0.155000,-0.000420000,-0.056584518,0.056241657,-0.310851000,-0.056584518,0.034888271,6.825820955e-05,0.000000000e+00,1,1,0.391951025,-0.000028346,0.000059686,-0.986532662,0.564805067,0.300000000,0.000000000,0.000000000,-0.800000000,0.500000000
0.157500,-0.000420000,-0.056584518,0.056893170,-0.310851000,-0.056584518,0.034888271,6.841439948e-05,0.000000000e+00,1,1,0.394547373,-0.000029362,0.000061402,-0.991772322,0.566303505,0.300000000,0.000000000,0.000000000,-0.800000000,0.500000000
0.160000,-0.000420000,-0.056584518,0.057541996,-0.310851000,-0.056584518,0.034888271,6.849115673e-05,0.000000000e+00,1,1,0.397122950,-0.000030383,0.000063107,-0.996968274,0.567770916,0.300000000,0.000000000,0.000000000,-0.800000000,0.500000000
0.162500,-0.000420000,-0.056584518,0.058187182,-0.310851000,-0.056584518,0.034888271,6.848786182e-05,0.000000000e+00,1,1,0.399674319,-0.000031407,0.000064799,-1.002113578,0.569205566,0.300000000,0.000000000,0.000000000,-0.800000000,0.500000000
0.165000,-0.000420000,-0.056584518,0.058827769,-0.310851000,-0.056584518,0.034888271,6.840402136e-05,0.000000000e+00,1,1,0.402198074,-0.000032433,0.000066476,-1.007201353,0.570605810,0.300000000,0.000000000,0.000000000,-0.800000000,0.500000000
0.167500,-0.000420000,-0.056584518,0.059462793,-0.310851000,-0.056584518,0.034888271,6.823926761e-05,0.000000000e+00,1,1,0.404690841,-0.000033459,0.000068135,-1.012224792,0.571970088,0.300000000,0.000000000,0.000000000,-0.800000000,0.500000000
0.170000,-0.000420000,-0.056584518,0.060091286,-0.310851000,-0.056584518,0.034888271,6.799335825e-05,0.000000000e+00,1,1,0.407149280,-0.000034484,0.000069775,-1.017177166,0.573296928,0.300000000,0.000000000,0.000000000,-0.800000000,0.500000000
0.172500,-0.000420000,-0.056584518,0.060712279,-0.310851000,-0.056584518,0.034888271,6.766617613e-05,0.000000000e+00,1,1,0.409570097,-0.000035505,0.000071394,-1.022051834,0.574584943,0.300000000,0.000000000,0.000000000,-0.800000000,0.500000000
0.175000,-0.000420000,-0.056584518,0.061324803,-0.310851000,-0.056584518,0.034888271,6.725772845e-05,0.000000000e+00,1,1,0.411950035,-0.000036522,0.000072988,-1.026842247,0.575832828,0.300000000,0.000000000,0.000000000,-0.800000000,0.500000000
0.177500,-0.000420000,-0.056584518,0.061927892,-0.310851000,-0.056584518,0.034888271,6.676814656e-05,0.000000000e+00,1,1,0.414285891,-0.000037531,0.000074558,-1.031541956,0.577039362,0.300000000,0.000000000,0.000000000,-0.800000000,0.500000000
0.180000,-0.000420000,-0.056584518,0.062520582,-0.310851000,-0.056584518,0.034888271,6.619768525e-05,0.000000000e+00,1,1,0.416574506,-0.000038532,0.000076099,-1.036144618,0.578203401,0.300000000,0.000000000,0.000000000,-0.800000000,0.500000000
0.182500,-0.000420000,-0.056584518,0.063101916,-0.310851000,-0.056584518,0.034888271,6.554672181e-05,0.000000000e+00,1,1,0.418812779,-0.000039522,0.000077611,-1.040644004,0.579323881,0.300000000,0.000000000,0.000000000,-0.800000000,0.500000000
0.185000,-0.000420000,-0.056584518,0.063670942,-0.310851000,-0.056584518,0.034888271,6.481575577e-05,0.000000000e+00,1,1,0.420997663,-0.000040500,0.000079090,-1.045034000,0.580399814,0.300000000,0.000000000,0.000000000,-0.800000000,0.500000000
0.187500,-0.000420000,-0.056584518,0.064226718,-0.310851000,-0.056584518,0.034888271,6.400540762e-05,0.000000000e+00,1,1,0.423126169,-0.000041464,0.000080537,-1.049308618,0.581430284,0.300000000,0.000000000,0.000000000,-0.800000000,0.500000000
0.190000,-0.000420000,-0.056584518,0.064768313,-0.310851000,-0.056584518,0.034888271,6.311641837e-05,0.000000000e+00,1,1,0.425195372,-0.000042411,0.000081947,-1.053461995,0.582414445,0.300000000,0.000000000,0.000000000,-0.800000000,0.500000000
0.192500,-0.000420000,-0.056584518,0.065294807,-0.310851000,-0.056584518,0.034888271,6.214964818e-05,0.000000000e+00,1,1,0.427202408,-0.000043340,0.000083320,-1.057488403,0.583351521,0.300000000,0.000000000,0.000000000,-0.800000000,0.500000000
0.195000,-0.000420000,-0.056584518,0.065805293,-0.310851000,-0.056584518,0.034888271,6.110607561e-05,0.000000000e+00,1,1,0.429144481,-0.000044249,0.000084653,-1.061382252,0.584240799,0.300000000,0.000000000,0.000000000,-0.800000000,0.500000000
0.197500,-0.000420000,-0.056584518,0.066298882,-0.310851000,-0.056584518,0.034888271,5.998679637e-05,0.000000000e+00,1,1,0.431018863,-0.000045136,0.000085946,-1.065138092,0.585081631,0.300000000,0.000000000,0.000000000,-0.800000000,0.500000000
0.200000,-0.000420000,-0.056584518,0.066774701,-0.310851000,-0.056584518,0.034888271,5.879302232e-05,0.000000000e+00,1,1,0.432822896,-0.000045999,0.000087195,-1.068750622,0.585873427,0.300000000,0.000000000,0.000000000,-0.800000000,0.500000000
0.202500,-0.000420000,-0.056584518,0.067231894,-0.310851000,-0.056584518,0.034888271,5.752608014e-05,0.000000000e+00,1,1,0.434553997,-0.000046836,0.000088399,-1.072214687,0.586615653,0.300000000,0.000000000,0.000000000,-0.800000000,0.500000000
0.205000,-0.000420000,-0.056584518,0.067669628,-0.310851000,-0.056584518,0.034888271,5.618741005e-05,0.000000000e+00,1,1,0.436209655,-0.000047646,0.000089557,-1.075525291,0.587307830,0.300000000,0.000000000,0.000000000,-0.800000000,0.500000000
0.207500,-0.000420000,-0.056584518,0.068087092,-0.310851000,-0.056584518,0.034888271,5.477856465e-05,0.000000000e+00,1,1,0.437787437,-0.000048425,0.000090666,-1.078677594,0.587949532,0.300000000,0.000000000,0.000000000,-0.800000000,0.500000000
0.210000,-0.000420000,-0.056584518,0.068483496,-0.310851000,-0.056584518,0.034888271,9.661634229e-05,0.000000000e+00,1,1,0.439110352,-0.000049069,0.000091579,-1.081330126,0.588533627,0.300000000,0.000000000,0.000000000,-0.800000000,0.500000000
0.212500,-0.000420000,-0.056584518,0.068858079,-0.310851000,-0.056584518,0.034888271,5.487914488e-05,0.000000000e+00,1,1,0.440672934,-0.000049855,0.000092680,-1.084449524,0.589156827,0.300000000,0.000000000,0.000000000,-0.800000000,0.500000000
0.215000,-0.000420000,-0.056584518,0.069210103,-0.310851000,-0.056584518,0.034888271,8.916407492e-05,0.000000000e+00,1,1,0.441856870,-0.000050443,0.000093505,-1.086819284,0.589653200,0.300000000,0.000000000,0.000000000,-0.800000000,0.500000000
0.217500,-0.000420000,-0.056584518,0.069538862,-0.310851000,-0.056584518,0.034888271,9.117256172e-05,0.000000000e+00,1,1,0.443071906,-0.000051051,0.000094351,-1.089251079,0.590164491,0.300000000,0.000000000,0.000000000,-0.800000000,0.500000000
0.220000,-0.000420000,-0.056584518,0.069843676,-0.310851000,-0.056584518,0.034888271,8.746879600e-05,0.000000000e+00,1,1,0.444219170,-0.000051631,0.000095153,-1.091544817,0.590633644,0.300000000,0.000000000,0.000000000,-0.800000000,0.500000000
0.222500,-0.000420000,-0.056584518,0.070123899,-0.310851000,-0.056584518,0.034888271,8.265960361e-05,0.000000000e+00,1,1,0.445279900,-0.000052173,0.000095902,-1.093662796,0.591050561,0.300000000,0.000000000,0.000000000,-0.800000000,0.500000000
0.225000,-0.000420000,-0.056584518,0.070378916,-0.310851000,-0.056584518,0.034888271,7.754755649e-05,0.000000000e+00,1,1,0.446249335,-0.000052675,0.000096593,-1.095595513,0.591413277,0.300000000,0.000000000,0.000000000,-0.800000000,0.500000000
0.227500,-0.000420000,-0.056584518,0.070608148,-0.310851000,-0.056584518,0.034888271,7.227710086e-05,0.000000000e+00,1,1,0.447125218,-0.000053135,0.000097226,-1.097338494,0.591721256,0.300000000,0.000000000,0.000000000,-0.800000000,0.500000000
0.230000,-0.000420000,-0.056584518,0.070811049,-0.310851000,-0.056584518,0.034888271,6.687905317e-05,0.000000000e+00,1,1,0.447905805,-0.000053551,0.000097799,-1.098888285,0.591974231,0.300000000,0.000000000,0.000000000,-0.800000000,0.500000000
0.232500,-0.000420000,-0.056584518,0.070987111,-0.310851000,-0.056584518,0.034888271,6.136483797e-05,0.000000000e+00,1,1,0.448589518,-0.000053922,0.000098311,-1.100241767,0.592172006,0.300000000,0.000000000,0.000000000,-0.800000000,0.500000000
0.235000,-0.000420000,-0.056584518,0.071135862,-0.310851000,-0.056584518,0.034888271,5.574282681e-05,0.000000000e+00,1,1,0.449174886,-0.000054247,0.000098760,-1.101396041,0.592314420,0.300000000,0.000000000,0.000000000,-0.800000000,0.500000000
0.237500,-0.000420000,-0.056584518,0.071256872,-0.310851000,-0.056584518,0.034888271,8.718311714e-05,0.000000000e+00,1,1,0.449511107,-0.000054429,0.000099013,-1.102062081,0.592411006,0.300000000,0.000000000,0.000000000,-0.800000000,0.500000000
0.240000,-0.000420000,-0.056584518,0.071349749,-0.310851000,-0.056584518,0.034888271,8.859861886e-05,0.000000000e+00,1,1,0.449854164,-0.000054615,0.000099269,-1.102741809,0.592511560,0.300000000,0.000000000,0.000000000,-0.800000000,0.500000000
0.242500,-0.000420000,-0.056584518,0.071414142,-0.310851000,-0.056584518,0.034888271,7.737157978e-05,0.000000000e+00,1,1,0.450140587,-0.000054775,0.000099489,-1.103306391,0.592579978,0.300000000,0.000000000,0.000000000,-0.800000000,0.500000000
0.245000,-0.000420000,-0.056584518,0.071449744,-0.310851000,-0.056584518,0.034888271,6.075913876e-05,0.000000000e+00,1,1,0.450343330,-0.000054896,0.000099657,-1.103701122,0.592601122,0.300000000,0.000000000,0.000000000,-0.800000000,0.500000000
0.247500,-0.000420000,-0.056584518,0.071456290,-0.310851000,-0.056584518,0.034888271,6.729121642e-05,0.000000000e+00,1,1,0.450343330,-0.000054896,0.000099657,-1.103701122,0.592601122,0.300000000,0.000000000,0.000000000,-0.800000000,0.500000000
0.250000,-0.000420000,-0.056584518,0.071433558,-0.310851000,-0.056584518,0.034888271,4.462351613e-05,0.000000000e+00,1,1,0.450343330,-0.000054896,0.000099657,-1.103701122,0.592601122,0.300000000,0.000000000,0.000000000,-0.800000000,0.500000000
0.252500,-0.000420000,-0.056584518,0.071381375,-0.310851000,-0.056584518,0.034888271,8.765069587e-06,0.000000000e+00,1,1,0.450343330,-0.000054896,0.000099657,-1.103701122,0.592601122,0.300000000,0.000000000,0.000000000,-0.800000000,0.500000000
0.255000,-0.000420000,-0.056584518,0.071299609,-0.310851000,-0.056584518,0.034888271,8.960830871e-05,0.000000000e+00,1,1,0.450343330,-0.000054896,0.000099657,-1.103701122,0.592601122,0.300000000,0.000000000,0.000000000,-0.800000000,0.500000000
0.257500,-0.000420000,-0.056584518,0.071188178,-0.310851000,-0.056584518,0.034888271,7.009113656e-05,0.000000000e+00,1,1,0.449892320,-0.000054708,0.000099410,-1.102767987,0.592251439,0.300000000,0.000000000,0.000000000,-0.800000000,0.500000000
0.260000,-0.000420000,-0.056584518,0.071047045,-0.310851000,-0.056584518,0.034888271,7.436191467e-05,0.000000000e+00,1,1,0.449418461,-0.000054506,0.000099149,-1.101790745,0.591890925,0.300000000,0.000000000,0.000000000,-0.800000000,0.500000000
0.262500,-0.000420000,-0.056584518,0.070876224,-0.310851000,-0.056584518,0.034888271,8.854729006e-05,0.000000000e+00,1,1,0.448872711,-0.000054268,0.000098843,-1.100668651,0.591491453,0.300000000,0.000000000,0.000000000,-0.800000000,0.500000000
0.265000,-0.000420000,-0.056584518,0.070675774,-0.310851000,-0.056584518,0.034888271,3.110063598e-05,0.000000000e+00,1,1,0.447975633,-0.000053878,0.000098353,-1.098822208,0.590809403,0.300000000,0.000000000,0.000000000,-0.800000000,0.500000000
0.267500,-0.000420000,-0.056584518,0.070445805,-0.310851000,-0.056584518,0.034888271,9.525856008e-05,0.000000000e+00,1,1,0.447394839,-0.000053623,0.000098021,-1.097630120,0.590395103,0.300000000,0.000000000,0.000000000,-0.800000000,0.500000000
0.270000,-0.000420000,-0.056584518,0.070186475,-0.310851000,-0.056584518,0.034888271,4.263426719e-05,0.000000000e+00,1,1,0.446299152,-0.000053139,0.000097399,-1.095382965,0.589610408,0.300000000,0.000000000,0.000000000,-0.800000000,0.500000000
0.272500,-0.000420000,-0.056584518,0.069897994,-0.310851000,-0.056584518,0.034888271,3.867940865e-05,0.000000000e+00,1,1,0.445270637,-0.000052686,0.000096814,-1.093273263,0.588870868,0.300000000,0.000000000,0.000000000,-0.800000000,0.500000000
0.275000,-0.000420000,-0.056584518,0.069580620,-0.310851000,-0.056584518,0.034888271,4.312529297e-05,0.000000000e+00,1,1,0.444165259,-0.000052198,0.000096177,-1.091008744,0.588093837,0.300000000,0.000000000,0.000000000,-0.800000000,0.500000000
0.277500,-0.000420000,-0.056584518,0.069234661,-0.310851000,-0.056584518,0.034888271,4.899702342e-05,0.000000000e+00,1,1,0.442958189,-0.000051662,0.000095471,-1.088539407,0.587264988,0.300000000,0.000000000,0.000000000,-0.800000000,0.500000000
0.280000,-0.000420000,-0.056584518,0.068860477,-0.310851000,-0.056584518,0.034888271,5.507545664e-05,0.000000000e+00,1,1,0.441645580,-0.000051078,0.000094694,-1.085857600,0.586381940,0.300000000,0.000000000,0.000000000,-0.800000000,0.500000000
0.282500,-0.000420000,-0.056584518,0.068458478,-0.310851000,-0.056584518,0.034888271,6.113972060e-05,0.000000000e+00,1,1,0.440227367,-0.000050444,0.000093846,-1.082963265,0.585444412,0.300000000,0.000000000,0.000000000,-0.800000000,0.500000000
0.285000,-0.000420000,-0.056584518,0.068029124,-0.310851000,-0.056584518,0.034888271,6.714264189e-05,0.000000000e+00,1,1,0.438704262,-0.000049764,0.000092927,-1.079857893,0.584452506,0.300000000,0.000000000,0.000000000,-0.800000000,0.500000000
0.287500,-0.000420000,-0.056584518,0.067572927,-0.310851000,-0.056584518,0.034888271,7.306739656e-05,0.000000000e+00,1,1,0.437077232,-0.000049037,0.000091938,-1.076543479,0.583406412,0.300000000,0.000000000,0.000000000,-0.800000000,0.500000000
0.290000,-0.000420000,-0.056584518,0.067090446,-0.310851000,-0.056584518,0.034888271,7.890253198e-05,0.000000000e+00,1,1,0.435347407,-0.000048265,0.000090878,-1.073022344,0.582306356,0.300000000,0.000000000,0.000000000,-0.800000000,0.500000000
0.292500,-0.000420000,-0.056584518,0.066582294,-0.310851000,-0.056584518,0.034888271,8.463759190e-05,0.000000000e+00,1,1,0.433516071,-0.000047451,0.000089750,-1.069297115,0.581152592,0.300000000,0.000000000,0.000000000,-0.800000000,0.500000000
0.295000,-0.000420000,-0.056584518,0.066049132,-0.310851000,-0.056584518,0.034888271,9.026233916e-05,0.000000000e+00,1,1,0.431584659,-0.000046594,0.000088553,-1.065370721,0.579945409,0.300000000,0.000000000,0.000000000,-0.800000000,0.500000000
0.297500,-0.000420000,-0.056584518,0.065491672,-0.310851000,-0.056584518,0.034888271,9.576661198e-05,0.000000000e+00,1,1,0.429554764,-0.000045697,0.000087289,-1.061246400,0.578685127,0.300000000,0.000000000,0.000000000,-0.800000000,0.500000000
0.300000,-0.000420000,-0.056584518,0.064910673,-0.310851000,-0.056584518,0.034888271,3.029894410e-05,0.000000000e+00,1,1,0.427167002,-0.000044644,0.000085801,-1.056397503,0.577193885,0.300000000,0.000000000,0.000000000,-0.800000000,0.500000000
0.302500,-0.000420000,-0.056584518,0.064306945,-0.310851000,-0.056584518,0.034888271,9.396688257e-05,0.000000000e+00,1,1,0.425163675,-0.000043773,0.000084540,-1.052328683,0.575958643,0.300000000,0.000000000,0.000000000,-0.800000000,0.500000000
0.305000,-0.000420000,-0.056584518,0.063681345,-0.310851000,-0.056584518,0.034888271,3.405513921e-05,0.000000000e+00,1,1,0.422606634,-0.000042658,0.000082929,-1.047141156,0.574383154,0.300000000,0.000000000,0.000000000,-0.800000000,0.500000000
0.307500,-0.000420000,-0.056584518,0.063034780,-0.310851000,-0.056584518,0.034888271,3.155018235e-05,0.000000000e+00,1,1,0.420173688,-0.000041607,0.000081386,-1.042206115,0.572889770,0.300000000,0.000000000,0.000000000,-0.800000000,0.500000000
0.310000,-0.000420000,-0.056584518,0.062368201,-0.310851000,-0.056584518,0.034888271,3.318680239e-05,0.000000000e+00,1,1,0.417668080,-0.000040533,0.000079790,-1.037125900,0.571359885,0.300000000,0.000000000,0.000000000,-0.800000000,0.500000000
0.312500,-0.000420000,-0.056584518,0.061682608,-0.310851000,-0.056584518,0.034888271,3.507464884e-05,0.000000000e+00,1,1,0.415077695,-0.000039430,0.000078131,-1.031876241,0.569785143,0.300000000,0.000000000,0.000000000,-0.800000000,0.500000000
0.315000,-0.000420000,-0.056584518,0.060979045,-0.310851000,-0.056584518,0.034888271,3.692534855e-05,0.000000000e+00,1,1,0.412404298,-0.000038300,0.000076413,-1.026460683,0.568165430,0.300000000,0.000000000,0.000000000,-0.800000000,0.500000000
0.317500,-0.000420000,-0.056584518,0.060258604,-0.310851000,-0.056584518,0.034888271,3.871421521e-05,0.000000000e+00,1,1,0.409650865,-0.000037147,0.000074637,-1.020885180,0.566501310,0.300000000,0.000000000,0.000000000,-0.800000000,0.500000000
0.320000,-0.000420000,-0.056584518,0.059522417,-0.310851000,-0.056584518,0.034888271,4.043593608e-05,0.000000000e+00,1,1,0.406820651,-0.000035972,0.000072805,-1.015156234,0.564793481,0.300000000,0.000000000,0.000000000,-0.800000000,0.500000000
0.322500,-0.000420000,-0.056584518,0.058771662,-0.310851000,-0.056584518,0.034888271,4.208663584e-05,0.000000000e+00,1,1,0.403917123,-0.000034778,0.000070919,-1.009280773,0.563042738,0.300000000,0.000000000,0.000000000,-0.800000000,0.500000000
0.325000,-0.000420000,-0.056584518,0.058007560,-0.310851000,-0.056584518,0.034888271,4.366254876e-05,0.000000000e+00,1,1,0.400943966,-0.000033569,0.000068982,-1.003266151,0.561249980,0.300000000,0.000000000,0.000000000,-0.800000000,0.500000000
0.327500,-0.000420000,-0.056584518,0.057231372,-0.310851000,-0.056584518,0.034888271,4.515991272e-05,0.000000000e+00,1,1,0.397905082,-0.000032346,0.000066998,-0.997120164,0.559416229,0.300000000,0.000000000,0.000000000,-0.800000000,0.500000000
0.330000,-0.000420000,-0.056584518,0.056444399,-0.310851000,-0.056584518,0.034888271,4.657495286e-05,0.000000000e+00,1,1,0.394804605,-0.000031112,0.000064968,-0.990851060,0.557542635,0.300000000,0.000000000,0.000000000,-0.800000000,0.500000000
0.332500,-0.000420000,-0.056584518,0.055647983,-0.310851000,-0.056584518,0.034888271,4.790387267e-05,0.000000000e+00,1,1,0.391646899,-0.000029870,0.000062896,-0.984467553,0.555630494,0.300000000,0.000000000,0.000000000,-0.800000000,0.500000000
0.335000,-0.000420000,-0.056584518,0.054843503,-0.310851000,-0.056584518,0.034888271,4.914284498e-05,0.000000000e+00,1,1,0.388436575,-0.000028624,0.000060784,-0.977978843,0.553681262,0.300000000,0.000000000,0.000000000,-0.800000000,0.500000000
0.337500,-0.000420000,-0.056584518,0.054032378,-0.310851000,-0.056584518,0.034888271,5.028800210e-05,0.000000000e+00,1,1,0.385178486,-0.000027375,0.000058638,-0.971394626,0.551696572,0.300000000,0.000000000,0.000000000,-0.800000000,0.500000000
0.340000,-0.000420000,-0.056584518,0.053216059,-0.310851000,-0.056584518,0.034888271,5.133542636e-05,0.000000000e+00,1,1,0.381877746,-0.000026126,0.000056459,-0.964725111,0.549678250,0.300000000,0.000000000,0.000000000,-0.800000000,0.500000000
0.342500,-0.000420000,-0.056584518,0.052396037,-0.310851000,-0.056584518,0.034888271,5.228113935e-05,0.000000000e+00,1,1,0.378539730,-0.000024880,0.000054252,-0.957981035,0.547628332,0.300000000,0.000000000,0.000000000,-0.800000000,0.500000000
0.345000,-0.000420000,-0.056584518,0.051573835,-0.310851000,-0.056584518,0.034888271,5.312109027e-05,0.000000000e+00,1,1,0.375170083,-0.000023641,0.000052020,-0.951173683,0.545549087,0.300000000,0.000000000,0.000000000,-0.800000000,0.500000000
0.347500,-0.000420000,-0.056584518,0.050751008,-0.310851000,-0.056584518,0.034888271,5.385114404e-05,0.000000000e+00,1,1,0.371774727,-0.000022410,0.000049769,-0.944314896,0.543443033,0.300000000,0.000000000,0.000000000,-0.800000000,0.500000000
0.350000,-0.000420000,-0.056584518,0.049929146,-0.310851000,-0.056584518,0.034888271,5.446706767e-05,0.000000000e+00,1,1,0.368359871,-0.000021191,0.000047502,-0.937417094,0.541312960,0.300000000,0.000000000,0.000000000,-0.800000000,0.500000000
0.352500,-0.000420000,-0.056584518,0.049109868,-0.310851000,-0.056584518,0.034888271,5.496451660e-05,0.000000000e+00,1,1,0.364932015,-0.000019985,0.000045223,-0.930493289,0.539161952,0.300000000,0.000000000,0.000000000,-0.800000000,0.500000000
0.355000,-0.000420000,-0.056584518,0.048294825,-0.310851000,-0.056584518,0.034888271,5.533901924e-05,0.000000000e+00,1,1,0.361497957,-0.000018796,0.000042938,-0.923557101,0.536993412,0.300000000,0.000000000,0.000000000,-0.800000000,0.500000000
0.357500,-0.000420000,-0.056584518,0.047485698,-0.310851000,-0.056584518,0.034888271,5.558596068e-05,0.000000000e+00,1,1,0.358064802,-0.000017626,0.000040652,-0.916622775,0.534811081,0.300000000,0.000000000,0.000000000,-0.800000000,0.500000000
0.360000,-0.000420000,-0.056584518,0.046684195,-0.310851000,-0.056584518,0.034888271,5.570056570e-05,0.000000000e+00,1,1,0.354639967,-0.000016478,0.000038368,-0.909705194,0.532619066,0.300000000,0.000000000,0.000000000,-0.800000000,0.500000000
0.362500,-0.000420000,-0.056584518,0.045892055,-0.310851000,-0.056584518,0.034888271,5.567787902e-05,0.000000000e+00,1,1,0.351231188,-0.000015353,0.000036094,-0.902819893,0.530421860,0.300000000,0.000000000,0.000000000,-0.800000000,0.500000000
0.365000,-0.000420000,-0.056584518,0.045111045,-0.310851000,-0.056584518,0.034888271,5.551274539e-05,0.000000000e+00,1,1,0.347846525,-0.000014255,0.000033834,-0.895983078,0.528224372,0.300000000,0.000000000,0.000000000,-0.800000000,0.500000000
0.367500,-0.000420000,-0.056584518,0.044342959,-0.310851000,-0.056584518,0.034888271,5.519978671e-05,0.000000000e+00,1,1,0.344494372,-0.000013185,0.000031594,-0.889211635,0.526031949,0.300000000,0.000000000,0.000000000,-0.800000000,0.500000000
0.370000,-0.000420000,-0.056584518,0.043589620,-0.310851000,-0.056584518,0.034888271,5.473337660e-05,0.000000000e+00,1,1,0.341183455,-0.000012145,0.000029381,-0.882523148,0.523850398,0.300000000,0.000000000,0.000000000,-0.800000000,0.500000000
0.372500,-0.000420000,-0.056584518,0.042852881,-0.310851000,-0.056584518,0.034888271,5.410761137e-05,0.000000000e+00,1,1,0.337922845,-0.000011138,0.000027199,-0.875935907,0.521686011,0.300000000,0.000000000,0.000000000,-0.800000000,0.500000000
0.375000,-0.000420000,-0.056584518,0.042134625,-0.310851000,-0.056584518,0.034888271,5.331627650e-05,0.000000000e+00,1,1,0.334721960,-0.000010166,0.000025056,-0.869468929,0.519545590,0.300000000,0.000000000,0.000000000,-0.800000000,0.500000000
0.377500,-0.000420000,-0.056584518,0.041436766,-0.310851000,-0.056584518,0.034888271,5.235280546e-05,0.000000000e+00,1,1,0.331590573,-0.000009231,0.000022958,-0.863141969,0.517436464,0.300000000,0.000000000,0.000000000,-0.800000000,0.500000000
0.380000,-0.000420000,-0.056584518,0.040761254,-0.310851000,-0.056584518,0.034888271,5.121022916e-05,0.000000000e+00,1,1,0.328538819,-0.000008334,0.000020912,-0.856975537,0.515366513,0.300000000,0.000000000,0.000000000,-0.800000000,0.500000000
0.382500,-0.000420000,-0.056584518,0.040110075,-0.310851000,-0.056584518,0.034888271,4.988111129e-05,0.000000000e+00,1,1,0.325577203,-0.000007477,0.000018925,-0.850990921,0.513344186,0.300000000,0.000000000,0.000000000,-0.800000000,0.500000000
0.385000,-0.000420000,-0.056584518,0.039485260,-0.310851000,-0.056584518,0.034888271,4.835746240e-05,0.000000000e+00,1,1,0.322716616,-0.000006661,0.000017004,-0.845210212,0.511378521,0.300000000,0.000000000,0.000000000,-0.800000000,0.500000000
0.387500,-0.000420000,-0.056584518,0.038888887,-0.310851000,-0.056584518,0.034888271,4.663062423e-05,0.000000000e+00,1,1,0.319968348,-0.000005890,0.000015157,-0.839656341,0.509479162,0.300000000,0.000000000,0.000000000,-0.800000000,0.500000000
0.390000,-0.000420000,-0.056584518,0.038323093,-0.310851000,-0.056584518,0.034888271,4.469110749e-05,0.000000000e+00,1,1,0.317344114,-0.000005164,0.000013391,-0.834353131,0.507656377,0.300000000,0.000000000,0.000000000,-0.800000000,0.500000000
0.392500,-0.000420000,-0.056584518,0.037790083,-0.310851000,-0.056584518,0.034888271,4.252836050e-05,0.000000000e+00,1,1,0.314856090,-0.000004484,0.000011715,-0.829325366,0.505921086,0.300000000,0.000000000,0.000000000,-0.800000000,0.500000000
0.395000,-0.000420000,-0.056584518,0.037292151,-0.310851000,-0.056584518,0.034888271,9.703546717e-05,0.000000000e+00,1,1,0.312793373,-0.000003939,0.000010336,-0.825148366,0.504434635,0.300000000,0.000000000,0.000000000,-0.800000000,0.500000000
0.397500,-0.000420000,-0.056584518,0.036831698,-0.310851000,-0.056584518,0.034888271,4.196138933e-05,0.000000000e+00,1,1,0.310373508,-0.000003291,0.000008708,-0.820258539,0.502721360,0.300000000,0.000000000,0.000000000,-0.800000000,0.500000000
0.400000,-0.000420000,-0.056584518,0.036411269,-0.310851000,-0.056584518,0.034888271,8.361616939e-05,0.000000000e+00,1,1,0.308592858,-0.000002830,0.000007514,-0.816654109,0.501434096,0.300000000,0.000000000,0.000000000,-0.800000000,0.500000000
0.402500,-0.000420000,-0.056584518,0.036033601,-0.310851000,-0.056584518,0.034888271,8.381157855e-05,0.000000000e+00,1,1,0.306811536,-0.000002371,0.000006321,-0.813048719,0.500137094,0.300000000,0.000000000,0.000000000,-0.800000000,0.500000000
0.405000,-0.000420000,-0.056584518,0.035701703,-0.310851000,-0.056584518,0.034888271,7.576914786e-05,0.000000000e+00,1,1,0.305199404,-0.000001957,0.000005238,-0.809787476,0.498966894,0.300000000,0.000000000,0.000000000,-0.800000000,0.500000000
0.407500,-0.000420000,-0.056584518,0.035418979,-0.310851000,-0.056584518,0.034888271,6.552045689e-05,0.000000000e+00,1,1,0.303802706,-0.000001599,0.000004295,-0.806964161,0.497962518,0.300000000,0.000000000,0.000000000,-0.800000000,0.500000000
0.410000,-0.000420000,-0.056584518,0.035189475,-0.310851000,-0.056584518,0.034888271,5.405663478e-05,0.000000000e+00,1,1,0.302647073,-0.000001302,0.000003509,-0.804630945,0.497146765,0.300000000,0.000000000,0.000000000,-0.800000000,0.500000000
0.412500,-0.000420000,-0.056584518,0.035018374,-0.310851000,-0.056584518,0.034888271,9.655057229e-05,0.000000000e+00,1,1,0.302030708,-0.000001147,0.000003090,-0.803384677,0.496704951,0.300000000,0.000000000,0.000000000,-0.800000000,0.500000000
0.415000,-0.000420000,-0.056584518,0.034913432,-0.310851000,-0.056584518,0.034888271,8.646674977e-05,0.000000000e+00,1,1,0.301477365,-0.000001007,0.000002713,-0.802267175,0.496313122,0.300000000,0.000000000,0.000000000,-0.800000000,0.500000000
0.417500,-0.000420000,-0.056584518,0.034888271,-0.310851000,-0.056584518,0.034895541,4.790393819e-05,7.269341672e-06,1,1,0.301164964,-0.000000922,0.000002492,-0.801641151,0.496116993,0.300000000,0.000000000,0.000000000,-0.800000000,0.500000000
0.420000,-0.000420000,-0.056584518,0.034888271,-0.310851000,-0.056584518,0.034976929,4.790393819e-05,8.865816158e-05,1,1,0.301164964,-0.000000922,0.000002492,-0.801641151,0.496116993,0.300000000,0.000000000,0.000000000,-0.800000000,0.500000000
0.422500,-0.000420000,-0.056584518,0.034888271,-0.310851000,-0.056584518,0.035132387,4.790393819e-05,4.506586406e-05,1,1,0.301164964,-0.000000922,0.000002492,-0.801641151,0.496116993,0.300936840,0.000000213,0.000000605,-0.801911231,0.500773274
0.425000,-0.000420000,-0.056584518,0.034888271,-0.310851000,-0.056584518,0.035354628,4.790393819e-05,4.948012624e-05,1,1,0.301164964,-0.000000922,0.000002492,-0.801641151,0.496116993,0.301961059,0.000000454,0.000001265,-0.803998484,0.501615740
0.427500,-0.000420000,-0.056584518,0.034888271,-0.310851000,-0.056584518,0.035639909,4.790393819e-05,6.203606413e-05,1,1,0.301164964,-0.000000922,0.000002492,-0.801641151,0.496116993,0.303240282,0.000000756,0.000002089,-0.806605214,0.502664677
0.430000,-0.000420000,-0.056584518,0.034888271,-0.310851000,-0.056584518,0.035985788,4.790393819e-05,7.564293917e-05,1,1,0.301164964,-0.000000922,0.000002492,-0.801641151,0.496116993,0.304794216,0.000001127,0.000003089,-0.809771367,0.503933891
0.432500,-0.000420000,-0.056584518,0.034888271,-0.310851000,-0.056584518,0.036390474,4.790393819e-05,8.911157808e-05,1,1,0.301164964,-0.000000922,0.000002492,-0.801641151,0.496116993,0.306617448,0.000001568,0.000004263,-0.813485667,0.505416007
0.435000,-0.000420000,-0.056584518,0.034888271,-0.310851000,-0.056584518,0.036852548,4.790393819e-05,4.488862833e-05,1,1,0.301164964,-0.000000922,0.000002492,-0.801641151,0.496116993,0.308968536,0.000002152,0.000005773,-0.818271645,0.507313970
0.437500,-0.000420000,-0.056584518,0.034888271,-0.310851000,-0.056584518,0.037370812,4.790393819e-05,4.618772274e-05,1,1,0.301164964,-0.000000922,0.000002492,-0.801641151,0.496116993,0.311356721,0.000002748,0.000007309,-0.823133956,0.509228199
0.440000,-0.000420000,-0.056584518,0.034888271,-0.310851000,-0.056584518,0.037944207,4.790393819e-05,5.096516029e-05,1,1,0.301164964,-0.000000922,0.000002492,-0.801641151,0.496116993,0.313970028,0.000003409,0.000008991,-0.828454001,0.511307156
0.442500,-0.000420000,-0.056584518,0.034888271,-0.310851000,-0.056584518,0.038571756,4.790393819e-05,5.594299037e-05,1,1,0.301164964,-0.000000922,0.000002492,-0.801641151,0.496116993,0.316815615,0.000004142,0.000010822,-0.834245724,0.513552115
0.445000,-0.000420000,-0.056584518,0.034888271,-0.310851000,-0.056584518,0.039252533,4.790393819e-05,6.086618785e-05,1,1,0.301164964,-0.000000922,0.000002492,-0.801641151,0.496116993,0.319886546,0.000004946,0.000012799,-0.840494666,0.515952875
0.447500,-0.000420000,-0.056584518,0.034888271,-0.310851000,-0.056584518,0.039985635,4.790393819e-05,6.571364222e-05,1,1,0.301164964,-0.000000922,0.000002492,-0.801641151,0.496116993,0.323174796,0.000005823,0.000014916,-0.847184172,0.518498266
0.450000,-0.000420000,-0.056584518,0.034888271,-0.310851000,-0.056584518,0.040770164,4.790393819e-05,7.048141156e-05,1,1,0.301164964,-0.000000922,0.000002492,-0.801641151,0.496116993,0.326672218,0.000006774,0.000017167,-0.854297339,0.521176983
0.452500,-0.000420000,-0.056584518,0.034888271,-0.310851000,-0.056584518,0.041605217,4.790393819e-05,7.516624216e-05,1,1,0.301164964,-0.000000922,0.000002492,-0.801641151,0.496116993,0.330370598,0.000007801,0.000019549,-0.861817133,0.523977679
0.455000,-0.000420000,-0.056584518,0.034888271,-0.310851000,-0.056584518,0.042489870,4.790393819e-05,7.976454051e-05,1,1,0.301164964,-0.000000922,0.000002492,-0.801641151,0.496116993,0.334261649,0.000008905,0.000022056,-0.869726376,0.526889018
0.457500,-0.000420000,-0.056584518,0.034888271,-0.310851000,-0.056584518,0.043423178,4.790393819e-05,8.427246704e-05,1,1,0.301164964,-0.000000922,0.000002492,-0.801641151,0.496116993,0.338337016,0.000010086,0.000024683,-0.878007753,0.529899728
0.460000,-0.000420000,-0.056584518,0.034888271,-0.310851000,-0.056584518,0.044404164,4.790393819e-05,8.868606371e-05,1,1,0.301164964,-0.000000922,0.000002492,-0.801641151,0.496116993,0.342588276,0.000011347,0.000027424,-0.886643830,0.532998645
0.462500,-0.000420000,-0.056584518,0.034888271,-0.310851000,-0.056584518,0.045431815,4.790393819e-05,9.300134908e-05,1,1,0.301164964,-0.000000922,0.000002492,-0.801641151,0.496116993,0.347006955,0.000012689,0.000030274,-0.895617076,0.536174770
0.465000,-0.000420000,-0.056584518,0.034888271,-0.310851000,-0.056584518,0.046505080,4.790393819e-05,9.721438362e-05,1,1,0.301164964,-0.000000922,0.000002492,-0.801641151,0.496116993,0.351584537,0.000014112,0.000033228,-0.904909895,0.539417314
0.467500,-0.000420000,-0.056584518,0.034888271,-0.310851000,-0.056584518,0.047622868,4.790393819e-05,4.910463506e-05,1,1,0.301164964,-0.000000922,0.000002492,-0.801641151,0.496116993,0.356540200,0.000015704,0.000036432,-0.914958985,0.542843712
0.470000,-0.000420000,-0.056584518,0.034888271,-0.310851000,-0.056584518,0.048784045,4.790393819e-05,4.957224197e-05,1,1,0.301164964,-0.000000922,0.000002492,-0.801641151,0.496116993,0.361429717,0.000017307,0.000039601,-0.924871824,0.546161562
0.472500,-0.000420000,-0.056584518,0.034888271,-0.310851000,-0.056584518,0.049987429,4.790393819e-05,5.153117804e-05,1,1,0.301164964,-0.000000922,0.000002492,-0.801641151,0.496116993,0.366446129,0.000018993,0.000042856,-0.935037973,0.549506412
0.475000,-0.000420000,-0.056584518,0.034888271,-0.310851000,-0.056584518,0.051231797,4.790393819e-05,5.349003652e-05,1,1,0.301164964,-0.000000922,0.000002492,-0.801641151,0.496116993,0.371587341,0.000020766,0.000046196,-0.945452707,0.552873042
0.477500,-0.000420000,-0.056584518,0.034888271,-0.310851000,-0.056584518,0.052515877,4.790393819e-05,5.539965030e-05,1,1,0.301164964,-0.000000922,0.000002492,-0.801641151,0.496116993,0.376845116,0.000022626,0.000049616,-0.956099047,0.556252257
0.480000,-0.000420000,-0.056584518,0.034888271,-0.310851000,-0.056584518,0.053838349,4.790393819e-05,5.725645864e-05,1,1,0.301164964,-0.000000922,0.000002492,-0.801641151,0.496116993,0.382211075,0.000024574,0.000053111,-0.966959756,0.559635155
0.482500,-0.000420000,-0.056584518,0.034888271,-0.310851000,-0.056584518,0.055197850,4.790393819e-05,5.905848102e-05,1,1,0.301164964,-0.000000922,0.000002492,-0.801641151,0.496116993,0.387676900,0.000026611,0.000056677,-0.978017745,0.563013276
0.485000,-0.000420000,-0.056584518,0.034888271,-0.310851000,-0.056584518,0.056592968,4.790393819e-05,6.080392847e-05,1,1,0.301164964,-0.000000922,0.000002492,-0.801641151,0.496116993,0.393234350,0.000028737,0.000060307,-0.989256104,0.566378619
0.487500,-0.000420000,-0.056584518,0.034888271,-0.310851000,-0.056584518,0.058022244,4.790393819e-05,6.249115329e-05,1,1,0.301164964,-0.000000922,0.000002492,-0.801641151,0.496116993,0.398875270,0.000030953,0.000063998,-1.000658131,0.569723651
0.490000,-0.000420000,-0.056584518,0.034888271,-0.310851000,-0.056584518,0.059484175,4.790393819e-05,6.411863976e-05,1,1,0.301164964,-0.000000922,0.000002492,-0.801641151,0.496116993,0.404591608,0.000033257,0.000067746,-1.012207345,0.573041307
0.492500,-0.000420000,-0.056584518,0.034888271,-0.310851000,-0.056584518,0.060977214,4.790393819e-05,6.568499677e-05,1,1,0.301164964,-0.000000922,0.000002492,-0.801641151,0.496116993,0.410375415,0.000035652,0.000071544,-1.023887507,0.576324991
0.495000,-0.000420000,-0.056584518,0.034888271,-0.310851000,-0.056584518,0.062499768,4.790393819e-05,6.718894955e-05,1,1,0.301164964,-0.000000922,0.000002492,-0.801641151,0.496116993,0.416218859,0.000038135,0.000075390,-1.035682634,0.579568577
0.497500,-0.000420000,-0.056584518,0.034888271,-0.310851000,-0.056584518,0.064050201,4.790393819e-05,6.862933298e-05,1,1,0.301164964,-0.000000922,0.000002492,-0.801641151,0.496116993,0.422114229,0.000040707,0.000079278,-1.047577010,0.582766395
0.500000,-0.000420000,-0.056584518,0.034888271,-0.310851000,-0.056584518,0.065626839,4.790393819e-05,7.000508433e-05,1,1,0.301164964,-0.000000922,0.000002492,-0.801641151,0.496116993,0.428053938,0.000043368,0.000083203,-1.059555195,0.585913231
0.502500,-0.000420000,-0.056584518,0.034888271,-0.310851000,-0.056584518,0.067227962,4.790393819e-05,7.131523673e-05,1,1,0.301164964,-0.000000922,0.000002492,-0.801641151,0.496116993,0.434030533,0.000046116,0.000087163,-1.071602035,0.589004306
0.505000,-0.000420000,-0.056584518,0.034888271,-0.310851000,-0.056584518,0.068851816,4.790393819e-05,7.255891361e-05,1,1,0.301164964,-0.000000922,0.000002492,-0.801641151,0.496116993,0.440036690,0.000048950,0.000091152,-1.083702665,0.592035273
0.507500,-0.000420000,-0.056584518,0.034888271,-0.310851000,-0.056584518,0.070496609,4.790393819e-05,7.373532302e-05,1,1,0.301164964,-0.000000922,0.000002492,-0.801641151,0.496116993,0.446065227,0.000051870,0.000095166,-1.095842516,0.595002195
0.510000,-0.000420000,-0.056584518,0.034888271,-0.310851000,-0.056584518,0.072160510,4.790393819e-05,7.484375289e-05,1,1,0.301164964,-0.000000922,0.000002492,-0.801641151,0.496116993,0.452109094,0.000054874,0.000099202,-1.108007314,0.597901535
0.512500,-0.000420000,-0.056584518,0.034888271,-0.310851000,-0.056584518,0.073841658,4.790393819e-05,8.112201434e-05,1,1,0.301164964,-0.000000922,0.000002492,-0.801641151,0.496116993,0.458340732,0.000058047,0.000103368,-1.120363071,0.599566272
0.515000,-0.000420000,-0.056584518,0.034888271,-0.310851000,-0.056584518,0.075538158,4.790393819e-05,9.002310054e-05,1,1,0.301164964,-0.000000922,0.000002492,-0.801641151,0.496116993,0.464873358,0.000061454,0.000107734,-1.133011396,0.599433248
0.517500,-0.000420000,-0.056584518,0.034888271,-0.310851000,-0.056584518,0.077248086,4.790393819e-05,9.074857292e-05,1,1,0.301164964,-0.000000922,0.000002492,-0.801641151,0.496116993,0.471401115,0.000064952,0.000112109,-1.145633248,0.599442160
0.520000,-0.000420000,-0.056584518,0.034888271,-0.310851000,-0.056584518,0.078969489,4.790393819e-05,9.145679786e-05,1,1,0.301164964,-0.000000922,0.000002492,-0.801641151,0.496116993,0.477896576,0.000068526,0.000116475,-1.158194177,0.599450635
0.522500,-0.000420000,-0.056584518,0.034888271,-0.310851000,-0.056584518,0.080700389,4.790393819e-05,9.208407043e-05,1,1,0.301164964,-0.000000922,0.000002492,-0.801641151,0.496116993,0.484354102,0.000072175,0.000120829,-1.170682857,0.599458605
0.525000,-0.000420000,-0.056584518,0.034888271,-0.310851000,-0.056584518,0.082438783,4.790393819e-05,9.262906826e-05,1,1,0.301164964,-0.000000922,0.000002492,-0.801641151,0.496116993,0.490767851,0.000075894,0.000125168,-1.183087941,0.599466088
0.527500,-0.000420000,-0.056584518,0.034888271,-0.310851000,-0.056584518,0.084182647,4.790393819e-05,9.309290157e-05,1,1,0.301164964,-0.000000922,0.000002492,-0.801641151,0.496116993,0.497132130,0.000079681,0.000129489,-1.195398379,0.599473103
0.530000,-0.000420000,-0.056584518,0.034888271,-0.310851000,-0.056584518,0.085929939,4.790393819e-05,9.347672881e-05,1,1,0.301164964,-0.000000922,0.000002492,-0.801641151,0.496116993,0.503441400,0.000083532,0.000133788,-1.207603416,0.599479672
0.532500,-0.000420000,-0.056584518,0.034888271,-0.310851000,-0.056584518,0.087678598,4.790393819e-05,9.378166737e-05,1,1,0.301164964,-0.000000922,0.000002492,-0.801641151,0.496116993,0.509690269,0.000087444,0.000138062,-1.219692583,0.599485814
0.535000,-0.000420000,-0.056584518,0.034888271,-0.310851000,-0.056584518,0.089426549,4.790393819e-05,9.400879527e-05,1,1,0.301164964,-0.000000922,0.000002492,-0.801641151,0.496116993,0.515873491,0.000091412,0.000142308,-1.231655682,0.599491548
0.537500,-0.000420000,-0.056584518,0.034888271,-0.310851000,-0.056584518,0.091171706,4.790393819e-05,9.415915636e-05,1,1,0.301164964,-0.000000922,0.000002492,-0.801641151,0.496116993,0.521985952,0.000095432,0.000146523,-1.243482777,0.599496893
0.540000,-0.000420000,-0.056584518,0.034888271,-0.310851000,-0.056584518,0.092911971,4.790393819e-05,9.423376563e-05,1,1,0.301164964,-0.000000922,0.000002492,-0.801641151,0.496116993,0.528022672,0.000099501,0.000150704,-1.255164186,0.599501867
0.542500,-0.000420000,-0.056584518,0.034888271,-0.310851000,-0.056584518,0.094645243,4.790393819e-05,9.423361449e-05,1,1,0.301164964,-0.000000922,0.000002492,-0.801641151,0.496116993,0.533978798,0.000103613,0.000154848,-1.266690466,0.599506487
0.545000,-0.000420000,-0.056584518,0.034888271,-0.310851000,-0.056584518,0.096369412,4.790393819e-05,9.415967553e-05,1,1,0.301164964,-0.000000922,0.000002492,-0.801641151,0.496116993,0.539849595,0.000107763,0.000158953,-1.278052411,0.599510770
0.547500,-0.000420000,-0.056584518,0.034888271,-0.310851000,-0.056584518,0.098082368,4.790393819e-05,9.401290752e-05,1,1,0.301164964,-0.000000922,0.000002492,-0.801641151,0.496116993,0.545630450,0.000111947,0.000163014,-1.289241040,0.599514732
0.550000,-0.000420000,-0.056584518,0.034888271,-0.310851000,-0.056584518,0.099782003,4.790393819e-05,9.379426001e-05,1,1,0.301164964,-0.000000922,0.000002492,-0.801641151,0.496116993,0.551316861,0.000116159,0.000167031,-1.300247592,0.599518389
0.552500,-0.000420000,-0.056584518,0.034888271,-0.310851000,-0.056584518,0.101466210,4.790393819e-05,9.350467798e-05,1,1,0.301164964,-0.000000922,0.000002492,-0.801641151,0.496116993,0.556904438,0.000120394,0.000170999,-1.311063519,0.599521755
0.555000,-0.000420000,-0.056584518,0.034888271,-0.310851000,-0.056584518,0.103132890,4.790393819e-05,9.314510563e-05,1,1,0.301164964,-0.000000922,0.000002492,-0.801641151,0.496116993,0.562388897,0.000124646,0.000174916,-1.321680481,0.599524846
0.557500,-0.000420000,-0.056584518,0.034888271,-0.310851000,-0.056584518,0.104779950,4.790393819e-05,9.271649068e-05,1,1,0.301164964,-0.000000922,0.000002492,-0.801641151,0.496116993,0.567766060,0.000128909,0.000178779,-1.332090340,0.599527674
0.560000,-0.000420000,-0.056584518,0.034888271,-0.310851000,-0.056584518,0.106405313,4.790393819e-05,9.221978814e-05,1,1,0.301164964,-0.000000922,0.000002492,-0.801641151,0.496116993,0.573031851,0.000133177,0.000182586,-1.342285154,0.599530253
0.562500,-0.000420000,-0.056584518,0.034888271,-0.310851000,-0.056584518,0.108006911,4.790393819e-05,9.165596364e-05,1,1,0.301164964,-0.000000922,0.000002492,-0.801641151,0.496116993,0.578182294,0.000137445,0.000186334,-1.352257179,0.599532596
0.565000,-0.000420000,-0.056584518,0.034888271,-0.310851000,-0.056584518,0.109582696,4.790393819e-05,9.102599685e-05,1,1,0.301164964,-0.000000922,0.000002492,-0.801641151,0.496116993,0.583213512,0.000141704,0.000190021,-1.361998859,0.599534714
0.567500,-0.000420000,-0.056584518,0.034888271,-0.310851000,-0.056584518,0.111130639,4.790393819e-05,9.033088459e-05,1,1,0.301164964,-0.000000922,0.000002492,-0.801641151,0.496116993,0.588121723,0.000145950,0.000193645,-1.371502827,0.599536620
0.570000,-0.000420000,-0.056584518,0.034888271,-0.310851000,-0.056584518,0.112648732,4.790393819e-05,8.957164358e-05,1,1,0.301164964,-0.000000922,0.000002492,-0.801641151,0.496116993,0.592903244,0.000150175,0.000197201,-1.380761899,0.599538323
0.572500,-0.000420000,-0.056584518,0.034888271,-0.310851000,-0.056584518,0.114134995,4.790393819e-05,8.874931308e-05,1,1,0.301164964,-0.000000922,0.000002492,-0.801641151,0.496116993,0.597554482,0.000154372,0.000200689,-1.389769078,0.599539835
0.575000,-0.000420000,-0.056584518,0.034888271,-0.310851000,-0.056584518,0.115587472,4.790393819e-05,8.786495735e-05,1,1,0.301164964,-0.000000922,0.000002492,-0.801641151,0.496116993,0.602071941,0.000158534,0.000204106,-1.398517545,0.599541165
0.577500,-0.000420000,-0.056584518,0.034888271,-0.310851000,-0.056584518,0.117004240,4.790393819e-05,8.691966772e-05,1,1,0.301164964,-0.000000922,0.000002492,-0.801641151,0.496116993,0.606452215,0.000162654,0.000207450,-1.407000665,0.599542323
0.580000,-0.000420000,-0.056584518,0.034888271,-0.310851000,-0.056584518,0.118383408,4.790393819e-05,8.591456461e-05,1,1,0.301164964,-0.000000922,0.000002492,-0.801641151,0.496116993,0.610691994,0.000166725,0.000210718,-1.415211980,0.599543317
0.582500,-0.000420000,-0.056584518,0.034888271,-0.310851000,-0.056584518,0.119723120,4.790393819e-05,8.485079938e-05,1,1,0.301164964,-0.000000922,0.000002492,-0.801641151,0.496116993,0.614788056,0.000170739,0.000213907,-1.423145212,0.599544156
0.585000,-0.000420000,-0.056584518,0.034888271,-0.310851000,-0.056584518,0.121021560,4.790393819e-05,8.372955567e-05,1,1,0.301164964,-0.000000922,0.000002492,-0.801641151,0.496116993,0.618737272,0.000174690,0.000217016,-1.430794263,0.599544848
0.587500,-0.000420000,-0.056584518,0.034888271,-0.310851000,-0.056584518,0.122276953,4.790393819e-05,8.255205099e-05,1,1,0.301164964,-0.000000922,0.000002492,-0.801641151,0.496116993,0.622536607,0.000178568,0.000220043,-1.438153212,0.599545399
0.590000,-0.000420000,-0.056584518,0.034888271,-0.310851000,-0.056584518,0.123487564,4.790393819e-05,8.131953770e-05,1,1,0.301164964,-0.000000922,0.000002492,-0.801641151,0.496116993,0.626183115,0.000182368,0.000222985,-1.445216320,0.599545817
0.592500,-0.000420000,-0.056584518,0.034888271,-0.310851000,-0.056584518,0.124651709,4.790393819e-05,8.003330409e-05,1,1,0.301164964,-0.000000922,0.000002492,-0.801641151,0.496116993,0.629673943,0.000186081,0.000225839,-1.451978024,0.599546109
0.595000,-0.000420000,-0.056584518,0.034888271,-0.310851000,-0.056584518,0.125767749,4.790393819e-05,7.869467519e-05,1,1,0.301164964,-0.000000922,0.000002492,-0.801641151,0.496116993,0.633006332,0.000189701,0.000228605,-1.458432946,0.599546279
0.597500,-0.000420000,-0.056584518,0.034888271,-0.310851000,-0.056584518,0.126834097,4.790393819e-05,7.730501334e-05,1,1,0.301164964,-0.000000922,0.000002492,-0.801641151,0.496116993,0.636177614,0.000193218,0.000231279,-1.464575886,0.599546335
0.600000,-0.000420000,-0.056584518,0.034888271,-0.310851000,-0.056584518,0.127849220,4.790393819e-05,7.586571868e-05,1,1,0.301164964,-0.000000922,0.000002492,-0.801641151,0.496116993,0.639185216,0.000196627,0.000233860,-1.470401828,0.599546280
0.602500,-0.000420000,-0.056584518,0.034888271,-0.310851000,-0.056584518,0.128811639,4.790393819e-05,7.539714343e-05,1,1,0.301164964,-0.000000922,0.000002492,-0.801641151,0.496116993,0.641949794,0.000199853,0.000236304,-1.475858091,0.600000000
0.605000,-0.000420000,-0.056584518,0.034888271,-0.310851000,-0.056584518,0.129719934,4.790393819e-05,6.922094993e-05,1,1,0.301164964,-0.000000922,0.000002492,-0.801641151,0.496116993,0.644671867,0.000203063,0.000238719,-1.481066570,0.599859086
0.607500,-0.000420000,-0.056584518,0.034888271,-0.310851000,-0.056584518,0.130572745,4.790393819e-05,7.253153901e-05,1,1,0.301164964,-0.000000922,0.000002492,-0.801641151,0.496116993,0.647123600,0.000206056,0.000240979,-1.485882392,0.600000000
0.610000,-0.000420000,-0.056584518,0.034888271,-0.310851000,-0.056584518,0.131368776,4.790393819e-05,6.613221283e-05,1,1,0.301164964,-0.000000922,0.000002492,-0.801641151,0.496116993,0.649503114,0.000209000,0.000243194,-1.490425100,0.599853094
0.612500,-0.000420000,-0.056584518,0.034888271,-0.310851000,-0.056584518,0.132106792,4.790393819e-05,9.561222031e-05,1,1,0.301164964,-0.000000922,0.000002492,-0.801641151,0.496116993,0.651545316,0.000211448,0.000244986,-1.494410766,0.599949468
0.615000,-0.000420000,-0.056584518,0.034888271,-0.310851000,-0.056584518,0.132785628,4.790393819e-05,9.405839737e-05,1,1,0.301164964,-0.000000922,0.000002492,-0.801641151,0.496116993,0.653520327,0.000213852,0.000246737,-1.498240512,0.599946173
0.617500,-0.000420000,-0.056584518,0.034888271,-0.310851000,-0.056584518,0.133404185,4.790393819e-05,8.987320996e-05,1,1,0.301164964,-0.000000922,0.000002492,-0.801641151,0.496116993,0.655327112,0.000216115,0.000248395,-1.501738282,0.599933924
0.620000,-0.000420000,-0.056584518,0.034888271,-0.310851000,-0.056584518,0.133961436,4.790393819e-05,8.539646186e-05,1,1,0.301164964,-0.000000922,0.000002492,-0.801641151,0.496116993,0.656954184,0.000218221,0.000249953,-1.504886998,0.599920682
0.622500,-0.000420000,-0.056584518,0.034888271,-0.310851000,-0.056584518,0.134456425,4.790393819e-05,8.082806911e-05,1,1,0.301164964,-0.000000922,0.000002492,-0.801641151,0.496116993,0.658398933,0.000220165,0.000251410,-1.507682268,0.599907142
0.625000,-0.000420000,-0.056584518,0.034888271,-0.310851000,-0.056584518,0.134888271,4.790393819e-05,7.619003791e-05,1,1,0.301164964,-0.000000922,0.000002492,-0.801641151,0.496116993,0.659659681,0.000221941,0.000252762,-1.510120900,0.599893361
0.627500,-0.000420000,-0.056584518,0.034888271,-0.310851000,-0.056584518,0.135256169,4.790393819e-05,7.148969454e-05,1,1,0.301164964,-0.000000922,0.000002492,-0.801641151,0.496116993,0.660734927,0.000223544,0.000254008,-1.512199983,0.599879339
0.630000,-0.000420000,-0.056584518,0.034888271,-0.310851000,-0.056584518,0.135559390,4.790393819e-05,6.673350141e-05,1,1,0.301164964,-0.000000922,0.000002492,-0.801641151,0.496116993,0.661623283,0.000224969,0.000255146,-1.513916819,0.599865072
0.632500,-0.000420000,-0.056584518,0.034888271,-0.310851000,-0.056584518,0.135797284,4.790393819e-05,9.223290521e-05,1,1,0.301164964,-0.000000922,0.000002492,-0.801641151,0.496116993,0.662260754,0.000225956,0.000255924,-1.515132202,0.599565702
0.635000,-0.000420000,-0.056584518,0.034888271,-0.310851000,-0.056584518,0.135969282,4.790393819e-05,8.367614041e-05,1,1,0.301164964,-0.000000922,0.000002492,-0.801641151,0.496116993,0.662716123,0.000226774,0.000256599,-1.516095613,0.600000000
0.637500,-0.000420000,-0.056584518,0.034888271,-0.310851000,-0.056584518,0.136074895,4.790393819e-05,6.755343752e-05,1,1,0.301164964,-0.000000922,0.000002492,-0.801641151,0.496116993,0.663100740,0.000227519,0.000257233,-1.516778060,0.599868355
0.640000,-0.000420000,-0.056584518,0.034888271,-0.310851000,-0.056584518,0.136113719,4.790393819e-05,7.120607293e-05,1,1,0.301164964,-0.000000922,0.000002492,-0.801641151,0.496116993,0.663174766,0.000227780,0.000257486,-1.516964754,0.600000000
0.642500,-0.000420000,-0.056584518,0.034888271,-0.310851000,-0.056584518,0.136085431,4.790393819e-05,4.463709937e-05,1,1,0.301164964,-0.000000922,0.000002492,-0.801641151,0.496116993,0.663174766,0.000227780,0.000257486,-1.516964754,0.600000000
0.645000,-0.000420000,-0.056584518,0.034888271,-0.310851000,-0.056584518,0.135989796,4.790393819e-05,5.863645398e-05,1,1,0.301164964,-0.000000922,0.000002492,-0.801641151,0.496116993,0.663174766,0.000227780,0.000257486,-1.516964754,0.600000000
0.647500,-0.000420000,-0.056584518,0.034888271,-0.310851000,-0.056584518,0.135826662,4.790393819e-05,6.697284405e-05,1,1,0.301164964,-0.000000922,0.000002492,-0.801641151,0.496116993,0.662794009,0.000227614,0.000257499,-1.516141718,0.599462611
0.650000,-0.000420000,-0.056584518,0.034888271,-0.310851000,-0.056584518,0.135595966,4.790393819e-05,9.724793525e-05,1,1,0.301164964,-0.000000922,0.000002492,-0.801641151,0.496116993,0.662243503,0.000227285,0.000257420,-1.515045228,0.599541462
0.652500,-0.000420000,-0.056584518,0.034888271,-0.310851000,-0.056584518,0.135297730,4.790393819e-05,3.404905572e-05,1,1,0.301164964,-0.000000922,0.000002492,-0.801641151,0.496116993,0.661191652,0.000226656,0.000257279,-1.513018755,0.599718216
0.655000,-0.000420000,-0.056584518,0.034888271,-0.310851000,-0.056584518,0.134932066,4.790393819e-05,3.454139987e-05,1,1,0.301164964,-0.000000922,0.000002492,-0.801641151,0.496116993,0.660118941,0.000225996,0.000257110,-1.510970357,0.599883808
0.657500,-0.000420000,-0.056584518,0.034888271,-0.310851000,-0.056584518,0.134499175,4.790393819e-05,4.570777790e-05,1,1,0.301164964,-0.000000922,0.000002492,-0.801641151,0.496116993,0.658889516,0.000225176,0.000256843,-1.508608899,0.599990656
0.660000,-0.000420000,-0.056584518,0.034888271,-0.310851000,-0.056584518,0.133999345,4.790393819e-05,5.854472991e-05,1,1,0.301164964,-0.000000922,0.000002492,-0.801641151,0.496116993,0.657480265,0.000224177,0.000256463,-1.505885537,0.600000000
0.662500,-0.000420000,-0.056584518,0.034888271,-0.310851000,-0.056584518,0.133432954,4.790393819e-05,7.113306082e-05,1,1,0.301164964,-0.000000922,0.000002492,-0.801641151,0.496116993,0.655951773,0.000223052,0.000256002,-1.502830775,0.599449767
0.665000,-0.000420000,-0.056584518,0.034888271,-0.310851000,-0.056584518,0.132800472,4.790393819e-05,8.526461986e-05,1,1,0.301164964,-0.000000922,0.000002492,-0.801641151,0.496116993,0.654190365,0.000221700,0.000255398,-1.499376689,0.599370506
0.667500,-0.000420000,-0.056584518,0.034888271,-0.310851000,-0.056584518,0.132102454,4.790393819e-05,9.880198343e-05,1,1,0.301164964,-0.000000922,0.000002492,-0.801641151,0.496116993,0.652230272,0.000220152,0.000254668,-1.495543290,0.599221201
0.670000,-0.000420000,-0.056584518,0.034888271,-0.310851000,-0.056584518,0.131339549,4.790393819e-05,2.390199015e-05,1,1,0.301164964,-0.000000922,0.000002492,-0.801641151,0.496116993,0.649796948,0.000218269,0.000253800,-1.490819296,0.599168291
0.672500,-0.000420000,-0.056584518,0.034888271,-0.310851000,-0.056584518,0.130512494,4.790393819e-05,2.328413011e-05,1,1,0.301164964,-0.000000922,0.000002492,-0.801641151,0.496116993,0.647389703,0.000216389,0.000252900,-1.486144252,0.599114812
0.675000,-0.000420000,-0.056584518,0.034888271,-0.310851000,-0.056584518,0.129622116,4.790393819e-05,2.753446949e-05,1,1,0.301164964,-0.000000922,0.000002492,-0.801641151,0.496116993,0.644815399,0.000214335,0.000251870,-1.481131481,0.598993988
0.677500,-0.000420000,-0.056584518,0.034888271,-0.310851000,-0.056584518,0.128669328,4.790393819e-05,3.215089772e-05,1,1,0.301164964,-0.000000922,0.000002492,-0.801641151,0.496116993,0.642061250,0.000212098,0.000250699,-1.475755921,0.598801832
0.680000,-0.000420000,-0.056584518,0.034888271,-0.310851000,-0.056584518,0.127655137,4.790393819e-05,3.678846179e-05,1,1,0.301164964,-0.000000922,0.000002492,-0.801641151,0.496116993,0.639127182,0.000209679,0.000249388,-1.470017717,0.598538664
0.682500,-0.000420000,-0.056584518,0.034888271,-0.310851000,-0.056584518,0.126580634,4.790393819e-05,4.140264251e-05,1,1,0.301164964,-0.000000922,0.000002492,-0.801641151,0.496116993,0.636014146,0.000207084,0.000247935,-1.463919020,0.598205044
0.685000,-0.000420000,-0.056584518,0.034888271,-0.310851000,-0.056584518,0.125446998,4.790393819e-05,4.597602971e-05,1,1,0.301164964,-0.000000922,0.000002492,-0.801641151,0.496116993,0.632723301,0.000204317,0.000246338,-1.457462388,0.597801481
0.687500,-0.000420000,-0.056584518,0.034888271,-0.310851000,-0.056584518,0.124255497,4.790393819e-05,5.049641444e-05,1,1,0.301164964,-0.000000922,0.000002492,-0.801641151,0.496116993,0.629255963,0.000201382,0.000244598,-1.450650679,0.597328420
0.690000,-0.000420000,-0.056584518,0.034888271,-0.310851000,-0.056584518,0.123007483,4.790393819e-05,5.495390164e-05,1,1,0.301164964,-0.000000922,0.000002492,-0.801641151,0.496116993,0.625613600,0.000198286,0.000242712,-1.443487050,0.596786237
0.692500,-0.000420000,-0.056584518,0.034888271,-0.310851000,-0.056584518,0.121704393,4.790393819e-05,5.933997910e-05,1,1,0.301164964,-0.000000922,0.000002492,-0.801641151,0.496116993,0.621797841,0.000195034,0.000240682,-1.435974963,0.596175237
0.695000,-0.000420000,-0.056584518,0.034888271,-0.310851000,-0.056584518,0.120347748,4.790393819e-05,6.364703864e-05,1,1,0.301164964,-0.000000922,0.000002492,-0.801641151,0.496116993,0.617810473,0.000191632,0.000238506,-1.428118187,0.595495660
0.697500,-0.000420000,-0.056584518,0.034888271,-0.310851000,-0.056584518,0.118939153,4.790393819e-05,6.786809799e-05,1,1,0.301164964,-0.000000922,0.000002492,-0.801641151,0.496116993,0.613653447,0.000188088,0.000236185,-1.419920809,0.594747677
0.700000,-0.000420000,-0.056584518,0.034888271,-0.310851000,-0.056584518,0.117480293,4.790393819e-05,7.199663029e-05,1,1,0.301164964,-0.000000922,0.000002492,-0.801641151,0.496116993,0.609328886,0.000184407,0.000233718,-1.411387239,0.593931395
0.702500,-0.000420000,-0.056584518,0.034888271,-0.310851000,-0.056584518,0.115972934,4.790393819e-05,7.602645801e-05,1,1,0.301164964,-0.000000922,0.000002492,-0.801641151,0.496116993,0.604839082,0.000180598,0.000231105,-1.402522221,0.593046854
0.705000,-0.000420000,-0.056584518,0.034888271,-0.310851000,-0.056584518,0.114418921,4.790393819e-05,7.995168271e-05,1,1,0.301164964,-0.000000922,0.000002492,-0.801641151,0.496116993,0.600186510,0.000176668,0.000228349,-1.393330839,0.592094032
0.707500,-0.000420000,-0.056584518,0.034888271,-0.310851000,-0.056584518,0.112820174,4.790393819e-05,8.376663964e-05,1,1,0.301164964,-0.000000922,0.000002492,-0.801641151,0.496116993,0.595373823,0.000172624,0.000225448,-1.383818528,0.591072845
0.710000,-0.000420000,-0.056584518,0.034888271,-0.310851000,-0.056584518,0.111178692,4.790393819e-05,8.746586668e-05,1,1,0.301164964,-0.000000922,0.000002492,-0.801641151,0.496116993,0.590403868,0.000168476,0.000222404,-1.373991086,0.589983152
0.712500,-0.000420000,-0.056584518,0.034888271,-0.310851000,-0.056584518,0.109496545,4.790393819e-05,9.104408229e-05,1,1,0.301164964,-0.000000922,0.000002492,-0.801641151,0.496116993,0.585279684,0.000164232,0.000219219,-1.363854684,0.588824753
0.715000,-0.000420000,-0.056584518,0.034888271,-0.310851000,-0.056584518,0.107775876,4.790393819e-05,9.449617124e-05,1,1,0.301164964,-0.000000922,0.000002492,-0.801641151,0.496116993,0.580004514,0.000159900,0.000215894,-1.353415883,0.587597401
0.717500,-0.000420000,-0.056584518,0.034888271,-0.310851000,-0.056584518,0.106018899,4.790393819e-05,9.781717226e-05,1,1,0.301164964,-0.000000922,0.000002492,-0.801641151,0.496116993,0.574581812,0.000155490,0.000212432,-1.342681644,0.586300798
0.720000,-0.000420000,-0.056584518,0.034888271,-0.310851000,-0.056584518,0.104227896,4.790393819e-05,2.245182649e-05,1,1,0.301164964,-0.000000922,0.000002492,-0.801641151,0.496116993,0.568725952,0.000150693,0.000208538,-1.331139115,0.585118375
0.722500,-0.000420000,-0.056584518,0.034888271,-0.310851000,-0.056584518,0.102405213,4.790393819e-05,9.849563883e-05,1,1,0.301164964,-0.000000922,0.000002492,-0.801641151,0.496116993,0.563246625,0.000146331,0.000204937,-1.320287789,0.583765755
0.725000,-0.000420000,-0.056584518,0.034888271,-0.310851000,-0.056584518,0.100553264,4.790393819e-05,2.519666182e-05,1,1,0.301164964,-0.000000922,0.000002492,-0.801641151,0.496116993,0.557119029,0.000141425,0.000200762,-1.308199271,0.582439007
0.727500,-0.000420000,-0.056584518,0.034888271,-0.310851000,-0.056584518,0.098674521,4.790393819e-05,2.441270720e-05,1,1,0.301164964,-0.000000922,0.000002492,-0.801641151,0.496116993,0.551086759,0.000136649,0.000196583,-1.296298140,0.581127717
0.730000,-0.000420000,-0.056584518,0.034888271,-0.310851000,-0.056584518,0.096771519,4.790393819e-05,2.564793588e-05,1,1,0.301164964,-0.000000922,0.000002492,-0.801641151,0.496116993,0.544935386,0.000131848,0.000192280,-1.284156208,0.579740391
0.732500,-0.000420000,-0.056584518,0.034888271,-0.310851000,-0.056584518,0.094846850,4.790393819e-05,2.690106965e-05,1,1,0.301164964,-0.000000922,0.000002492,-0.801641151,0.496116993,0.538663297,0.000127027,0.000187854,-1.271770430,0.578274066
0.735000,-0.000420000,-0.056584518,0.034888271,-0.310851000,-0.056584518,0.092903158,4.790393819e-05,2.811157492e-05,1,1,0.301164964,-0.000000922,0.000002492,-0.801641151,0.496116993,0.532275467,0.000122197,0.000183311,-1.259150745,0.576728401
0.737500,-0.000420000,-0.056584518,0.034888271,-0.310851000,-0.056584518,0.090943144,4.790393819e-05,2.927550563e-05,1,1,0.301164964,-0.000000922,0.000002492,-0.801641151,0.496116993,0.525777370,0.000117367,0.000178655,-1.246308046,0.575103130
0.740000,-0.000420000,-0.056584518,0.034888271,-0.310851000,-0.056584518,0.088969558,4.790393819e-05,3.039076414e-05,1,1,0.301164964,-0.000000922,0.000002492,-0.801641151,0.496116993,0.519174803,0.000112547,0.000173894,-1.233253860,0.573398001
0.742500,-0.000420000,-0.056584518,0.034888271,-0.310851000,-0.056584518,0.086985198,4.790393819e-05,3.145545337e-05,1,1,0.301164964,-0.000000922,0.000002492,-0.801641151,0.496116993,0.512473907,0.000107747,0.000169031,-1.220000370,0.571612801
0.745000,-0.000420000,-0.056584518,0.034888271,-0.310851000,-0.056584518,0.084992907,4.790393819e-05,3.246778762e-05,1,1,0.301164964,-0.000000922,0.000002492,-0.801641151,0.496116993,0.505681182,0.000102976,0.000164075,-1.206560458,0.569747373
0.747500,-0.000420000,-0.056584518,0.034888271,-0.310851000,-0.056584518,0.082995573,4.790393819e-05,3.342605490e-05,1,1,0.301164964,-0.000000922,0.000002492,-0.801641151,0.496116993,0.498803508,0.000098245,0.000159032,-1.192947743,0.567801644
0.750000,-0.000420000,-0.056584518,0.034888271,-0.310851000,-0.056584518,0.080996122,4.790393819e-05,3.432858519e-05,1,1,0.301164964,-0.000000922,0.000002492,-0.801641151,0.496116993,0.491848168,0.000093561,0.000153909,-1.179176628,0.565775655
0.752500,-0.000420000,-0.056584518,0.034888271,-0.310851000,-0.056584518,0.078997522,4.790393819e-05,3.517371993e-05,1,1,0.301164964,-0.000000922,0.000002492,-0.801641151,0.496116993,0.484822868,0.000088934,0.000148714,-1.165262349,0.563669598
0.755000,-0.000420000,-0.056584518,0.034888271,-0.310851000,-0.056584518,0.077002776,4.790393819e-05,3.595978218e-05,1,1,0.301164964,-0.000000922,0.000002492,-0.801641151,0.496116993,0.477735767,0.000084373,0.000143454,-1.151221025,0.561483847
0.757500,-0.000420000,-0.056584518,0.034888271,-0.310851000,-0.056584518,0.075014919,4.790393819e-05,3.668504683e-05,1,1,0.301164964,-0.000000922,0.000002492,-0.801641151,0.496116993,0.470595498,0.000079886,0.000138139,-1.137069714,0.559219003
0.760000,-0.000420000,-0.056584518,0.034888271,-0.310851000,-0.056584518,0.073037021,4.790393819e-05,3.734770914e-05,1,1,0.301164964,-0.000000922,0.000002492,-0.801641151,0.496116993,0.463411203,0.000075480,0.000132776,-1.122826470,0.556875946
0.762500,-0.000420000,-0.056584518,0.034888271,-0.310851000,-0.056584518,0.071072177,4.790393819e-05,3.794585124e-05,1,1,0.301164964,-0.000000922,0.000002492,-0.801641151,0.496116993,0.456192555,0.000071164,0.000127375,-1.108510409,0.554455879
0.765000,-0.000420000,-0.056584518,0.034888271,-0.310851000,-0.056584518,0.069123514,4.790393819e-05,3.847740666e-05,1,1,0.301164964,-0.000000922,0.000002492,-0.801641151,0.496116993,0.448949795,0.000066944,0.000121945,-1.094141772,0.551960391
0.767500,-0.000420000,-0.056584518,0.034888271,-0.310851000,-0.056584518,0.067194182,4.790393819e-05,3.894012115e-05,1,1,0.301164964,-0.000000922,0.000002492,-0.801641151,0.496116993,0.441693759,0.000062828,0.000116497,-1.079741991,0.549391524
0.770000,-0.000420000,-0.056584518,0.034888271,-0.310851000,-0.056584518,0.065287355,4.790393819e-05,3.933151080e-05,1,1,0.301164964,-0.000000922,0.000002492,-0.801641151,0.496116993,0.434435919,0.000058821,0.000111040,-1.065333765,0.546751837
0.772500,-0.000420000,-0.056584518,0.034888271,-0.310851000,-0.056584518,0.063406230,4.790393819e-05,3.964881622e-05,1,1,0.301164964,-0.000000922,0.000002492,-0.801641151,0.496116993,0.427188408,0.000054930,0.000105584,-1.050941132,0.544044491
0.775000,-0.000420000,-0.056584518,0.034888271,-0.310851000,-0.056584518,0.061554024,4.790393819e-05,3.988895294e-05,1,1,0.301164964,-0.000000922,0.000002492,-0.801641151,0.496116993,0.419964064,0.000051159,0.000100142,-1.036589542,0.541273327
0.777500,-0.000420000,-0.056584518,0.034888271,-0.310851000,-0.056584518,0.059733976,4.790393819e-05,4.004845803e-05,1,1,0.301164964,-0.000000922,0.000002492,-0.801641151,0.496116993,0.412776457,0.000047515,0.000094724,-1.022305939,0.538442962
0.780000,-0.000420000,-0.056584518,0.034888271,-0.310851000,-0.056584518,0.057949342,4.790393819e-05,4.012343297e-05,1,1,0.301164964,-0.000000922,0.000002492,-0.801641151,0.496116993,0.405639930,0.000044001,0.000089342,-1.008118833,0.535558885
0.782500,-0.000420000,-0.056584518,0.034888271,-0.310851000,-0.056584518,0.056203399,4.790393819e-05,4.010948239e-05,1,1,0.301164964,-0.000000922,0.000002492,-0.801641151,0.496116993,0.398569631,0.000040621,0.000084008,-0.994058381,0.532627561
0.785000,-0.000420000,-0.056584518,0.034888271,-0.310851000,-0.056584518,0.054499443,4.790393819e-05,4.000165042e-05,1,1,0.301164964,-0.000000922,0.000002492,-0.801641151,0.496116993,0.391581546,0.000037380,0.000078736,-0.980156460,0.529656543
0.787500,-0.000420000,-0.056584518,0.034888271,-0.310851000,-0.056584518,0.052840791,4.790393819e-05,3.979435312e-05,1,1,0.301164964,-0.000000922,0.000002492,-0.801641151,0.496116993,0.384692532,0.000034279,0.000073537,-0.966446742,0.526654584
0.790000,-0.000420000,-0.056584518,0.034888271,-0.310851000,-0.056584518,0.051230783,4.790393819e-05,3.948130964e-05,1,1,0.301164964,-0.000000922,0.000002492,-0.801641151,0.496116993,0.377920344,0.000031322,0.000068425,-0.952964759,0.523631756
0.792500,-0.000420000,-0.056584518,0.034888271,-0.310851000,-0.056584518,0.049672783,4.790393819e-05,3.905547095e-05,1,1,0.301164964,-0.000000922,0.000002492,-0.801641151,0.496116993,0.371283665,0.000028510,0.000063415,-0.939747974,0.520599569
0.795000,-0.000420000,-0.056584518,0.034888271,-0.310851000,-0.056584518,0.048170186,4.790393819e-05,3.850894759e-05,1,1,0.301164964,-0.000000922,0.000002492,-0.801641151,0.496116993,0.364802125,0.000025846,0.000058519,-0.926835832,0.517571088
0.797500,-0.000420000,-0.056584518,0.034888271,-0.310851000,-0.056584518,0.046726424,4.790393819e-05,3.783293620e-05,1,1,0.301164964,-0.000000922,0.000002492,-0.801641151,0.496116993,0.358496325,0.000023329,0.000053755,-0.914269819,0.514561050
0.800000,-0.000420000,-0.056584518,0.034888271,-0.310851000,-0.056584518,0.045344970,4.790393819e-05,9.984639396e-05,1,1,0.301164964,-0.000000922,0.000002492,-0.801641151,0.496116993,0.352713345,0.000021154,0.000049516,-0.902701654,0.511510832
0.802500,-0.000420000,-0.056584518,0.034888271,-0.310851000,-0.056584518,0.044029353,4.790393819e-05,3.810494677e-05,1,1,0.301164964,-0.000000922,0.000002492,-0.801641151,0.496116993,0.346560216,0.000018835,0.000044884,-0.890431269,0.508422735
0.805000,-0.000420000,-0.056584518,0.034888271,-0.310851000,-0.056584518,0.042783171,4.790393819e-05,9.212076169e-05,1,1,0.301164964,-0.000000922,0.000002492,-0.801641151,0.496116993,0.341209013,0.000016930,0.000040947,-0.879723369,0.505511377
0.807500,-0.000420000,-0.056584518,0.034888271,-0.310851000,-0.056584518,0.041610110,4.790393819e-05,9.191780949e-05,1,1,0.301164964,-0.000000922,0.000002492,-0.801641151,0.496116993,0.335887389,0.000015083,0.000037042,-0.869071896,0.502549447
0.810000,-0.000420000,-0.056584518,0.034888271,-0.310851000,-0.056584518,0.040513970,4.790393819e-05,8.714599879e-05,1,1,0.301164964,-0.000000922,0.000002492,-0.801641151,0.496116993,0.330836952,0.000013371,0.000033322,-0.858963882,0.499711146
0.812500,-0.000420000,-0.056584518,0.034888271,-0.310851000,-0.056584518,0.039498705,4.790393819e-05,8.161769991e-05,1,1,0.301164964,-0.000000922,0.000002492,-0.801641151,0.496116993,0.326101522,0.000011799,0.000029817,-0.849487904,0.497034340
0.815000,-0.000420000,-0.056584518,0.034888271,-0.310851000,-0.056584518,0.038568469,4.790393819e-05,7.560066172e-05,1,1,0.301164964,-0.000000922,0.000002492,-0.801641151,0.496116993,0.321710526,0.000010369,0.000026545,-0.840703924,0.494547988
0.817500,-0.000420000,-0.056584518,0.034888271,-0.310851000,-0.056584518,0.037727695,4.790393819e-05,6.908227532e-05,1,1,0.301164964,-0.000000922,0.000002492,-0.801641151,0.496116993,0.317693629,0.000009080,0.000023526,-0.832672554,0.492282334
0.820000,-0.000420000,-0.056584518,0.034888271,-0.310851000,-0.056584518,0.036981209,4.790393819e-05,6.202001280e-05,1,1,0.301164964,-0.000000922,0.000002492,-0.801641151,0.496116993,0.314082224,0.000007933,0.000020780,-0.825458028,0.490269854
0.822500,-0.000420000,-0.056584518,0.034888271,-0.310851000,-0.056584518,0.036334404,4.790393819e-05,5.435596461e-05,1,1,0.301164964,-0.000000922,0.000002492,-0.801641151,0.496116993,0.310910143,0.000006931,0.000018330,-0.819129638,0.488545633
0.825000,-0.000420000,-0.056584518,0.034888271,-0.310851000,-0.056584518,0.035793552,4.790393819e-05,4.600812908e-05,1,1,0.301164964,-0.000000922,0.000002492,-0.801641151,0.496116993,0.308214850,0.000006075,0.000016199,-0.813764131,0.487148059
0.827500,-0.000420000,-0.056584518,0.034888271,-0.310851000,-0.056584518,0.035366390,4.790393819e-05,8.662557355e-05,1,1,0.301164964,-0.000000922,0.000002492,-0.801641151,0.496116993,0.306317929,0.000005493,0.000014720,-0.809978951,0.486113352
0.830000,-0.000420000,-0.056584518,0.034888271,-0.310851000,-0.056584518,0.035063477,4.790393819e-05,7.154010449e-05,1,1,0.301164964,-0.000000922,0.000002492,-0.801641151,0.496116993,0.304737411,0.000004995,0.000013452,-0.806836433,0.485311231
0.832500,-0.000420000,-0.056584518,0.034888271,-0.310851000,-0.056584518,0.034902766,4.790393819e-05,9.963083838e-05,1,1,0.301164964,-0.000000922,0.000002492,-0.801641151,0.496116993,0.304070556,0.000004781,0.000012899,-0.805514868,0.485001960
0.835000,-0.000420000,-0.056584518,0.034938896,-0.310851000,-0.056584518,0.034888271,2.854974389e-06,4.895067258e-05,1,1,0.301164964,-0.000000922,0.000002492,-0.801641151,0.496116993,0.303720605,0.000004644,0.000012553,-0.804838330,0.484942186
0.837500,-0.000420000,-0.056584518,0.035152418,-0.310851000,-0.056584518,0.034888271,9.281704050e-05,4.895067258e-05,1,1,0.301732925,-0.000001037,0.000002840,-0.802810871,0.496640703,0.303720605,0.000004644,0.000012553,-0.804838330,0.484942186
0.840000,-0.000420000,-0.056584518,0.035505372,-0.310851000,-0.056584518,0.034888271,8.225007676e-05,4.895067258e-05,1,1,0.303417829,-0.000001417,0.000003886,-0.806261967,0.498129703,0.303720605,0.000004644,0.000012553,-0.804838330,0.484942186
0.842500,-0.000420000,-0.056584518,0.035985502,-0.310851000,-0.056584518,0.034888271,4.510791778e-05,4.895067258e-05,1,1,0.305807270,-0.000001978,0.000005361,-0.811150572,0.500232855,0.303720605,0.000004644,0.000012553,-0.804838330,0.484942186
0.845000,-0.000420000,-0.056584518,0.036585430,-0.310851000,-0.056584518,0.034888271,5.198659110e-05,4.895067258e-05,1,1,0.308536963,-0.000002629,0.000007059,-0.816731464,0.502590505,0.303720605,0.000004644,0.000012553,-0.804838330,0.484942186
0.847500,-0.000420000,-0.056584518,0.037299867,-0.310851000,-0.056584518,0.034888271,6.190357720e-05,4.895067258e-05,1,1,0.311766237,-0.000003418,0.000009080,-0.823327551,0.505323092,0.303720605,0.000004644,0.000012553,-0.804838330,0.484942186
0.850000,-0.000420000,-0.056584518,0.038124641,-0.310851000,-0.056584518,0.034888271,7.172515043e-05,4.895067258e-05,1,1,0.315480618,-0.000004347,0.000011415,-0.830908459,0.508408237,0.303720605,0.000004644,0.000012553,-0.804838330,0.484942186
0.852500,-0.000420000,-0.056584518,0.039056249,-0.310851000,-0.056584518,0.034888271,8.124778973e-05,4.895067258e-05,1,1,0.319654245,-0.000005420,0.000014048,-0.839420853,0.511813656,0.303720605,0.000004644,0.000012553,-0.804838330,0.484942186
0.855000,-0.000420000,-0.056584518,0.040091606,-0.310851000,-0.056584518,0.034888271,9.047959427e-05,4.895067258e-05,1,1,0.324261768,-0.000006639,0.000016961,-0.848812444,0.515507069,0.303720605,0.000004644,0.000012553,-0.804838330,0.484942186
0.857500,-0.000420000,-0.056584518,0.041227899,-0.310851000,-0.056584518,0.034888271,9.943557363e-05,4.895067258e-05,1,1,0.329278815,-0.000008005,0.000020140,-0.859032926,0.519456858,0.303720605,0.000004644,0.000012553,-0.804838330,0.484942186
0.860000,-0.000420000,-0.056584518,0.042462493,-0.310851000,-0.056584518,0.034888271,4.994000083e-05,4.895067258e-05,1,1,0.334934557,-0.000009601,0.000023716,-0.870547969,0.523847727,0.303720605,0.000004644,0.000012553,-0.804838330,0.484942186
0.862500,-0.000420000,-0.056584518,0.043792868,-0.310851000,-0.056584518,0.034888271,5.220288156e-05,4.895067258e-05,1,1,0.340721197,-0.000011277,0.000027386,-0.882325766,0.528249570,0.303720605,0.000004644,0.000012553,-0.804838330,0.484942186
0.865000,-0.000420000,-0.056584518,0.045216571,-0.310851000,-0.056584518,0.034888271,5.604262480e-05,4.895067258e-05,1,1,0.346841099,-0.000013110,0.000031276,-0.894774344,0.532804311,0.303720605,0.000004644,0.000012553,-0.804838330,0.484942186
0.867500,-0.000420000,-0.056584518,0.046731186,-0.310851000,-0.056584518,0.034888271,5.983893104e-05,4.895067258e-05,1,1,0.353279711,-0.000015105,0.000035377,-0.907863193,0.537489124,0.303720605,0.000004644,0.000012553,-0.804838330,0.484942186
0.870000,-0.000420000,-0.056584518,0.048334310,-0.310851000,-0.056584518,0.034888271,6.353731987e-05,4.895067258e-05,1,1,0.360016012,-0.000017266,0.000039676,-0.921548915,0.542277227,0.303720605,0.000004644,0.000012553,-0.804838330,0.484942186
0.872500,-0.000420000,-0.056584518,0.050023534,-0.310851000,-0.056584518,0.034888271,6.713373756e-05,4.895067258e-05,1,1,0.367029295,-0.000019597,0.000044160,-0.935788830,0.547143067,0.303720605,0.000004644,0.000012553,-0.804838330,0.484942186
0.875000,-0.000420000,-0.056584518,0.051796429,-0.310851000,-0.056584518,0.034888271,7.062601125e-05,4.895067258e-05,1,1,0.374299408,-0.000022102,0.000048818,-0.950541446,0.552062571,0.303720605,0.000004644,0.000012553,-0.804838330,0.484942186
0.877500,-0.000420000,-0.056584518,0.053650539,-0.310851000,-0.056584518,0.034888271,7.401231374e-05,4.895067258e-05,1,1,0.381806771,-0.000024785,0.000053637,-0.965766509,0.557013215,0.303720605,0.000004644,0.000012553,-0.804838330,0.484942186
0.880000,-0.000420000,-0.056584518,0.055583370,-0.310851000,-0.056584518,0.034888271,7.729110652e-05,4.895067258e-05,1,1,0.389532401,-0.000027647,0.000058606,-0.981425040,0.561974062,0.303720605,0.000004644,0.000012553,-0.804838330,0.484942186
0.882500,-0.000420000,-0.056584518,0.057592385,-0.310851000,-0.056584518,0.034888271,8.046111620e-05,4.895067258e-05,1,1,0.397457915,-0.000030694,0.000063714,-0.997479354,0.566925777,0.303720605,0.000004644,0.000012553,-0.804838330,0.484942186
0.885000,-0.000420000,-0.056584518,0.059674997,-0.310851000,-0.056584518,0.034888271,8.352130572e-05,4.895067258e-05,1,1,0.405565548,-0.000033928,0.000068951,-1.013893079,0.571850620,0.303720605,0.000004644,0.000012553,-0.804838330,0.484942186
0.887500,-0.000420000,-0.056584518,0.061828570,-0.310851000,-0.056584518,0.034888271,8.647084412e-05,4.895067258e-05,1,1,0.413838148,-0.000037352,0.000074306,-1.030631157,0.576732415,0.303720605,0.000004644,0.000012553,-0.804838330,0.484942186
0.890000,-0.000420000,-0.056584518,0.064050416,-0.310851000,-0.056584518,0.034888271,8.930907476e-05,4.895067258e-05,1,1,0.422259181,-0.000040968,0.000079769,-1.047659839,0.581556518,0.303720605,0.000004644,0.000012553,-0.804838330,0.484942186
0.892500,-0.000420000,-0.056584518,0.066337791,-0.310851000,-0.056584518,0.034888271,9.203548647e-05,4.895067258e-05,1,1,0.430812722,-0.000044779,0.000085332,-1.064946667,0.586309752,0.303720605,0.000004644,0.000012553,-0.804838330,0.484942186
0.895000,-0.000420000,-0.056584518,0.068687893,-0.310851000,-0.056584518,0.034888271,9.464968764e-05,4.895067258e-05,1,1,0.439483449,-0.000048786,0.000090985,-1.082460455,0.590980355,0.303720605,0.000004644,0.000012553,-0.804838330,0.484942186
0.897500,-0.000420000,-0.056584518,0.071097869,-0.310851000,-0.056584518,0.034888271,9.715138260e-05,4.895067258e-05,1,1,0.448256628,-0.000052993,0.000096720,-1.100171258,0.595557902,0.303720605,0.000004644,0.000012553,-0.804838330,0.484942186
0.900000,-0.000420000,-0.056584518,0.073564806,-0.310851000,-0.056584518,0.034888271,6.563248063e-05,4.895067258e-05,1,1,0.457349966,-0.000057557,0.000102734,-1.118440429,0.599386521,0.303720605,0.000004644,0.000012553,-0.804838330,0.484942186
0.902500,-0.000420000,-0.056584518,0.076085739,-0.310851000,-0.056584518,0.034888271,5.955920903e-05,4.895067258e-05,1,1,0.467056022,-0.000062597,0.000109160,-1.137226983,0.599749924,0.303720605,0.000004644,0.000012553,-0.804838330,0.484942186
0.905000,-0.000420000,-0.056584518,0.078657648,-0.310851000,-0.056584518,0.034888271,6.106711627e-05,4.895067258e-05,1,1,0.476797011,-0.000067857,0.000115630,-1.156073108,0.599814058,0.303720605,0.000004644,0.000012553,-0.804838330,0.484942186
0.907500,-0.000420000,-0.056584518,0.081277462,-0.310851000,-0.056584518,0.034888271,6.235512398e-05,4.895067258e-05,1,1,0.486552543,-0.000073333,0.000122132,-1.174948210,0.599870694,0.303720605,0.000004644,0.000012553,-0.804838330,0.484942186
0.910000,-0.000420000,-0.056584518,0.083942057,-0.310851000,-0.056584518,0.034888271,6.357623691e-05,4.895067258e-05,1,1,0.496309918,-0.000079023,0.000128658,-1.193829020,0.599922984,0.303720605,0.000004644,0.000012553,-0.804838330,0.484942186
0.912500,-0.000420000,-0.056584518,0.086648262,-0.310851000,-0.056584518,0.034888271,6.473592832e-05,4.895067258e-05,1,1,0.506058442,-0.000084927,0.000135202,-1.212694844,0.599971218,0.303720605,0.000004644,0.000012553,-0.804838330,0.484942186
0.915000,-0.000420000,-0.056584518,0.089392860,-0.310851000,-0.056584518,0.034888271,6.625711025e-05,4.895067258e-05,1,1,0.515787989,-0.000091045,0.000141759,-1.231526041,0.600000000,0.303720605,0.000004644,0.000012553,-0.804838330,0.484942186
0.917500,-0.000420000,-0.056584518,0.092172587,-0.310851000,-0.056584518,0.034888271,6.919330468e-05,4.895067258e-05,1,1,0.525538752,-0.000097405,0.000148353,-1.250347192,0.599679124,0.303720605,0.000004644,0.000012553,-0.804838330,0.484942186
0.920000,-0.000420000,-0.056584518,0.094984142,-0.310851000,-0.056584518,0.034888271,7.189007780e-05,4.895067258e-05,1,1,0.535192015,-0.000103939,0.000154912,-1.269043888,0.599713938,0.303720605,0.000004644,0.000012553,-0.804838330,0.484942186
0.922500,-0.000420000,-0.056584518,0.097824180,-0.310851000,-0.056584518,0.034888271,7.277116711e-05,4.895067258e-05,1,1,0.544809924,-0.000110689,0.000161474,-1.287662629,0.599737479,0.303720605,0.000004644,0.000012553,-0.804838330,0.484942186
0.925000,-0.000420000,-0.056584518,0.100689324,-0.310851000,-0.056584518,0.034888271,7.355865524e-05,4.895067258e-05,1,1,0.554372856,-0.000117645,0.000168028,-1.306176741,0.599758956,0.303720605,0.000004644,0.000012553,-0.804838330,0.484942186
0.927500,-0.000420000,-0.056584518,0.103576163,-0.310851000,-0.056584518,0.034888271,7.428702919e-05,4.895067258e-05,1,1,0.563872556,-0.000124805,0.000174568,-1.324570363,0.599778642,0.303720605,0.000004644,0.000012553,-0.804838330,0.484942186
0.930000,-0.000420000,-0.056584518,0.106481257,-0.310851000,-0.056584518,0.034888271,7.495813349e-05,4.895067258e-05,1,1,0.573301288,-0.000132163,0.000181089,-1.342828430,0.599796643,0.303720605,0.000004644,0.000012553,-0.804838330,0.484942186
0.932500,-0.000420000,-0.056584518,0.109401137,-0.310851000,-0.056584518,0.034888271,7.557311953e-05,4.895067258e-05,1,1,0.582651610,-0.000139718,0.000187586,-1.360936440,0.599813057,0.303720605,0.000004644,0.000012553,-0.804838330,0.484942186
0.935000,-0.000420000,-0.056584518,0.112332315,-0.310851000,-0.056584518,0.034888271,7.613304686e-05,4.895067258e-05,1,1,0.591916347,-0.000147463,0.000194055,-1.378880406,0.599827982,0.303720605,0.000004644,0.000012553,-0.804838330,0.484942186
0.937500,-0.000420000,-0.056584518,0.115271281,-0.310851000,-0.056584518,0.034888271,7.663890252e-05,4.895067258e-05,1,1,0.601088576,-0.000155395,0.000200491,-1.396646822,0.599841510,0.303720605,0.000004644,0.000012553,-0.804838330,0.484942186
0.940000,-0.000420000,-0.056584518,0.118214510,-0.310851000,-0.056584518,0.034888271,7.709160879e-05,4.895067258e-05,1,1,0.610161600,-0.000163508,0.000206889,-1.414222621,0.599853731,0.303720605,0.000004644,0.000012553,-0.804838330,0.484942186
0.942500,-0.000420000,-0.056584518,0.121158464,-0.310851000,-0.056584518,0.034888271,7.749203035e-05,4.895067258e-05,1,1,0.619128937,-0.000171795,0.000213246,-1.431595152,0.599864730,0.303720605,0.000004644,0.000012553,-0.804838330,0.484942186
0.945000,-0.000420000,-0.056584518,0.124099599,-0.310851000,-0.056584518,0.034888271,7.784098103e-05,4.895067258e-05,1,1,0.627984305,-0.000180250,0.000219555,-1.448752146,0.599874591,0.303720605,0.000004644,0.000012553,-0.804838330,0.484942186
0.947500,-0.000420000,-0.056584518,0.127034365,-0.310851000,-0.056584518,0.034888271,7.813922994e-05,4.895067258e-05,1,1,0.636721604,-0.000188865,0.000225814,-1.465681690,0.599883391,0.303720605,0.000004644,0.000012553,-0.804838330,0.484942186
0.950000,-0.000420000,-0.056584518,0.129959210,-0.310851000,-0.056584518,0.034888271,7.838750733e-05,4.895067258e-05,1,1,0.645334911,-0.000197633,0.000232018,-1.482372213,0.599891207,0.303720605,0.000004644,0.000012553,-0.804838330,0.484942186
0.952500,-0.000420000,-0.056584518,0.132870587,-0.310851000,-0.056584518,0.034888271,7.858650990e-05,4.895067258e-05,1,1,0.653818464,-0.000206544,0.000238162,-1.498812458,0.599898111,0.303720605,0.000004644,0.000012553,-0.804838330,0.484942186
0.955000,-0.000420000,-0.056584518,0.135764957,-0.310851000,-0.056584518,0.034888271,7.873690594e-05,4.895067258e-05,1,1,0.662166658,-0.000215590,0.000244242,-1.514991465,0.599904171,0.303720605,0.000004644,0.000012553,-0.804838330,0.484942186
0.957500,-0.000420000,-0.056584518,0.138638790,-0.310851000,-0.056584518,0.034888271,7.883933988e-05,4.895067258e-05,1,1,0.670374030,-0.000224761,0.000250255,-1.530898562,0.599909452,0.303720605,0.000004644,0.000012553,-0.804838330,0.484942186
0.960000,-0.000420000,-0.056584518,0.141488574,-0.310851000,-0.056584518,0.034888271,7.889443665e-05,4.895067258e-05,1,1,0.678435258,-0.000234046,0.000256196,-1.546523345,0.599914017,0.303720605,0.000004644,0.000012553,-0.804838330,0.484942186
0.962500,-0.000420000,-0.056584518,0.144310813,-0.310851000,-0.056584518,0.034888271,7.890280563e-05,4.895067258e-05,1,1,0.686345153,-0.000243433,0.000262062,-1.561855669,0.599917925,0.303720605,0.000004644,0.000012553,-0.804838330,0.484942186
0.965000,-0.000420000,-0.056584518,0.147102037,-0.310851000,-0.056584518,0.034888271,7.886504444e-05,4.895067258e-05,1,1,0.694098651,-0.000252911,0.000267849,-1.576885637,0.599921230,0.303720605,0.000004644,0.000012553,-0.804838330,0.484942186
0.967500,-0.000420000,-0.056584518,0.149858803,-0.310851000,-0.056584518,0.034888271,7.878174234e-05,4.895067258e-05,1,1,0.701690813,-0.000262468,0.000273553,-1.591603591,0.599923985,0.303720605,0.000004644,0.000012553,-0.804838330,0.484942186
0.970000,-0.000420000,-0.056584518,0.152577698,-0.310851000,-0.056584518,0.034888271,7.865348342e-05,4.895067258e-05,1,1,0.709116815,-0.000272089,0.000279171,-1.606000109,0.599926239,0.303720605,0.000004644,0.000012553,-0.804838330,0.484942186
0.972500,-0.000420000,-0.056584518,0.155255348,-0.310851000,-0.056584518,0.034888271,7.848084960e-05,4.895067258e-05,1,1,0.716371953,-0.000281762,0.000284699,-1.620065990,0.599928038,0.303720605,0.000004644,0.000012553,-0.804838330,0.484942186
0.975000,-0.000420000,-0.056584518,0.157888415,-0.310851000,-0.056584518,0.034888271,7.826442325e-05,4.895067258e-05,1,1,0.723451631,-0.000291472,0.000290136,-1.633792257,0.599929425,0.303720605,0.000004644,0.000012553,-0.804838330,0.484942186
0.977500,-0.000420000,-0.056584518,0.160473607,-0.310851000,-0.056584518,0.034888271,7.800478970e-05,4.895067258e-05,1,1,0.730351368,-0.000301204,0.000295476,-1.647170150,0.599930440,0.303720605,0.000004644,0.000012553,-0.804838330,0.484942186
0.980000,-0.000420000,-0.056584518,0.163007678,-0.310851000,-0.056584518,0.034888271,7.770253965e-05,4.895067258e-05,1,1,0.737066788,-0.000310942,0.000300719,-1.660191125,0.599931119,0.303720605,0.000004644,0.000012553,-0.804838330,0.484942186
0.982500,-0.000420000,-0.056584518,0.165487436,-0.310851000,-0.056584518,0.034888271,7.735827110e-05,4.895067258e-05,1,1,0.743593624,-0.000320670,0.000305861,-1.672846846,0.599931497,0.303720605,0.000004644,0.000012553,-0.804838330,0.484942186
0.985000,-0.000420000,-0.056584518,0.167909743,-0.310851000,-0.056584518,0.034888271,7.697259150e-05,4.895067258e-05,1,1,0.749927719,-0.000330372,0.000310900,-1.685129191,0.599931606,0.303720605,0.000004644,0.000012553,-0.804838330,0.484942186
0.987500,-0.000420000,-0.056584518,0.170271521,-0.310851000,-0.056584518,0.034888271,7.654611924e-05,4.895067258e-05,1,1,0.756065018,-0.000340030,0.000315833,-1.697030247,0.599931474,0.303720605,0.000004644,0.000012553,-0.804838330,0.484942186
0.990000,-0.000420000,-0.056584518,0.172569756,-0.310851000,-0.056584518,0.034888271,7.607948539e-05,4.895067258e-05,1,1,0.762001576,-0.000349627,0.000320659,-1.708542313,0.599931128,0.303720605,0.000004644,0.000012553,-0.804838330,0.484942186
0.992500,-0.000420000,-0.056584518,0.174801502,-0.310851000,-0.056584518,0.034888271,7.557333524e-05,4.895067258e-05,1,1,0.767733555,-0.000359145,0.000325376,-1.719657896,0.599930591,0.303720605,0.000004644,0.000012553,-0.804838330,0.484942186
0.995000,-0.000420000,-0.056584518,0.176963882,-0.310851000,-0.056584518,0.034888271,7.502832933e-05,4.895067258e-05,1,1,0.773257222,-0.000368566,0.000329981,-1.730369716,0.599929885,0.303720605,0.000004644,0.000012553,-0.804838330,0.484942186
0.997500,-0.000420000,-0.056584518,0.179054095,-0.310851000,-0.056584518,0.034888271,7.444514484e-05,4.895067258e-05,1,1,0.778568956,-0.000377872,0.000334474,-1.740670708,0.599929029,0.303720605,0.000004644,0.000012553,-0.804838330,0.484942186
1.000000,-0.000420000,-0.056584518,0.181069419,-0.310851000,-0.056584518,0.034888271,7.382447647e-05,4.895067258e-05,1,1,0.783665242,-0.000387043,0.000338853,-1.750554021,0.599928039,0.303720605,0.000004644,0.000012553,-0.804838330,0.484942186
1.002500,-0.000420000,-0.056584518,0.182637840,-0.310851000,-0.056584518,0.034888271,9.825411652e-05,4.895067258e-05,1,1,0.787582560,-0.000394253,0.000342267,-1.758116031,0.599583862,0.303720605,0.000004644,0.000012553,-0.804838330,0.484942186
1.005000,-0.000420000,-0.056584518,0.184118773,-0.310851000,-0.056584518,0.034888271,9.612724683e-05,4.895067258e-05,1,1,0.791304799,-0.000401290,0.000345583,-1.765329381,0.599582731,0.303720605,0.000004644,0.000012553,-0.804838330,0.484942186
1.007500,-0.000420000,-0.056584518,0.185510420,-0.310851000,-0.056584518,0.034888271,9.371945073e-05,4.895067258e-05,1,1,0.794790743,-0.000408085,0.000348791,-1.772088208,0.599581589,0.303720605,0.000004644,0.000012553,-0.804838330,0.484942186
1.010000,-0.000420000,-0.056584518,0.186811095,-0.310851000,-0.056584518,0.034888271,9.125708821e-05,4.895067258e-05,1,1,0.798039306,-0.000414624,0.000351891,-1.778386777,0.599580430,0.303720605,0.000004644,0.000012553,-0.804838330,0.484942186
1.012500,-0.000420000,-0.056584518,0.188019223,-0.310851000,-0.056584518,0.034888271,8.874898898e-05,4.895067258e-05,1,1,0.801048743,-0.000420890,0.000354880,-1.784221595,0.599579254,0.303720605,0.000004644,0.000012553,-0.804838330,0.484942186
1.015000,-0.000420000,-0.056584518,0.189133340,-0.310851000,-0.056584518,0.034888271,8.619815964e-05,4.895067258e-05,1,1,0.803817417,-0.000426871,0.000357759,-1.789589470,0.599578062,0.303720605,0.000004644,0.000012553,-0.804838330,0.484942186
