triton-droids/embedded/trajectory_generation/traj_contact.csv
t,pL_tx,pL_ty,pL_tz,pR_tx,pR_ty,pR_tz,ik_err_L,ik_err_R,ik_ok_L,ik_ok_R,left_hip1_joint,left_hip2_joint,left_thigh_joint,left_knee_joint,left_ankle_joint,right_hip1_joint,right_hip2_joint,right_thigh_joint,right_knee_joint,right_ankle_joint
0.000000,0.282994026,-0.161689111,0.150653993,-0.594265026,-0.161689111,0.150653993,0.000000000e+00,0.000000000e+00,1,1,0.000000000,-0.566834000,0.000000000,-0.500000000,0.000000000,0.000000000,0.566834000,0.000000000,-0.500000000,0.000000000
0.002500,0.282995204,-0.161689111,0.150653997,-0.594266204,-0.161689111,0.150653993,1.178087410e-06,1.178079804e-06,1,1,0.000000000,-0.566834000,0.000000000,-0.500000000,0.000000000,0.000000000,0.566834000,0.000000000,-0.500000000,0.000000000
0.005000,0.282998738,-0.161689111,0.150654022,-0.594269738,-0.161689111,0.150653993,4.712202144e-06,4.712109929e-06,1,1,0.000000000,-0.566834000,0.000000000,-0.500000000,0.000000000,0.000000000,0.566834000,0.000000000,-0.500000000,0.000000000
0.007500,0.283004628,-0.161689111,0.150654084,-0.594275628,-0.161689111,0.150653993,1.060185941e-05,1.060146254e-05,1,1,0.000000000,-0.566834000,0.000000000,-0.500000000,0.000000000,0.000000000,0.566834000,0.000000000,-0.500000000,0.000000000
0.010000,0.283012871,-0.161689111,0.150654198,-0.594283871,-0.161689111,0.150653993,1.884620898e-05,1.884509133e-05,1,1,0.000000000,-0.566834000,0.000000000,-0.500000000,0.000000000,0.000000000,0.566834000,0.000000000,-0.500000000,0.000000000
0.012500,0.283023468,-0.161689111,0.150654376,-0.594294468,-0.161689111,0.150653993,2.944402642e-05,2.944153169e-05,1,1,0.000000000,-0.566834000,0.000000000,-0.500000000,0.000000000,0.000000000,0.566834000,0.000000000,-0.500000000,0.000000000
0.015000,0.283036415,-0.161689111,0.150654631,-0.594307415,-0.161689111,0.150653993,4.239370799e-05,4.238890086e-05,1,1,0.000000000,-0.566834000,0.000000000,-0.500000000,0.000000000,0.000000000,0.566834000,0.000000000,-0.500000000,0.000000000
0.017500,0.283051711,-0.161689111,0.150654975,-0.594322711,-0.161689111,0.150653993,5.769326713e-05,5.768489821e-05,1,1,0.000000000,-0.566834000,0.000000000,-0.500000000,0.000000000,0.000000000,0.566834000,0.000000000,-0.500000000,0.000000000
0.020000,0.283069353,-0.161689111,0.150655420,-0.594340353,-0.161689111,0.150653993,7.534033193e-05,7.532680553e-05,1,1,0.000000000,-0.566834000,0.000000000,-0.500000000,0.000000000,0.000000000,0.566834000,0.000000000,-0.500000000,0.000000000
0.022500,0.283089338,-0.161689111,0.150655977,-0.594360338,-0.161689111,0.150653993,9.533214307e-05,9.531148741e-05,1,1,0.000000000,-0.566834000,0.000000000,-0.500000000,0.000000000,0.000000000,0.566834000,0.000000000,-0.500000000,0.000000000
0.025000,0.283111662,-0.161689111,0.150656657,-0.594382662,-0.161689111,0.150653993,4.915742781e-05,4.928858870e-05,1,1,-0.000270107,-0.566910676,-0.000013943,-0.499517260,0.000000000,-0.000279602,0.566907923,-0.000013010,-0.499500228,0.000000000
0.027500,0.283136321,-0.161689111,0.150657470,-0.594407321,-0.161689111,0.150653993,7.378284028e-05,7.391039814e-05,1,1,-0.000270107,-0.566910676,-0.000013943,-0.499517260,0.000000000,-0.000279602,0.566907923,-0.000013010,-0.499500228,0.000000000
0.030000,0.283163311,-0.161689111,0.150658426,-0.594434311,-0.161689111,0.150653993,4.225423406e-05,4.246818354e-05,1,1,-0.000513277,-0.566973469,-0.000024850,-0.499085638,0.000000000,-0.000533555,0.566967707,-0.000022886,-0.499049375,0.000000000
0.032500,0.283192627,-0.161689111,0.150659536,-0.594463627,-0.161689111,0.150653993,7.148903104e-05,7.169360273e-05,1,1,-0.000513277,-0.566973469,-0.000024850,-0.499085638,0.000000000,-0.000533555,0.566967707,-0.000022886,-0.499049375,0.000000000
0.035000,0.283224264,-0.161689111,0.150660809,-0.594495264,-0.161689111,0.150653993,4.325792474e-05,4.354397258e-05,1,1,-0.000763840,-0.567037402,-0.000035871,-0.498641750,0.000000000,-0.000797705,0.567027881,-0.000032620,-0.498581288,0.000000000
0.037500,0.283258216,-0.161689111,0.150662256,-0.594529216,-0.161689111,0.150653993,7.711212938e-05,7.737673174e-05,1,1,-0.000763840,-0.567037402,-0.000035871,-0.498641750,0.000000000,-0.000797705,0.567027881,-0.000032620,-0.498581288,0.000000000
0.040000,0.283294478,-0.161689111,0.150663884,-0.594565478,-0.161689111,0.150653993,4.753376620e-05,4.789795332e-05,1,1,-0.001037623,-0.567108257,-0.000048156,-0.498156898,0.000000000,-0.001088879,0.567093939,-0.000043261,-0.498065473,0.000000000
0.042500,0.283333042,-0.161689111,0.150665704,-0.594604042,-0.161689111,0.150653993,8.599774197e-05,8.632587719e-05,1,1,-0.001037623,-0.567108257,-0.000048156,-0.498156898,0.000000000,-0.001088879,0.567093939,-0.000043261,-0.498065473,0.000000000
0.045000,0.283373902,-0.161689111,0.150667724,-0.594644902,-0.161689111,0.150653993,5.315997432e-05,5.361409664e-05,1,1,-0.001341751,-0.567188260,-0.000062119,-0.497618379,0.000000000,-0.001414946,0.567167908,-0.000055155,-0.497487910,0.000000000
0.047500,0.283417050,-0.161689111,0.150669952,-0.594688050,-0.161689111,0.150653993,9.620941499e-05,9.661083086e-05,1,1,-0.001341751,-0.567188260,-0.000062119,-0.497618379,0.000000000,-0.001414946,0.567167908,-0.000055155,-0.497487910,0.000000000
0.050000,0.283462480,-0.161689111,0.150672398,-0.594733480,-0.161689111,0.150653993,5.932996401e-05,5.988668002e-05,1,1,-0.001679268,-0.567278278,-0.000077908,-0.497020875,0.000000000,-0.001779565,0.567250495,-0.000068395,-0.496842192,0.000000000
0.052500,0.283510182,-0.161689111,0.150675069,-0.594781182,-0.161689111,0.150653993,4.490137540e-05,4.544600498e-05,1,1,-0.001942138,-0.567344293,-0.000089118,-0.496557299,0.000000000,-0.002064810,0.567310546,-0.000077547,-0.496338974,0.000000000
0.055000,0.283560149,-0.161689111,0.150677973,-0.594831149,-0.161689111,0.150653993,9.473997500e-05,9.519809088e-05,1,1,-0.001942138,-0.567344293,-0.000089118,-0.496557299,0.000000000,-0.002064810,0.567310546,-0.000077547,-0.496338974,0.000000000
0.057500,0.283612371,-0.161689111,0.150681119,-0.594883371,-0.161689111,0.150653993,6.151217213e-05,6.215856145e-05,1,1,-0.002288460,-0.567438988,-0.000105869,-0.495944334,0.000000000,-0.002443441,0.567396414,-0.000091269,-0.495668553,0.000000000
0.060000,0.283666839,-0.161689111,0.150684514,-0.594937839,-0.161689111,0.150653993,4.861139168e-05,4.925627455e-05,1,1,-0.002569452,-0.567511781,-0.000118387,-0.495448735,0.000000000,-0.002751915,0.567461891,-0.000101263,-0.495124264,0.000000000
0.062500,0.283723543,-0.161689111,0.150688165,-0.594994543,-0.161689111,0.150653993,4.412200268e-05,4.473844962e-05,1,1,-0.002824316,-0.567577999,-0.000129772,-0.494999402,0.000000000,-0.003032919,0.567521176,-0.000110256,-0.494628640,0.000000000
0.065000,0.283782474,-0.161689111,0.150692080,-0.595053474,-0.161689111,0.150653993,4.314780547e-05,4.375076606e-05,1,1,-0.003071466,-0.567643459,-0.000141120,-0.494563462,0.000000000,-0.003306548,0.567579594,-0.000119175,-0.494145789,0.000000000
0.067500,0.283843620,-0.161689111,0.150696265,-0.595114620,-0.161689111,0.150653993,4.364893165e-05,4.425756125e-05,1,1,-0.003319514,-0.567710340,-0.000152798,-0.494125742,0.000000000,-0.003582235,0.567639108,-0.000128314,-0.493659081,0.000000000
0.070000,0.283906972,-0.161689111,0.150700727,-0.595177972,-0.161689111,0.150653993,4.476909245e-05,4.539776725e-05,1,1,-0.003572464,-0.567779443,-0.000164922,-0.493679274,0.000000000,-0.003864403,0.567700417,-0.000137754,-0.493160819,0.000000000
0.072500,0.283972516,-0.161689111,0.150705474,-0.595243516,-0.161689111,0.150653993,4.614738609e-05,4.680538069e-05,1,1,-0.003832160,-0.567851057,-0.000177525,-0.493220887,0.000000000,-0.004155118,0.567763758,-0.000147509,-0.492647443,0.000000000
0.075000,0.284040243,-0.161689111,0.150710510,-0.595311243,-0.161689111,0.150653993,4.763103984e-05,4.832404099e-05,1,1,-0.004099429,-0.567925280,-0.000190610,-0.492749176,0.000000000,-0.004455344,0.567829203,-0.000157571,-0.492117315,0.000000000
0.077500,0.284110139,-0.161689111,0.150715844,-0.595381139,-0.161689111,0.150653993,4.915500449e-05,4.988651617e-05,1,1,-0.004374626,-0.568002143,-0.000204176,-0.492263551,0.000000000,-0.004765524,0.567896761,-0.000167933,-0.491569689,0.000000000
0.080000,0.284182193,-0.161689111,0.150721480,-0.595453193,-0.161689111,0.150653993,5.069136047e-05,5.146365130e-05,1,1,-0.004657884,-0.568081653,-0.000218220,-0.491763803,0.000000000,-0.005085860,0.567966426,-0.000178587,-0.491004237,0.000000000
0.082500,0.284256390,-0.161689111,0.150727425,-0.595527390,-0.161689111,0.150653993,5.222798176e-05,5.304264985e-05,1,1,-0.004949231,-0.568163809,-0.000232738,-0.491249899,0.000000000,-0.005416442,0.568038184,-0.000189524,-0.490420823,0.000000000
0.085000,0.284332719,-0.161689111,0.150733683,-0.595603719,-0.161689111,0.150653993,5.375949650e-05,5.461778478e-05,1,1,-0.005248647,-0.568248607,-0.000247728,-0.490721887,0.000000000,-0.005757302,0.568112019,-0.000200738,-0.489819400,0.000000000
0.087500,0.284411165,-0.161689111,0.150740261,-0.595682165,-0.161689111,0.150653993,5.528343732e-05,5.618640291e-05,1,1,-0.005556090,-0.568336041,-0.000263187,-0.490179855,0.000000000,-0.006108451,0.568187916,-0.000212222,-0.489199967,0.000000000
0.090000,0.284491714,-0.161689111,0.150747163,-0.595762714,-0.161689111,0.150653993,5.679859304e-05,5.774719599e-05,1,1,-0.005871506,-0.568426105,-0.000279113,-0.489623905,0.000000000,-0.006469885,0.568265857,-0.000223971,-0.488562541,0.000000000
0.092500,0.284574352,-0.161689111,0.150754396,-0.595845352,-0.161689111,0.150653993,5.830429885e-05,5.929944810e-05,1,1,-0.006194840,-0.568518791,-0.000295502,-0.489054150,0.000000000,-0.006841595,0.568345828,-0.000235978,-0.487907152,0.000000000
0.095000,0.284659064,-0.161689111,0.150761962,-0.595930064,-0.161689111,0.150653993,5.980012898e-05,6.084270577e-05,1,1,-0.006526030,-0.568614093,-0.000312352,-0.488470706,0.000000000,-0.007223569,0.568427809,-0.000248237,-0.487233833,0.000000000
0.097500,0.284745835,-0.161689111,0.150769867,-0.596016835,-0.161689111,0.150653993,6.128576290e-05,6.237663329e-05,1,1,-0.006865016,-0.568712002,-0.000329659,-0.487873690,0.000000000,-0.007615793,0.568511785,-0.000260742,-0.486542620,0.000000000
0.100000,0.284834649,-0.161689111,0.150778116,-0.596105649,-0.161689111,0.150653993,6.276092687e-05,6.390094802e-05,1,1,-0.007211739,-0.568812508,-0.000347421,-0.487263219,0.000000000,-0.008018253,0.568597738,-0.000273485,-0.485833554,0.000000000
0.102500,0.284925490,-0.161689111,0.150786711,-0.596196490,-0.161689111,0.150653993,6.422536804e-05,6.541539222e-05,1,1,-0.007566137,-0.568915602,-0.000365633,-0.486639411,0.000000000,-0.008430933,0.568685649,-0.000286461,-0.485106675,0.000000000
0.105000,0.285018342,-0.161689111,0.150795658,-0.596289342,-0.161689111,0.150653993,6.567884323e-05,6.691971988e-05,1,1,-0.007928150,-0.569021273,-0.000384291,-0.486002384,0.000000000,-0.008853815,0.568775501,-0.000299663,-0.484362025,0.000000000
0.107500,0.285113189,-0.161689111,0.150804960,-0.596384189,-0.161689111,0.150653993,6.712111383e-05,6.841369128e-05,1,1,-0.008297717,-0.569129509,-0.000403391,-0.485352256,0.000000000,-0.009286884,0.568867273,-0.000313084,-0.483599648,0.000000000
0.110000,0.285210012,-0.161689111,0.150814621,-0.596481012,-0.161689111,0.150653993,6.855194354e-05,6.989707021e-05,1,1,-0.008674778,-0.569240297,-0.000422930,-0.484689145,0.000000000,-0.009730122,0.568960948,-0.000326718,-0.482819588,0.000000000
0.112500,0.285308795,-0.161689111,0.150824643,-0.596579795,-0.161689111,0.150653993,6.997109755e-05,7.136962292e-05,1,1,-0.009059273,-0.569353626,-0.000442901,-0.484013166,0.000000000,-0.010183510,0.569056506,-0.000340556,-0.482021892,0.000000000
0.115000,0.285409519,-0.161689111,0.150835030,-0.596680519,-0.161689111,0.150653993,7.137834192e-05,7.283111775e-05,1,1,-0.009451143,-0.569469481,-0.000463301,-0.483324438,0.000000000,-0.010647030,0.569153926,-0.000354592,-0.481206608,0.000000000
0.117500,0.285512168,-0.161689111,0.150845784,-0.596783168,-0.161689111,0.150653993,7.277344364e-05,7.428132451e-05,1,1,-0.009850326,-0.569587847,-0.000484125,-0.482623077,0.000000000,-0.011120662,0.569253188,-0.000368819,-0.480373784,0.000000000
0.120000,0.285616721,-0.161689111,0.150856909,-0.596887721,-0.161689111,0.150653993,7.415617045e-05,7.572001485e-05,1,1,-0.010256764,-0.569708709,-0.000505366,-0.481909199,0.000000000,-0.011604385,0.569354272,-0.000383230,-0.479523471,0.000000000
0.122500,0.285723161,-0.161689111,0.150868406,-0.596994161,-0.161689111,0.150653993,7.552629085e-05,7.714696189e-05,1,1,-0.010670398,-0.569832051,-0.000527020,-0.481182923,0.000000000,-0.012098180,0.569457156,-0.000397817,-0.478655720,0.000000000
0.125000,0.285831467,-0.161689111,0.150880278,-0.597102467,-0.161689111,0.150653993,7.688357419e-05,7.856194056e-05,1,1,-0.011091167,-0.569957856,-0.000549081,-0.480444363,0.000000000,-0.012602023,0.569561820,-0.000412572,-0.477770584,0.000000000
0.127500,0.285941621,-0.161689111,0.150892526,-0.597212621,-0.161689111,0.150653993,7.822779067e-05,7.996472718e-05,1,1,-0.011519012,-0.570086106,-0.000571542,-0.479693636,0.000000000,-0.013115894,0.569668240,-0.000427488,-0.476868119,0.000000000
0.130000,0.286053602,-0.161689111,0.150905153,-0.597324602,-0.161689111,0.150653993,7.955871136e-05,8.135509994e-05,1,1,-0.011953876,-0.570216782,-0.000594398,-0.478930858,0.000000000,-0.013639769,0.569776395,-0.000442558,-0.475948378,0.000000000
0.132500,0.286167390,-0.161689111,0.150918160,-0.597438390,-0.161689111,0.150653993,8.087610825e-05,8.273283854e-05,1,1,-0.012395697,-0.570349867,-0.000617643,-0.478156145,0.000000000,-0.014173625,0.569886262,-0.000457773,-0.475011421,0.000000000
0.135000,0.286282965,-0.161689111,0.150931547,-0.597553965,-0.161689111,0.150653993,8.217975440e-05,8.409772458e-05,1,1,-0.012844418,-0.570485339,-0.000641269,-0.477369613,0.000000000,-0.014717437,0.569997819,-0.000473125,-0.474057305,0.000000000
0.137500,0.286400305,-0.161689111,0.150945317,-0.597671305,-0.161689111,0.150653993,8.346942383e-05,8.544954122e-05,1,1,-0.013299979,-0.570623178,-0.000665270,-0.476571377,0.000000000,-0.015271180,0.570111042,-0.000488608,-0.473086091,0.000000000
0.140000,0.286519389,-0.161689111,0.150959470,-0.597790389,-0.161689111,0.150653993,8.474489163e-05,8.678807336e-05,1,1,-0.013762322,-0.570763363,-0.000689639,-0.475761554,0.000000000,-0.015834827,0.570225908,-0.000504212,-0.472097842,0.000000000
0.142500,0.286640195,-0.161689111,0.150974007,-0.597911195,-0.161689111,0.150653993,8.600593404e-05,8.811310782e-05,1,1,-0.014231388,-0.570905871,-0.000714369,-0.474940259,0.000000000,-0.016408353,0.570342392,-0.000519929,-0.471092619,0.000000000
0.145000,0.286762702,-0.161689111,0.150988928,-0.598033702,-0.161689111,0.150653993,8.725232842e-05,8.942443309e-05,1,1,-0.014707118,-0.571050680,-0.000739453,-0.474107607,0.000000000,-0.016991729,0.570460471,-0.000535753,-0.470070489,0.000000000
0.147500,0.286886887,-0.161689111,0.151004233,-0.598157887,-0.161689111,0.150653993,8.848385339e-05,9.072183958e-05,1,1,-0.015189453,-0.571197766,-0.000764882,-0.473263714,0.000000000,-0.017584926,0.570580120,-0.000551674,-0.469031517,0.000000000
0.150000,0.287012727,-0.161689111,0.151019921,-0.598283727,-0.161689111,0.150653993,8.970028881e-05,9.200511939e-05,1,1,-0.015678335,-0.571347105,-0.000790650,-0.472408695,0.000000000,-0.018187917,0.570701315,-0.000567684,-0.467975772,0.000000000
0.152500,0.287140200,-0.161689111,0.151035994,-0.598411200,-0.161689111,0.150653993,9.090141576e-05,9.327406670e-05,1,1,-0.016173704,-0.571498672,-0.000816748,-0.471542667,0.000000000,-0.018800670,0.570824029,-0.000583775,-0.466903325,0.000000000
0.155000,0.287269282,-0.161689111,0.151052450,-0.598540282,-0.161689111,0.150653993,9.208701674e-05,9.452847744e-05,1,1,-0.016675502,-0.571652440,-0.000843169,-0.470665743,0.000000000,-0.019423154,0.570948237,-0.000599939,-0.465814245,0.000000000
0.157500,0.287399949,-0.161689111,0.151069288,-0.598670949,-0.161689111,0.150653993,9.325687562e-05,9.576814930e-05,1,1,-0.017183671,-0.571808384,-0.000869904,-0.469778041,0.000000000,-0.020055337,0.571073915,-0.000616167,-0.464708607,0.000000000
0.160000,0.287532178,-0.161689111,0.151086508,-0.598803178,-0.161689111,0.150653993,9.441077763e-05,9.699288223e-05,1,1,-0.017698151,-0.571966477,-0.000896945,-0.468879674,0.000000000,-0.020697186,0.571201035,-0.000632451,-0.463586485,0.000000000
0.162500,0.287665944,-0.161689111,0.151104108,-0.598936944,-0.161689111,0.150653993,9.554850954e-05,9.820247779e-05,1,1,-0.018218883,-0.572126690,-0.000924283,-0.467970760,0.000000000,-0.021348667,0.571329572,-0.000648783,-0.462447957,0.000000000
0.165000,0.287801223,-0.161689111,0.151122087,-0.599072223,-0.161689111,0.150653993,9.666985957e-05,9.939673972e-05,1,1,-0.018745809,-0.572288996,-0.000951910,-0.467051413,0.000000000,-0.022009746,0.571459499,-0.000665154,-0.461293100,0.000000000
0.167500,0.287937989,-0.161689111,0.151140443,-0.599208989,-0.161689111,0.150653993,9.777461752e-05,4.359562784e-05,1,1,-0.019278869,-0.572453364,-0.000979817,-0.466121750,0.000000000,-0.023000568,0.571637684,-0.000685562,-0.459569086,0.000000000
0.170000,0.288076219,-0.161689111,0.151159175,-0.599347219,-0.161689111,0.150653993,9.886257477e-05,7.721875808e-05,1,1,-0.019818004,-0.572619766,-0.001007995,-0.465181886,0.000000000,-0.023513929,0.571739437,-0.000698324,-0.458672409,0.000000000
0.172500,0.288215885,-0.161689111,0.151178280,-0.599486885,-0.161689111,0.150653993,9.993352430e-05,9.228876304e-05,1,1,-0.020363154,-0.572788170,-0.001036434,-0.464231938,0.000000000,-0.024123671,0.571862450,-0.000713940,-0.457606739,0.000000000
0.175000,0.288356963,-0.161689111,0.151197756,-0.599627963,-0.161689111,0.150653993,4.267582936e-05,9.939955421e-05,1,1,-0.021176650,-0.573022162,-0.001074517,-0.462819915,0.000000000,-0.024784488,0.571993981,-0.000730362,-0.456452732,0.000000000
0.177500,0.288499426,-0.161689111,0.151217600,-0.599770426,-0.161689111,0.150653993,7.752883915e-05,4.474683390e-05,1,1,-0.021596603,-0.573154102,-0.001096789,-0.462088315,0.000000000,-0.025805138,0.572177599,-0.000750922,-0.454678342,0.000000000
0.180000,0.288643249,-0.161689111,0.151237810,-0.599914249,-0.161689111,0.150653993,9.272019456e-05,8.019208871e-05,1,1,-0.022093969,-0.573313328,-0.001123817,-0.461221378,0.000000000,-0.026342544,0.572283165,-0.000763778,-0.453740890,0.000000000
0.182500,0.288788403,-0.161689111,0.151258382,-0.600059403,-0.161689111,0.150653993,9.966476455e-05,9.602852040e-05,1,1,-0.022631311,-0.573483978,-0.001152605,-0.460285537,0.000000000,-0.026983031,0.572410761,-0.000779457,-0.452623145,0.000000000
0.185000,0.288934863,-0.161689111,0.151279315,-0.600205863,-0.161689111,0.150653993,4.357910610e-05,4.494181288e-05,1,1,-0.023457660,-0.573725778,-0.001191753,-0.458852668,0.000000000,-0.028011319,0.572595653,-0.000799769,-0.450836737,0.000000000
0.187500,0.289082602,-0.161689111,0.151300603,-0.600353602,-0.161689111,0.150653993,8.016791389e-05,8.202528264e-05,1,1,-0.023891390,-0.573863156,-0.001214722,-0.458098176,0.000000000,-0.028564162,0.572703646,-0.000812628,-0.449873276,0.000000000
0.190000,0.289231591,-0.161689111,0.151322243,-0.600502591,-0.161689111,0.150653993,9.604529052e-05,9.855570654e-05,1,1,-0.024406943,-0.574028963,-0.001242555,-0.457201018,0.000000000,-0.029226179,0.572834345,-0.000828284,-0.448719245,0.000000000
0.192500,0.289381803,-0.161689111,0.151344233,-0.600652803,-0.161689111,0.150653993,4.360766174e-05,4.624220738e-05,1,1,-0.025231097,-0.574272910,-0.001281851,-0.455773149,0.000000000,-0.030291563,0.573023555,-0.000848379,-0.446870587,0.000000000
0.195000,0.289533211,-0.161689111,0.151366567,-0.600804211,-0.161689111,0.150653993,8.175839338e-05,8.424371005e-05,1,1,-0.025672953,-0.574413770,-0.001305228,-0.455005350,0.000000000,-0.030864186,0.573134029,-0.000861141,-0.445873911,0.000000000
0.197500,0.289685785,-0.161689111,0.151389241,-0.600956785,-0.161689111,0.150653993,9.825936663e-05,4.404834372e-05,1,1,-0.026200736,-0.574584063,-0.001333562,-0.454088049,0.000000000,-0.031879828,0.573315210,-0.000880213,-0.444112133,0.000000000
0.200000,0.289839497,-0.161689111,0.151412251,-0.601110497,-0.161689111,0.150653993,4.465975462e-05,8.433686478e-05,1,1,-0.027046338,-0.574834561,-0.001373496,-0.452624921,0.000000000,-0.032453739,0.573426344,-0.000892936,-0.443113564,0.000000000
0.202500,0.289994319,-0.161689111,0.151435592,-0.601265319,-0.161689111,0.150653993,8.367878682e-05,4.455795069e-05,1,1,-0.027499683,-0.574979097,-0.001397232,-0.451838241,0.000000000,-0.033484314,0.573609606,-0.000911884,-0.441326980,0.000000000
0.205000,0.290150222,-0.161689111,0.151459260,-0.601421222,-0.161689111,0.150653993,4.246244848e-05,8.556123079e-05,1,1,-0.028300562,-0.575219025,-0.001435392,-0.450453072,0.000000000,-0.034069559,0.573722185,-0.000924519,-0.440309494,0.000000000
0.207500,0.290307176,-0.161689111,0.151483249,-0.601578176,-0.161689111,0.150653993,8.367713765e-05,4.528333429e-05,1,1,-0.028752157,-0.575364451,-0.001459203,-0.449669782,0.000000000,-0.035122079,0.573907701,-0.000943214,-0.438486396,0.000000000
0.210000,0.290465151,-0.161689111,0.151507554,-0.601736151,-0.161689111,0.150653993,4.284555426e-05,8.683491286e-05,1,1,-0.029559789,-0.575607437,-0.001497637,-0.448273905,0.000000000,-0.035719623,0.574021638,-0.000955711,-0.437448441,0.000000000
0.212500,0.290624118,-0.161689111,0.151532169,-0.601895118,-0.161689111,0.150653993,8.471714591e-05,4.600641685e-05,1,1,-0.030017533,-0.575754983,-0.001521629,-0.447480638,0.000000000,-0.036794620,0.574209237,-0.000974092,-0.435588054,0.000000000
0.215000,0.290784048,-0.161689111,0.151557089,-0.602055048,-0.161689111,0.150653993,4.340878798e-05,8.806227490e-05,1,1,-0.030837328,-0.576001450,-0.001560301,-0.446065028,0.000000000,-0.037404406,0.574324435,-0.000986423,-0.434529792,0.000000000
0.217500,0.290944908,-0.161689111,0.151582308,-0.602215908,-0.161689111,0.150653993,8.578490547e-05,4.670634772e-05,1,1,-0.031301923,-0.576151040,-0.001584432,-0.445260659,0.000000000,-0.038501670,0.574513957,-0.001004445,-0.432632571,0.000000000
0.220000,0.291106671,-0.161689111,0.151607819,-0.602377671,-0.161689111,0.150653993,4.396073879e-05,8.923348838e-05,1,1,-0.032134186,-0.576400792,-0.001623279,-0.443824886,0.000000000,-0.039123517,0.574630323,-0.001016587,-0.431554365,0.000000000
0.222500,0.291269303,-0.161689111,0.151633618,-0.602540303,-0.161689111,0.150653993,8.679883326e-05,4.738068626e-05,1,1,-0.032605535,-0.576552298,-0.001647514,-0.443009620,0.000000000,-0.040242743,0.574821609,-0.001034211,-0.429620925,0.000000000
0.225000,0.291432776,-0.161689111,0.151659696,-0.602703776,-0.161689111,0.150653993,4.448465484e-05,9.034676869e-05,1,1,-0.033450002,-0.576805122,-0.001686480,-0.441554199,0.000000000,-0.040876445,0.574939049,-0.001046140,-0.428523178,0.000000000
0.227500,0.291597057,-0.161689111,0.151686048,-0.602868057,-0.161689111,0.150653993,8.775106888e-05,4.802882677e-05,1,1,-0.033927918,-0.576958416,-0.001710787,-0.440728390,0.000000000,-0.042017300,0.575131943,-0.001063329,-0.426554178,0.000000000
0.230000,0.291762115,-0.161689111,0.151712666,-0.603033115,-0.161689111,0.150653993,4.497859307e-05,9.140115260e-05,1,1,-0.034784256,-0.577214093,-0.001749819,-0.439253943,0.000000000,-0.042662642,0.575250362,-0.001075023,-0.425437311,0.000000000
0.232500,0.291927919,-0.161689111,0.151739544,-0.603198919,-0.161689111,0.150653993,8.864002939e-05,4.865036184e-05,1,1,-0.035268536,-0.577369045,-0.001774166,-0.438417966,0.000000000,-0.043824772,0.575444706,-0.001091738,-0.423433443,0.000000000
0.235000,0.292094437,-0.161689111,0.151766674,-0.603365437,-0.161689111,0.150653993,4.544196740e-05,9.239578378e-05,1,1,-0.036136400,-0.577627354,-0.001813210,-0.436925136,0.000000000,-0.044481525,0.575564009,-0.001103176,-0.422297895,0.000000000
0.237500,0.292261637,-0.161689111,0.151794049,-0.603532637,-0.161689111,0.150653993,8.946473016e-05,4.924491184e-05,1,1,-0.036626839,-0.577783830,-0.001837565,-0.436079373,0.000000000,-0.045664559,0.575759641,-0.001119382,-0.420259880,0.000000000
0.240000,0.292429488,-0.161689111,0.151821662,-0.603700488,-0.161689111,0.150653993,4.587433387e-05,9.332983771e-05,1,1,-0.037505873,-0.578044545,-0.001876567,-0.434568816,0.000000000,-0.046332483,0.575879733,-0.001130542,-0.419106110,0.000000000
0.242500,0.292597955,-0.161689111,0.151849505,-0.603868955,-0.161689111,0.150653993,9.022427212e-05,4.981210576e-05,1,1,-0.038002260,-0.578202409,-0.001900898,-0.433713655,0.000000000,-0.047536027,0.576076493,-0.001146204,-0.417034704,0.000000000
0.245000,0.292767008,-0.161689111,0.151877569,-0.604038008,-0.161689111,0.150653993,4.627527368e-05,9.420251316e-05,1,1,-0.038892101,-0.578465301,-0.001939805,-0.432186037,0.000000000,-0.048214871,0.576197279,-0.001157065,-0.415863191,0.000000000
0.247500,0.292936614,-0.161689111,0.151905848,-0.604207614,-0.161689111,0.150653993,9.091779305e-05,5.035157798e-05,1,1,-0.039394222,-0.578624414,-0.001964080,-0.431321872,0.000000000,-0.049438509,0.576395005,-0.001172150,-0.413759183,0.000000000
0.250000,0.293106739,-0.161689111,0.151934332,-0.604377739,-0.161689111,0.150653993,4.664438162e-05,9.501303004e-05,1,1,-0.040294498,-0.578889248,-0.002002840,-0.429777870,0.000000000,-0.050128007,0.576516387,-0.001182692,-0.412570424,0.000000000
0.252500,0.293277351,-0.161689111,0.151963013,-0.604548351,-0.161689111,0.150653993,9.154446295e-05,5.086296664e-05,1,1,-0.040802132,-0.579049470,-0.002027028,-0.428905101,0.000000000,-0.051371302,0.576714918,-0.001197167,-0.410434640,0.000000000
0.255000,0.293448416,-0.161689111,0.151991884,-0.604719416,-0.161689111,0.150653993,4.698126461e-05,9.576062860e-05,1,1,-0.041712463,-0.579316008,-0.002065587,-0.427345407,0.000000000,-0.052071177,0.576836798,-0.001207371,-0.409229155,0.000000000
0.257500,0.293619901,-0.161689111,0.152020934,-0.604890901,-0.161689111,0.150653993,9.210348408e-05,5.134591241e-05,1,1,-0.042225383,-0.579477197,-0.002089657,-0.426464443,0.000000000,-0.053333666,0.577035971,-0.001221205,-0.407062459,0.000000000
0.260000,0.293791773,-0.161689111,0.152050156,-0.605062773,-0.161689111,0.150653993,4.728554168e-05,9.644456792e-05,1,1,-0.043145377,-0.579745199,-0.002127964,-0.424889761,0.000000000,-0.054043625,0.577158253,-0.001231054,-0.405840790,0.000000000
0.262500,0.293963998,-0.161689111,0.152079540,-0.605234998,-0.161689111,0.150653993,9.259409142e-05,5.180005665e-05,1,1,-0.043663352,-0.579907208,-0.002151884,-0.424001018,0.000000000,-0.055324822,0.577357905,-0.001244217,-0.403644086,0.000000000
0.265000,0.294136542,-0.161689111,0.152109078,-0.605407542,-0.161689111,0.150653993,4.755684367e-05,9.706412425e-05,1,1,-0.044592608,-0.580176429,-0.002189887,-0.422412068,0.000000000,-0.056044558,0.577480491,-0.001253693,-0.402406795,0.000000000
0.267500,0.294309371,-0.161689111,0.152138760,-0.605580371,-0.161689111,0.150653993,9.301555275e-05,5.222503934e-05,1,1,-0.045115400,-0.580339113,-0.002213626,-0.421515970,0.000000000,-0.057343948,0.577680458,-0.001266158,-0.400181029,0.000000000
0.270000,0.294482452,-0.161689111,0.152168576,-0.605753452,-0.161689111,0.150653993,4.779481314e-05,9.761858980e-05,1,1,-0.046053503,-0.580609305,-0.002251276,-0.419913488,0.000000000,-0.058073138,0.577803250,-0.001275244,-0.398928707,0.000000000
0.272500,0.294655749,-0.161689111,0.152198518,-0.605926749,-0.161689111,0.150653993,9.336716928e-05,5.262049712e-05,1,1,-0.046580869,-0.580772515,-0.002274805,-0.419010469,0.000000000,-0.059390180,0.578003370,-0.001286984,-0.396674865,0.000000000
0.275000,0.294829229,-0.161689111,0.152228575,-0.606100229,-0.161689111,0.150653993,4.799910416e-05,9.810727046e-05,1,1,-0.047527393,-0.581043429,-0.002312050,-0.417395209,0.000000000,-0.060128486,0.578126269,-0.001295664,-0.395408125,0.000000000
0.277500,0.295002857,-0.161689111,0.152258738,-0.606273857,-0.161689111,0.150653993,9.364827563e-05,5.298606081e-05,1,1,-0.048059081,-0.581207015,-0.002335339,-0.416485711,0.000000000,-0.061462608,0.578326378,-0.001306655,-0.393127244,0.000000000
0.280000,0.295176599,-0.161689111,0.152288998,-0.606447599,-0.161689111,0.150653993,4.816938203e-05,9.852948345e-05,1,1,-0.049013586,-0.581478397,-0.002372131,-0.414858445,0.000000000,-0.062209675,0.578449287,-0.001314916,-0.391846726,0.000000000
0.282500,0.295350419,-0.161689111,0.152319343,-0.606621419,-0.161689111,0.150653993,9.385824021e-05,5.332135256e-05,1,1,-0.049549338,-0.581642207,-0.002395150,-0.413942923,0.000000000,-0.063560275,0.578649221,-0.001325135,-0.389539888,0.000000000
0.285000,0.295524284,-0.161689111,0.152349764,-0.606795284,-0.161689111,0.150653993,4.830532288e-05,9.888455546e-05,1,1,-0.050511371,-0.581913804,-0.002431443,-0.412304442,0.000000000,-0.064315730,0.578772041,-0.001332963,-0.388246259,0.000000000
0.287500,0.295698157,-0.161689111,0.152380251,-0.606969157,-0.161689111,0.150653993,9.399646530e-05,5.362598327e-05,1,1,-0.051050920,-0.582077685,-0.002454164,-0.411383359,0.000000000,-0.065682173,0.578971637,-0.001342389,-0.385914599,0.000000000
0.290000,0.295872005,-0.161689111,0.152410794,-0.607143005,-0.161689111,0.150653993,4.840661332e-05,9.917181951e-05,1,1,-0.052020013,-0.582349239,-0.002489909,-0.409734477,0.000000000,-0.066445625,0.579094270,-0.001349772,-0.384608553,0.000000000
0.292500,0.296045791,-0.161689111,0.152441382,-0.607316791,-0.161689111,0.150653993,9.406238690e-05,5.389954858e-05,1,1,-0.052563085,-0.582513037,-0.002512305,-0.408808310,0.000000000,-0.067827243,0.579293366,-0.001358386,-0.382253257,0.000000000
0.295000,0.296219482,-0.161689111,0.152472005,-0.607490482,-0.161689111,0.150653993,4.847295002e-05,9.939061197e-05,1,1,-0.053538754,-0.582784289,-0.002547457,-0.407149862,0.000000000,-0.068598280,0.579415714,-0.001365312,-0.380935522,0.000000000
0.297500,0.296393040,-0.161689111,0.152502652,-0.607664040,-0.161689111,0.150653993,9.405547513e-05,5.414162574e-05,1,1,-0.054085065,-0.582947850,-0.002569500,-0.406219098,0.000000000,-0.069994368,0.579614146,-0.001373098,-0.378557833,0.000000000
0.300000,0.296566432,-0.161689111,0.152533312,-0.607837432,-0.161689111,0.150653993,4.850403911e-05,9.954026915e-05,1,1,-0.055066810,-0.583218540,-0.002604016,-0.404551944,0.000000000,-0.070772561,0.579736111,-0.001379557,-0.377229165,0.000000000
0.302500,0.296739622,-0.161689111,0.152563975,-0.608010622,-0.161689111,0.150653993,9.397523367e-05,5.435176895e-05,1,1,-0.055616067,-0.583381707,-0.002625680,-0.403617086,0.000000000,-0.072182375,0.579933718,-0.001386500,-0.374830385,0.000000000
0.305000,0.296912573,-0.161689111,0.152594630,-0.608183573,-0.161689111,0.150653993,4.849959562e-05,9.962012365e-05,1,1,-0.056603370,-0.583651573,-0.002659517,-0.401942110,0.000000000,-0.072967272,0.580055202,-0.001392484,-0.373491573,0.000000000
0.307500,0.297085251,-0.161689111,0.152625266,-0.608356251,-0.161689111,0.150653993,9.382119994e-05,5.452950550e-05,1,1,-0.057155272,-0.583814190,-0.002680777,-0.401003671,0.000000000,-0.074390030,0.580251823,-0.001398571,-0.371073067,0.000000000
0.310000,0.297257620,-0.161689111,0.152655873,-0.608528620,-0.161689111,0.150653993,4.845934282e-05,9.962950032e-05,1,1,-0.058147596,-0.584082970,-0.002713894,-0.399321785,0.000000000,-0.075181157,0.580372727,-0.001404071,-0.369724934,0.000000000
0.312500,0.297429644,-0.161689111,0.152686438,-0.608700644,-0.161689111,0.150653993,9.359294481e-05,5.467432993e-05,1,1,-0.058701831,-0.584244879,-0.002734725,-0.398380295,0.000000000,-0.076616036,0.580568202,-0.001409293,-0.367288129,0.000000000
0.315000,0.297601288,-0.161689111,0.152716952,-0.608872288,-0.161689111,0.150653993,4.838301156e-05,9.956771138e-05,1,1,-0.059698621,-0.584512311,-0.002767083,-0.396692438,0.000000000,-0.077412896,0.580688430,-0.001414304,-0.365931536,0.000000000
0.317500,0.297772515,-0.161689111,0.152747403,-0.609043515,-0.161689111,0.150653993,9.329007223e-05,5.478569938e-05,1,1,-0.060254866,-0.584673355,-0.002787462,-0.395748443,0.000000000,-0.078859026,0.580882598,-0.001418653,-0.363477931,0.000000000
0.320000,0.297943289,-0.161689111,0.152777779,-0.609214289,-0.161689111,0.150653993,4.827033943e-05,9.943405172e-05,1,1,-0.061255546,-0.584939174,-0.002819022,-0.394055583,0.000000000,-0.079661099,0.581002052,-0.001423169,-0.362113773,0.000000000
0.322500,0.298113576,-0.161689111,0.152808071,-0.609384576,-0.161689111,0.150653993,9.291221896e-05,5.486302703e-05,1,1,-0.061813468,-0.585099194,-0.002838926,-0.393109642,0.000000000,-0.081117566,0.581194756,-0.001426638,-0.359644936,0.000000000
0.325000,0.298283339,-0.161689111,0.152838266,-0.609554339,-0.161689111,0.150653993,4.812107006e-05,9.922779365e-05,1,1,-0.062817441,-0.585363138,-0.002869654,-0.391412780,0.000000000,-0.081924305,0.581313338,-0.001430657,-0.358274149,0.000000000
0.327500,0.298452542,-0.161689111,0.152868353,-0.609723542,-0.161689111,0.150653993,9.245905426e-05,5.490567573e-05,1,1,-0.063376694,-0.585521976,-0.002889062,-0.390465472,0.000000000,-0.083390146,0.581504420,-0.001433244,-0.355791727,0.000000000
0.330000,0.298621148,-0.161689111,0.152898321,-0.609892148,-0.161689111,0.150653993,4.793495201e-05,9.894818053e-05,1,1,-0.064383341,-0.585783780,-0.002918923,-0.388765640,0.000000000,-0.084200980,0.581622035,-0.001436763,-0.354415286,0.000000000
0.332500,0.298789123,-0.161689111,0.152928158,-0.610060123,-0.161689111,0.150653993,9.193027922e-05,5.491295131e-05,1,1,-0.064943570,-0.585941280,-0.002937815,-0.387817558,0.000000000,-0.085675181,0.581811337,-0.001438468,-0.351921003,0.000000000
0.335000,0.298956430,-0.161689111,0.152957854,-0.610227430,-0.161689111,0.150653993,4.771173808e-05,9.859442096e-05,1,1,-0.065952249,-0.586200680,-0.002966777,-0.386115823,0.000000000,-0.086489510,0.581927889,-0.001441485,-0.350539928,0.000000000
0.337500,0.299123033,-0.161689111,0.152987397,-0.610394033,-0.161689111,0.150653993,9.132562646e-05,5.488409438e-05,1,1,-0.066513083,-0.586356682,-0.002985133,-0.385167582,0.000000000,-0.087971002,0.582115256,-0.001442311,-0.348035593,0.000000000
0.340000,0.299288897,-0.161689111,0.153016775,-0.610559897,-0.161689111,0.150653993,4.745118425e-05,9.816568124e-05,1,1,-0.067523127,-0.586613417,-0.003013166,-0.383465047,0.000000000,-0.088788199,0.582230649,-0.001444828,-0.346650946,0.000000000
0.342500,0.299453984,-0.161689111,0.153045978,-0.610724984,-0.161689111,0.150653993,9.064485948e-05,5.481827282e-05,1,1,-0.068084185,-0.586767764,-0.003030968,-0.382517277,0.000000000,-0.090275859,0.582415927,-0.001444778,-0.344138456,0.000000000
0.345000,0.299618260,-0.161689111,0.153074993,-0.610889260,-0.161689111,0.150653993,4.715304868e-05,9.766107901e-05,1,1,-0.069094905,-0.587021571,-0.003058045,-0.380815081,0.000000000,-0.091095265,0.582530067,-0.001446798,-0.342751346,0.000000000
0.347500,0.299781688,-0.161689111,0.153103810,-0.611052688,-0.161689111,0.150653993,8.988777223e-05,5.471457273e-05,1,1,-0.069655790,-0.587174107,-0.003075276,-0.379868435,0.000000000,-0.092587909,0.582713103,-0.001445880,-0.340232689,0.000000000
0.350000,0.299944232,-0.161689111,0.153132418,-0.611215232,-0.161689111,0.150653993,4.681709074e-05,9.707967469e-05,1,1,-0.070666467,-0.587424725,-0.003101370,-0.378167757,0.000000000,-0.093408836,0.582825893,-0.001447406,-0.338844274,0.000000000
0.352500,0.300105856,-0.161689111,0.153160804,-0.611376856,-0.161689111,0.150653993,8.905418845e-05,5.457198928e-05,1,1,-0.071226771,-0.587575293,-0.003118015,-0.377222908,0.000000000,-0.094905219,0.583006536,-0.001445632,-0.336321537,0.000000000
0.355000,0.300266525,-0.161689111,0.153188957,-0.611537525,-0.161689111,0.150653993,4.644307009e-05,9.642046355e-05,1,1,-0.072236663,-0.587822463,-0.003143104,-0.375524966,0.000000000,-0.095726946,0.583117884,-0.001446668,-0.334933024,0.000000000
0.357500,0.300426202,-0.161689111,0.153216867,-0.611697202,-0.161689111,0.150653993,8.814396110e-05,5.438941708e-05,1,1,-0.072795962,-0.587970907,-0.003159148,-0.374582606,0.000000000,-0.097225759,0.583295984,-0.001444050,-0.332408393,0.000000000
0.360000,0.300584853,-0.161689111,0.153244522,-0.611855853,-0.161689111,0.150653993,4.603074551e-05,9.568236701e-05,1,1,-0.073804297,-0.588214372,-0.003183210,-0.372888662,0.000000000,-0.098047530,0.583405795,-0.001444605,-0.331021043,0.000000000
0.362500,0.300742440,-0.161689111,0.153271911,-0.612013440,-0.161689111,0.150653993,8.715697198e-05,5.416564042e-05,1,1,-0.074362152,-0.588360537,-0.003198641,-0.371949508,0.000000000,-0.099547396,0.583581204,-0.001441160,-0.328496812,0.000000000
0.365000,0.300898928,-0.161689111,0.153299022,-0.612169928,-0.161689111,0.150653993,4.557987406e-05,9.486422434e-05,1,1,-0.075368130,-0.588600040,-0.003221656,-0.370260865,0.000000000,-0.100368423,0.583689386,-0.001441241,-0.327111939,0.000000000
0.367500,0.301054282,-0.161689111,0.153325845,-0.612325282,-0.161689111,0.150653993,8.609313100e-05,5.389932258e-05,1,1,-0.075924089,-0.588743773,-0.003236461,-0.369325654,0.000000000,-0.101867894,0.583861956,-0.001436988,-0.324590513,0.000000000
0.370000,0.301208467,-0.161689111,0.153352368,-0.612479467,-0.161689111,0.150653993,4.509021032e-05,9.396478236e-05,1,1,-0.076926880,-0.588979061,-0.003258414,-0.367643662,0.000000000,-0.102687351,0.583968417,-0.001436606,-0.323209488,0.000000000
0.372500,0.301361445,-0.161689111,0.153378581,-0.612632445,-0.161689111,0.150653993,8.495237627e-05,5.358899534e-05,1,1,-0.077480473,-0.589120210,-0.003272584,-0.366713156,0.000000000,-0.104184905,0.584138003,-0.001431567,-0.320693386,0.000000000
0.375000,0.301513183,-0.161689111,0.153404472,-0.612784183,-0.161689111,0.150653993,4.456150542e-05,9.298268729e-05,1,1,-0.078479218,-0.589351031,-0.003293459,-0.365039209,0.000000000,-0.105001928,0.584242651,-0.001430733,-0.319317639,0.000000000
0.377500,0.301663644,-0.161689111,0.153430031,-0.612934644,-0.161689111,0.150653993,8.373467336e-05,5.323304869e-05,1,1,-0.079029962,-0.589489444,-0.003306984,-0.364114194,0.000000000,-0.106495967,0.584409110,-0.001424933,-0.316809503,0.000000000
0.380000,0.301812793,-0.161689111,0.153455247,-0.613083793,-0.161689111,0.150653993,4.399350659e-05,9.191647527e-05,1,1,-0.080023768,-0.589715550,-0.003326770,-0.362449734,0.000000000,-0.107309654,0.584511854,-0.001423661,-0.315440526,0.000000000
0.382500,0.301960596,-0.161689111,0.153480108,-0.613231596,-0.161689111,0.150653993,8.244001542e-05,5.282972060e-05,1,1,-0.080571162,-0.589851078,-0.003339643,-0.361531020,0.000000000,-0.108798500,0.584675044,-0.001417130,-0.312943121,0.000000000
0.385000,0.302107016,-0.161689111,0.153504605,-0.613378016,-0.161689111,0.150653993,9.854540919e-05,9.076456335e-05,1,1,-0.081224051,-0.590013613,-0.003355086,-0.360435196,0.000000000,-0.109607910,0.584775794,-0.001415434,-0.311582466,0.000000000
0.387500,0.302252020,-0.161689111,0.153528727,-0.613523020,-0.161689111,0.150653993,4.636729288e-05,5.237708711e-05,1,1,-0.082292454,-0.590246103,-0.003373912,-0.358648539,0.000000000,-0.111089803,0.584935576,-0.001408202,-0.309098691,0.000000000
0.390000,0.302395571,-0.161689111,0.153552464,-0.613666571,-0.161689111,0.150653993,8.181101802e-05,8.952524143e-05,1,1,-0.082848588,-0.590378165,-0.003385671,-0.357716587,0.000000000,-0.111893952,0.585034242,-0.001406101,-0.307747977,0.000000000
0.392500,0.302537636,-0.161689111,0.153575804,-0.613808636,-0.161689111,0.150653993,9.662330217e-05,5.187305362e-05,1,1,-0.083501276,-0.590535344,-0.003399803,-0.356622513,0.000000000,-0.113367047,0.585190477,-0.001398203,-0.305280862,0.000000000
0.395000,0.302678178,-0.161689111,0.153598737,-0.613949178,-0.161689111,0.150653993,4.544626573e-05,8.819666491e-05,1,1,-0.084563588,-0.590759264,-0.003416726,-0.354848017,0.000000000,-0.114164909,0.585286971,-0.001395713,-0.303941774,0.000000000
0.397500,0.302817165,-0.161689111,0.153621255,-0.614088165,-0.161689111,0.150653993,7.959985612e-05,5.131534708e-05,1,1,-0.085113517,-0.590886306,-0.003427444,-0.353927426,0.000000000,-0.115627272,0.585439522,-0.001387187,-0.301494491,0.000000000
0.400000,0.302954561,-0.161689111,0.153643345,-0.614225561,-0.161689111,0.150653993,9.385539030e-05,8.677684831e-05,1,1,-0.085757490,-0.591037382,-0.003440348,-0.352849033,0.000000000,-0.116417779,0.585533755,-0.001384329,-0.300168781,0.000000000
0.402500,0.303090332,-0.161689111,0.153665000,-0.614361332,-0.161689111,0.150653993,9.946849934e-05,5.070151029e-05,1,1,-0.086448242,-0.591195672,-0.003453410,-0.351693093,0.000000000,-0.117867386,0.585682490,-0.001375217,-0.297744643,0.000000000
0.405000,0.303224443,-0.161689111,0.153686207,-0.614495443,-0.161689111,0.150653993,4.524226001e-05,8.526366127e-05,1,1,-0.087530681,-0.591411462,-0.003467819,-0.349887904,0.000000000,-0.118649425,0.585774375,-0.001372013,-0.296434134,0.000000000
0.407500,0.303356861,-0.161689111,0.153706959,-0.614627861,-0.161689111,0.150653993,7.690466291e-05,5.002889839e-05,1,1,-0.088076041,-0.591531609,-0.003477067,-0.348976319,0.000000000,-0.120084160,0.585919160,-0.001362358,-0.294036602,0.000000000
0.410000,0.303487552,-0.161689111,0.153727245,-0.614758552,-0.161689111,0.150653993,9.008414191e-05,8.365482616e-05,1,1,-0.088708944,-0.591674011,-0.003488269,-0.347917871,0.000000000,-0.120856573,0.586008611,-0.001358831,-0.292743187,0.000000000
0.412500,0.303616482,-0.161689111,0.153747056,-0.614887482,-0.161689111,0.150653993,9.519094901e-05,9.916823670e-05,1,1,-0.089385088,-0.591822853,-0.003499561,-0.346787762,0.000000000,-0.121767727,0.586116397,-0.001354946,-0.291217147,0.000000000
0.415000,0.303743617,-0.161689111,0.153766382,-0.615014617,-0.161689111,0.150653993,9.679099480e-05,5.299897727e-05,1,1,-0.090081328,-0.591972233,-0.003510401,-0.345624826,0.000000000,-0.123300990,0.586262795,-0.001342985,-0.288658782,0.000000000
0.417500,0.303868923,-0.161689111,0.153785215,-0.615139923,-0.161689111,0.150653993,9.683548532e-05,8.310383190e-05,1,1,-0.090785517,-0.592119995,-0.003520679,-0.344449255,0.000000000,-0.124081860,0.586348538,-0.001338484,-0.287353307,0.000000000
0.420000,0.303992368,-0.161689111,0.153803545,-0.615263368,-0.161689111,0.150653993,9.616935784e-05,9.698266510e-05,1,1,-0.091491227,-0.592265374,-0.003530408,-0.343271661,0.000000000,-0.124985464,0.586451428,-0.001333756,-0.285841987,0.000000000
0.422500,0.304113918,-0.161689111,0.153821364,-0.615384918,-0.161689111,0.150653993,9.516503331e-05,5.197771752e-05,1,1,-0.092195000,-0.592408101,-0.003539623,-0.342097714,0.000000000,-0.126496981,0.586590540,-0.001320825,-0.283322817,0.000000000
0.425000,0.304233541,-0.161689111,0.153838662,-0.615504541,-0.161689111,0.150653993,9.398973662e-05,8.042199323e-05,1,1,-0.092894923,-0.592548075,-0.003548352,-0.340930535,0.000000000,-0.127260626,0.586672114,-0.001315872,-0.282047558,0.000000000
0.427500,0.304351202,-0.161689111,0.153855432,-0.615622202,-0.161689111,0.150653993,9.271997198e-05,9.354485444e-05,1,1,-0.093589888,-0.592685248,-0.003556617,-0.339771928,0.000000000,-0.128140618,0.586770023,-0.001310676,-0.280577288,0.000000000
0.430000,0.304466871,-0.161689111,0.153871664,-0.615737871,-0.161689111,0.150653993,9.139139780e-05,9.925817057e-05,1,1,-0.094279200,-0.592819586,-0.003564432,-0.338623014,0.000000000,-0.129081443,0.586871903,-0.001304640,-0.279006376,0.000000000
0.432500,0.304580514,-0.161689111,0.153887352,-0.615851514,-0.161689111,0.150653993,9.002094541e-05,5.185499356e-05,1,1,-0.094962382,-0.592951053,-0.003571805,-0.337484566,0.000000000,-0.130601503,0.587002942,-0.001289904,-0.276477162,0.000000000
0.435000,0.304692098,-0.161689111,0.153902486,-0.615963098,-0.161689111,0.150653993,8.861680625e-05,7.723890530e-05,1,1,-0.095639066,-0.593079614,-0.003578743,-0.336357173,0.000000000,-0.131347144,0.587078604,-0.001284234,-0.275233987,0.000000000
0.437500,0.304801593,-0.161689111,0.153917058,-0.616072593,-0.161689111,0.150653993,8.718302296e-05,8.892427946e-05,1,1,-0.096308942,-0.593205232,-0.003585252,-0.335241335,0.000000000,-0.132195560,0.587169375,-0.001278397,-0.273818549,0.000000000
0.440000,0.304908966,-0.161689111,0.153931062,-0.616179966,-0.161689111,0.150653993,8.572163886e-05,9.390266814e-05,1,1,-0.096971727,-0.593327870,-0.003591334,-0.334137505,0.000000000,-0.133096917,0.587263682,-0.001271829,-0.272315579,0.000000000
0.442500,0.305014185,-0.161689111,0.153944489,-0.616285185,-0.161689111,0.150653993,8.423372136e-05,9.564802779e-05,1,1,-0.097627151,-0.593447488,-0.003596995,-0.333046114,0.000000000,-0.134022671,0.587357460,-0.001264579,-0.270772959,0.000000000
0.445000,0.305117219,-0.161689111,0.153957333,-0.616388219,-0.161689111,0.150653993,8.271985754e-05,9.577696863e-05,1,1,-0.098274952,-0.593564048,-0.003602237,-0.331967584,0.000000000,-0.134956371,0.587449392,-0.001256825,-0.269218020,0.000000000
0.447500,0.305218037,-0.161689111,0.153969586,-0.616489037,-0.161689111,0.150653993,8.118039819e-05,9.506155048e-05,1,1,-0.098914868,-0.593677513,-0.003607065,-0.330902335,0.000000000,-0.135888430,0.587539123,-0.001248734,-0.267666582,0.000000000
0.450000,0.305316607,-0.161689111,0.153981241,-0.616587607,-0.161689111,0.150653993,7.961557972e-05,9.388326520e-05,1,1,-0.099546636,-0.593787845,-0.003611481,-0.329850787,0.000000000,-0.136813154,0.587626600,-0.001240426,-0.266127996,0.000000000
0.452500,0.305412899,-0.161689111,0.153992291,-0.616683899,-0.161689111,0.150653993,7.802558605e-05,9.243658085e-05,1,1,-0.100169992,-0.593895007,-0.003615491,-0.328813363,0.000000000,-0.137727053,0.587711848,-0.001231985,-0.264607967,0.000000000
0.455000,0.305506883,-0.161689111,0.154002731,-0.616777883,-0.161689111,0.150653993,7.641058111e-05,9.082322922e-05,1,1,-0.100784672,-0.593998961,-0.003619098,-0.327790487,0.000000000,-0.138627893,0.587794896,-0.001223471,-0.263110143,0.000000000
0.457500,0.305598528,-0.161689111,0.154012554,-0.616869528,-0.161689111,0.150653993,7.477072600e-05,8.909751695e-05,1,1,-0.101390408,-0.594099673,-0.003622306,-0.326782588,0.000000000,-0.139514149,0.587875763,-0.001214922,-0.261637008,0.000000000
0.460000,0.305687803,-0.161689111,0.154021753,-0.616958803,-0.161689111,0.150653993,7.310618914e-05,8.728885892e-05,1,1,-0.101986930,-0.594197105,-0.003625121,-0.325790100,0.000000000,-0.140384699,0.587954452,-0.001206369,-0.260190386,0.000000000
0.462500,0.305774680,-0.161689111,0.154030323,-0.617045680,-0.161689111,0.150653993,7.141715248e-05,8.541332497e-05,1,1,-0.102573966,-0.594291224,-0.003627545,-0.324813458,0.000000000,-0.141238649,0.588030957,-0.001197833,-0.258771729,0.000000000
0.465000,0.305859127,-0.161689111,0.154038259,-0.617130127,-0.161689111,0.150653993,6.970381619e-05,8.347971112e-05,1,1,-0.103151243,-0.594381996,-0.003629584,-0.323853101,0.000000000,-0.142075235,0.588105266,-0.001189335,-0.257382279,0.000000000
0.467500,0.305941117,-0.161689111,0.154045554,-0.617212117,-0.161689111,0.150653993,6.796640260e-05,8.149279945e-05,1,1,-0.103718484,-0.594469385,-0.003631244,-0.322909472,0.000000000,-0.142893765,0.588177361,-0.001180891,-0.256023161,0.000000000
0.470000,0.306020620,-0.161689111,0.154052204,-0.617291620,-0.161689111,0.150653993,6.620516013e-05,7.945514083e-05,1,1,-0.104275411,-0.594553360,-0.003632528,-0.321983017,0.000000000,-0.143693585,0.588247225,-0.001172518,-0.254695431,0.000000000
0.472500,0.306097607,-0.161689111,0.154058204,-0.617368607,-0.161689111,0.150653993,6.442036756e-05,7.736804384e-05,1,1,-0.104821747,-0.594633888,-0.003633441,-0.321074185,0.000000000,-0.144474067,0.588314837,-0.001164230,-0.253400113,0.000000000
0.475000,0.306172049,-0.161689111,0.154063549,-0.617443049,-0.161689111,0.150653993,6.261233870e-05,7.523213043e-05,1,1,-0.105357208,-0.594710937,-0.003633990,-0.320183428,0.000000000,-0.145234593,0.588380175,-0.001156043,-0.252138208,0.000000000
0.477500,0.306243919,-0.161689111,0.154068234,-0.617514919,-0.161689111,0.150653993,6.078142824e-05,7.304765204e-05,1,1,-0.105881513,-0.594784476,-0.003634178,-0.319311199,0.000000000,-0.145974552,0.588443220,-0.001147970,-0.250910709,0.000000000
0.480000,0.306313188,-0.161689111,0.154072256,-0.617584188,-0.161689111,0.150653993,5.892803839e-05,7.081467154e-05,1,1,-0.106394378,-0.594854475,-0.003634012,-0.318457955,0.000000000,-0.146693336,0.588503948,-0.001140027,-0.249718601,0.000000000
0.482500,0.306379828,-0.161689111,0.154075610,-0.617650828,-0.161689111,0.150653993,5.705262705e-05,6.853316987e-05,1,1,-0.106895518,-0.594920903,-0.003633496,-0.317624154,0.000000000,-0.147390340,0.588562340,-0.001132227,-0.248562866,0.000000000
0.485000,0.306443812,-0.161689111,0.154078293,-0.617714812,-0.161689111,0.150653993,5.515571766e-05,6.620310914e-05,1,1,-0.107384647,-0.594983731,-0.003632637,-0.316810257,0.000000000,-0.148064962,0.588618374,-0.001124585,-0.247444483,0.000000000
0.487500,0.306505113,-0.161689111,0.154080301,-0.617776113,-0.161689111,0.150653993,5.323791162e-05,6.382447210e-05,1,1,-0.107861478,-0.595042932,-0.003631440,-0.316016726,0.000000000,-0.148716600,0.588672029,-0.001117114,-0.246364425,0.000000000
0.490000,0.306563704,-0.161689111,0.154081631,-0.617834704,-0.161689111,0.150653993,5.129990339e-05,6.139728664e-05,1,1,-0.108325725,-0.595098476,-0.003629910,-0.315244023,0.000000000,-0.149344658,0.588723285,-0.001109829,-0.245323664,0.000000000
0.492500,0.306619558,-0.161689111,0.154082279,-0.617890558,-0.161689111,0.150653993,4.934249954e-05,5.892164265e-05,1,1,-0.108777100,-0.595150338,-0.003628054,-0.314492611,0.000000000,-0.149948539,0.588772120,-0.001102744,-0.244323165,0.000000000
0.495000,0.306672650,-0.161689111,0.154082244,-0.617943650,-0.161689111,0.150653993,4.736664310e-05,5.639770397e-05,1,1,-0.109215315,-0.595198490,-0.003625876,-0.313762957,0.000000000,-0.150527656,0.588818516,-0.001095873,-0.243363886,0.000000000
0.497500,0.306722952,-0.161689111,0.154081523,-0.617993952,-0.161689111,0.150653993,9.685613097e-05,5.382571799e-05,1,1,-0.109215315,-0.595198490,-0.003625876,-0.313762957,0.000000000,-0.151081422,0.588862452,-0.001089228,-0.242446776,0.000000000
0.500000,0.306770439,-0.161689111,0.154080113,-0.618041439,-0.161689111,0.150653993,6.682951977e-05,9.923048720e-05,1,1,-0.109820323,-0.595270468,-0.003623738,-0.312751978,0.000000000,-0.151081422,0.588862452,-0.001089228,-0.242446776,0.000000000
0.502500,0.306815087,-0.161689111,0.154078013,-0.618086087,-0.161689111,0.150653993,5.246892384e-05,7.202214533e-05,1,1,-0.110322812,-0.595317735,-0.003619909,-0.311914900,0.000000000,-0.151791870,0.588932810,-0.001082429,-0.241267322,0.000000000
0.505000,0.306856869,-0.161689111,0.154075221,-0.618127869,-0.161689111,0.150653993,9.360059820e-05,5.809949086e-05,1,1,-0.110322812,-0.595317735,-0.003619909,-0.311914900,0.000000000,-0.152392371,0.588979230,-0.001075024,-0.240273300,0.000000000
0.507500,0.306895761,-0.161689111,0.154071736,-0.618166761,-0.161689111,0.150653993,6.269338461e-05,9.499129772e-05,1,1,-0.110922398,-0.595374036,-0.003615304,-0.310913092,0.000000000,-0.152392371,0.588979230,-0.001075024,-0.240273300,0.000000000
0.510000,0.306931740,-0.161689111,0.154067556,-0.618202740,-0.161689111,0.150653993,9.841423934e-05,6.647823946e-05,1,1,-0.110922398,-0.595374036,-0.003615304,-0.310913092,0.000000000,-0.153062884,0.589038898,-0.001067703,-0.239161844,0.000000000
0.512500,0.306964780,-0.161689111,0.154062680,-0.618235780,-0.161689111,0.150653993,6.321927118e-05,9.793276576e-05,1,1,-0.111546976,-0.595422959,-0.003608916,-0.309869023,0.000000000,-0.153062884,0.589038898,-0.001067703,-0.239161844,0.000000000
0.515000,0.306994858,-0.161689111,0.154057109,-0.618265858,-0.161689111,0.150653993,9.342924624e-05,6.544557012e-05,1,1,-0.111546976,-0.595422959,-0.003608916,-0.309869023,0.000000000,-0.153728968,0.589095406,-0.001060058,-0.238058444,0.000000000
0.517500,0.307021950,-0.161689111,0.154050841,-0.618292950,-0.161689111,0.150653993,5.928419880e-05,9.106218822e-05,1,1,-0.112156405,-0.595458607,-0.003600724,-0.308849925,0.000000000,-0.153728968,0.589095406,-0.001060058,-0.238058444,0.000000000
0.520000,0.307046034,-0.161689111,0.154043878,-0.618317034,-0.161689111,0.150653993,8.410980431e-05,5.950805119e-05,1,1,-0.112156405,-0.595458607,-0.003600724,-0.308849925,0.000000000,-0.154344394,0.589142973,-0.001052396,-0.237040047,0.000000000
0.522500,0.307067086,-0.161689111,0.154036218,-0.618338086,-0.161689111,0.150653993,5.330835866e-05,7.920974755e-05,1,1,-0.112727899,-0.595478946,-0.003590939,-0.307893564,0.000000000,-0.154344394,0.589142973,-0.001052396,-0.237040047,0.000000000
0.525000,0.307085085,-0.161689111,0.154027863,-0.618356085,-0.161689111,0.150653993,7.303691384e-05,9.650717658e-05,1,1,-0.112727899,-0.595478946,-0.003590939,-0.307893564,0.000000000,-0.154344394,0.589142973,-0.001052396,-0.237040047,0.000000000
0.527500,0.307100009,-0.161689111,0.154018814,-0.618371009,-0.161689111,0.150653993,9.040579899e-05,5.778721756e-05,1,1,-0.112727899,-0.595478946,-0.003590939,-0.307893564,0.000000000,-0.154941522,0.589189428,-0.001044977,-0.236051964,0.000000000
0.530000,0.307111835,-0.161689111,0.154009071,-0.618382835,-0.161689111,0.150653993,5.448129732e-05,6.876520554e-05,1,1,-0.113339843,-0.595480730,-0.003577272,-0.306865133,0.000000000,-0.154941522,0.589189428,-0.001044977,-0.236051964,0.000000000
0.532500,0.307120542,-0.161689111,0.153998636,-0.618391542,-0.161689111,0.150653993,6.763207354e-05,7.700888206e-05,1,1,-0.113339843,-0.595480730,-0.003577272,-0.306865133,0.000000000,-0.154941522,0.589189428,-0.001044977,-0.236051964,0.000000000
0.535000,0.307126110,-0.161689111,0.153987511,-0.618397110,-0.161689111,0.150653993,7.902223327e-05,8.233024994e-05,1,1,-0.113339843,-0.595480730,-0.003577272,-0.306865133,0.000000000,-0.154941522,0.589189428,-0.001044977,-0.236051964,0.000000000
0.537500,0.307128517,-0.161689111,0.153975698,-0.618399517,-0.161689111,0.150653993,8.898248341e-05,8.464118433e-05,1,1,-0.113339843,-0.595480730,-0.003577272,-0.306865133,0.000000000,-0.154941522,0.589189428,-0.001044977,-0.236051964,0.000000000
0.540000,0.307127745,-0.161689111,0.153963199,-0.618398745,-0.161689111,0.150653993,9.795176118e-05,8.389899317e-05,1,1,-0.113339843,-0.595480730,-0.003577272,-0.306865133,0.000000000,-0.154941522,0.589189428,-0.001044977,-0.236051964,0.000000000
0.542500,0.307123772,-0.161689111,0.153950017,-0.618394772,-0.161689111,0.150653993,5.720152876e-05,8.009187941e-05,1,1,-0.114011504,-0.595422427,-0.003552718,-0.305726506,0.000000000,-0.154941522,0.589189428,-0.001044977,-0.236051964,0.000000000
0.545000,0.307116580,-0.161689111,0.153936154,-0.618387580,-0.161689111,0.150653993,6.627585959e-05,7.324422342e-05,1,1,-0.114011504,-0.595422427,-0.003552718,-0.305726506,0.000000000,-0.154941522,0.589189428,-0.001044977,-0.236051964,0.000000000
0.547500,0.307106149,-0.161689111,0.153921614,-0.618377149,-0.161689111,0.150653993,7.750336448e-05,6.344882900e-05,1,1,-0.114011504,-0.595422427,-0.003552718,-0.305726506,0.000000000,-0.154941522,0.589189428,-0.001044977,-0.236051964,0.000000000
0.550000,0.307092460,-0.161689111,0.153906400,-0.618363460,-0.161689111,0.150653993,9.152061495e-05,5.097869514e-05,1,1,-0.114011504,-0.595422427,-0.003552718,-0.305726506,0.000000000,-0.154941522,0.589189428,-0.001044977,-0.236051964,0.000000000
0.552500,0.307075496,-0.161689111,0.153890517,-0.618346496,-0.161689111,0.150653993,5.168156884e-05,3.674818771e-05,1,1,-0.114496887,-0.595302005,-0.003522633,-0.304897264,0.000000000,-0.154941522,0.589189428,-0.001044977,-0.236051964,0.000000000
0.555000,0.307055238,-0.161689111,0.153873967,-0.618326238,-0.161689111,0.150653993,7.133244397e-05,2.477259981e-05,1,1,-0.114496887,-0.595302005,-0.003522633,-0.304897264,0.000000000,-0.154941522,0.589189428,-0.001044977,-0.236051964,0.000000000
0.557500,0.307031670,-0.161689111,0.153856755,-0.618302670,-0.161689111,0.150653993,9.628649921e-05,2.809706790e-05,1,1,-0.114496887,-0.595302005,-0.003522633,-0.304897264,0.000000000,-0.154941522,0.589189428,-0.001044977,-0.236051964,0.000000000
0.560000,0.307004773,-0.161689111,0.153838887,-0.618275773,-0.161689111,0.150653993,5.256761898e-05,4.844992359e-05,1,1,-0.114758302,-0.595152896,-0.003493184,-0.304443091,0.000000000,-0.154941522,0.589189428,-0.001044977,-0.236051964,0.000000000
0.562500,0.306974531,-0.161689111,0.153820367,-0.618245531,-0.161689111,0.150653993,8.515795052e-05,7.633519864e-05,1,1,-0.114758302,-0.595152896,-0.003493184,-0.304443091,0.000000000,-0.154941522,0.589189428,-0.001044977,-0.236051964,0.000000000
0.565000,0.306940928,-0.161689111,0.153801200,-0.618211928,-0.161689111,0.150653993,4.935650581e-05,4.732182798e-05,1,1,-0.114853252,-0.595013017,-0.003469014,-0.304269747,0.000000000,-0.154648045,0.589097015,-0.001040160,-0.236551907,0.000000000
0.567500,0.306903948,-0.161689111,0.153781391,-0.618174948,-0.161689111,0.150653993,9.022762434e-05,8.427233096e-05,1,1,-0.114853252,-0.595013017,-0.003469014,-0.304269747,0.000000000,-0.154648045,0.589097015,-0.001040160,-0.236551907,0.000000000
0.570000,0.306863575,-0.161689111,0.153760948,-0.618134575,-0.161689111,0.150653993,5.410228625e-05,5.870223248e-05,1,1,-0.114819184,-0.594867857,-0.003446961,-0.304311314,0.000000000,-0.154149258,0.589013436,-0.001040900,-0.237386571,0.000000000
0.572500,0.306819795,-0.161689111,0.153739875,-0.618090795,-0.161689111,0.150653993,4.123768078e-05,5.058842660e-05,1,1,-0.114744021,-0.594761899,-0.003432005,-0.304425285,0.000000000,-0.153665455,0.588957863,-0.001044706,-0.238191038,0.000000000
0.575000,0.306772593,-0.161689111,0.153718179,-0.618043593,-0.161689111,0.150653993,9.315208627e-05,9.663918019e-05,1,1,-0.114744021,-0.594761899,-0.003432005,-0.304425285,0.000000000,-0.153665455,0.588957863,-0.001044706,-0.238191038,0.000000000
0.577500,0.306721954,-0.161689111,0.153695867,-0.617992954,-0.161689111,0.150653993,6.029928783e-05,7.271790092e-05,1,1,-0.114559036,-0.594615924,-0.003413242,-0.304718386,0.000000000,-0.152969179,0.588878186,-0.001050190,-0.239348830,0.000000000
0.580000,0.306667865,-0.161689111,0.153672947,-0.617938865,-0.161689111,0.150653993,4.873869984e-05,6.379788244e-05,1,1,-0.114372313,-0.594503154,-0.003399726,-0.305017117,0.000000000,-0.152325703,0.588820033,-0.001057128,-0.240415805,0.000000000
0.582500,0.306610312,-0.161689111,0.153649424,-0.617881312,-0.161689111,0.150653993,4.567062737e-05,6.109481383e-05,1,1,-0.114174596,-0.594401004,-0.003388116,-0.305335226,0.000000000,-0.151701272,0.588767587,-0.001064326,-0.241450490,0.000000000
0.585000,0.306549282,-0.161689111,0.153625307,-0.617820282,-0.161689111,0.150653993,4.600130854e-05,6.127688460e-05,1,1,-0.113960974,-0.594300509,-0.003377111,-0.305680187,0.000000000,-0.151075249,0.588714947,-0.001071509,-0.242487931,0.000000000
0.587500,0.306484763,-0.161689111,0.153600604,-0.617755763,-0.161689111,0.150653993,4.770937890e-05,6.289955542e-05,1,1,-0.113728797,-0.594198123,-0.003366211,-0.306056111,0.000000000,-0.150435143,0.588660012,-0.001078688,-0.243549056,0.000000000
0.590000,0.306416743,-0.161689111,0.153575323,-0.617687743,-0.161689111,0.150653993,4.998674214e-05,6.526940865e-05,1,1,-0.113476610,-0.594092454,-0.003355225,-0.306465299,0.000000000,-0.149773483,0.588602097,-0.001085939,-0.244646275,0.000000000
0.592500,0.306345210,-0.161689111,0.153549473,-0.617616210,-0.161689111,0.150653993,5.250691743e-05,6.803451598e-05,1,1,-0.113203596,-0.593982959,-0.003344084,-0.306909061,0.000000000,-0.149085877,0.588541018,-0.001093329,-0.245786846,0.000000000
0.595000,0.306270153,-0.161689111,0.153523061,-0.617541153,-0.161689111,0.150653993,5.513633255e-05,7.100940647e-05,1,1,-0.112909288,-0.593869431,-0.003332761,-0.307388168,0.000000000,-0.148369818,0.588476754,-0.001100908,-0.246974905,0.000000000
0.597500,0.306191561,-0.161689111,0.153496098,-0.617462561,-0.161689111,0.150653993,5.781932764e-05,7.409308832e-05,1,1,-0.112593405,-0.593751795,-0.003321246,-0.307903092,0.000000000,-0.147623951,0.588409325,-0.001108701,-0.248212690,0.000000000
0.600000,0.306109424,-0.161689111,0.153468593,-0.617380424,-0.161689111,0.150653993,6.053199142e-05,7.722892807e-05,1,1,-0.112255779,-0.593630025,-0.003309536,-0.308454132,0.000000000,-0.146847628,0.588338754,-0.001116722,-0.249501285,0.000000000
0.602500,0.306023731,-0.161689111,0.153440555,-0.617294731,-0.161689111,0.150653993,6.326350033e-05,8.038434586e-05,1,1,-0.111896301,-0.593504117,-0.003297627,-0.309041490,0.000000000,-0.146040633,0.588265055,-0.001124970,-0.250841060,0.000000000
0.605000,0.305934474,-0.161689111,0.153411993,-0.617205474,-0.161689111,0.150653993,6.600851572e-05,8.354018765e-05,1,1,-0.111514901,-0.593374073,-0.003285516,-0.309665305,0.000000000,-0.145203021,0.588188234,-0.001133441,-0.252231953,0.000000000
0.607500,0.305841644,-0.161689111,0.153382919,-0.617112644,-0.161689111,0.150653993,6.876405375e-05,8.668497975e-05,1,1,-0.111111536,-0.593239900,-0.003273200,-0.310325675,0.000000000,-0.144335012,0.588108291,-0.001142122,-0.253673623,0.000000000
0.610000,0.305745231,-0.161689111,0.153353343,-0.617016231,-0.161689111,0.150653993,7.152817842e-05,8.981173312e-05,1,1,-0.110686181,-0.593101606,-0.003260676,-0.311022673,0.000000000,-0.143436936,0.588025221,-0.001151000,-0.255165558,0.000000000
0.612500,0.305645229,-0.161689111,0.153323276,-0.616916229,-0.161689111,0.150653993,7.429944511e-05,9.291612491e-05,1,1,-0.110238824,-0.592959198,-0.003247940,-0.311756343,0.000000000,-0.142509192,0.587939017,-0.001160058,-0.256707134,0.000000000
0.615000,0.305541628,-0.161689111,0.153292728,-0.616812628,-0.161689111,0.150653993,7.707665743e-05,9.599544631e-05,1,1,-0.109769468,-0.592812687,-0.003234987,-0.312526715,0.000000000,-0.141552225,0.587849668,-0.001169280,-0.258297648,0.000000000
0.617500,0.305434423,-0.161689111,0.153261711,-0.616705423,-0.161689111,0.150653993,7.985875718e-05,9.904798508e-05,1,1,-0.109278127,-0.592662083,-0.003221813,-0.313333798,0.000000000,-0.140566512,0.587757165,-0.001178646,-0.259936347,0.000000000
0.620000,0.305323606,-0.161689111,0.153230236,-0.616594606,-0.161689111,0.150653993,8.264477204e-05,5.373608717e-05,1,1,-0.108764823,-0.592507395,-0.003208412,-0.314177585,0.000000000,-0.138967095,0.587635441,-0.001197511,-0.262589667,0.000000000
0.622500,0.305209171,-0.161689111,0.153198316,-0.616480171,-0.161689111,0.150653993,8.543378953e-05,8.040241404e-05,1,1,-0.108229592,-0.592348637,-0.003194780,-0.315058053,0.000000000,-0.138172012,0.587559420,-0.001204723,-0.263912368,0.000000000
0.625000,0.305091113,-0.161689111,0.153165962,-0.616362113,-0.161689111,0.150653993,8.822494286e-05,9.530886671e-05,1,1,-0.107672478,-0.592185819,-0.003180910,-0.315975165,0.000000000,-0.137246578,0.587463483,-0.001212045,-0.265453854,0.000000000
0.627500,0.304969426,-0.161689111,0.153133187,-0.616240426,-0.161689111,0.150653993,9.101740286e-05,5.400127444e-05,1,1,-0.107093534,-0.592018955,-0.003166797,-0.316928868,0.000000000,-0.135654678,0.587329175,-0.001228703,-0.268099219,0.000000000
0.630000,0.304844105,-0.161689111,0.153100003,-0.616115105,-0.161689111,0.150653993,9.381037307e-05,8.501953893e-05,1,1,-0.106492824,-0.591848059,-0.003152434,-0.317919092,0.000000000,-0.134828125,0.587244878,-0.001235262,-0.269476363,0.000000000
0.632500,0.304715147,-0.161689111,0.153066423,-0.615986147,-0.161689111,0.150653993,9.660308613e-05,5.229450545e-05,1,1,-0.105870422,-0.591673144,-0.003137815,-0.318945756,0.000000000,-0.133295100,0.587108591,-0.001250091,-0.272026599,0.000000000
0.635000,0.304582546,-0.161689111,0.153032461,-0.615853546,-0.161689111,0.150653993,9.939480170e-05,8.711688884e-05,1,1,-0.105226409,-0.591494225,-0.003122932,-0.320008761,0.000000000,-0.132459584,0.587019159,-0.001255968,-0.273420310,0.000000000
0.637500,0.304446300,-0.161689111,0.152998130,-0.615717300,-0.161689111,0.150653993,4.528321612e-05,5.382129224e-05,1,1,-0.104207863,-0.591245091,-0.003104797,-0.321688370,0.000000000,-0.130888201,0.586874098,-0.001270146,-0.276036805,0.000000000
0.640000,0.304306406,-0.161689111,0.152963444,-0.615577406,-0.161689111,0.150653993,8.022422204e-05,9.085653140e-05,1,1,-0.103686077,-0.591101725,-0.003092797,-0.322551086,0.000000000,-0.130023814,0.586779413,-0.001275738,-0.277479905,0.000000000
0.642500,0.304162861,-0.161689111,0.152928416,-0.615433861,-0.161689111,0.150653993,9.690117747e-05,5.581698306e-05,1,1,-0.103065870,-0.590926541,-0.003077660,-0.323577705,0.000000000,-0.128397694,0.586625976,-0.001289640,-0.280189641,0.000000000
0.645000,0.304015664,-0.161689111,0.152893061,-0.615286664,-0.161689111,0.150653993,4.670999595e-05,9.480620229e-05,1,1,-0.102022661,-0.590668380,-0.003058108,-0.325302229,0.000000000,-0.127501846,0.586526196,-0.001295000,-0.281686446,0.000000000
0.647500,0.303864813,-0.161689111,0.152857392,-0.615135813,-0.161689111,0.150653993,8.550101827e-05,5.783692444e-05,1,1,-0.101466588,-0.590516374,-0.003045163,-0.326223763,0.000000000,-0.125820313,0.586364517,-0.001308616,-0.284490675,0.000000000
0.650000,0.303710306,-0.161689111,0.152821426,-0.614981306,-0.161689111,0.150653993,4.582981439e-05,9.873795505e-05,1,1,-0.100446304,-0.590262901,-0.003025527,-0.327913100,0.000000000,-0.124893733,0.586259667,-0.001313702,-0.286040084,0.000000000
0.652500,0.303552144,-0.161689111,0.152785176,-0.614823144,-0.161689111,0.150653993,8.820259039e-05,5.980606134e-05,1,1,-0.099874836,-0.590106202,-0.003011929,-0.328861714,0.000000000,-0.123159068,0.586089729,-0.001326932,-0.288935234,0.000000000
0.655000,0.303390326,-0.161689111,0.152748658,-0.614661326,-0.161689111,0.150653993,4.766911370e-05,5.106071075e-05,1,1,-0.098813193,-0.589843496,-0.002991310,-0.330622041,0.000000000,-0.121674519,0.585946744,-0.001338423,-0.291413131,0.000000000
0.657500,0.303224853,-0.161689111,0.152711888,-0.614495853,-0.161689111,0.150653993,9.209542121e-05,9.973020324e-05,1,1,-0.098214627,-0.589680939,-0.002977104,-0.331617022,0.000000000,-0.120759727,0.585836049,-0.001342016,-0.292945958,0.000000000
0.660000,0.303055726,-0.161689111,0.152674880,-0.614326726,-0.161689111,0.150653993,4.976692145e-05,6.130004069e-05,1,1,-0.097102671,-0.589408664,-0.002955605,-0.333463168,0.000000000,-0.118998216,0.585653370,-0.001353344,-0.295890936,0.000000000
0.662500,0.302882946,-0.161689111,0.152637650,-0.614153946,-0.161689111,0.150653993,9.609136931e-05,5.296580125e-05,1,1,-0.096475624,-0.589240324,-0.002940806,-0.334506892,0.000000000,-0.117469287,0.585499417,-0.001363660,-0.298446788,0.000000000
0.665000,0.302706516,-0.161689111,0.152600216,-0.613977516,-0.161689111,0.150653993,5.187734184e-05,5.133245973e-05,1,1,-0.095312817,-0.588958629,-0.002918417,-0.336439945,0.000000000,-0.115999943,0.585344407,-0.001372304,-0.300905573,0.000000000
0.667500,0.302526437,-0.161689111,0.152562592,-0.613797437,-0.161689111,0.150653993,4.416867294e-05,5.139556432e-05,1,1,-0.094315900,-0.588721628,-0.002899771,-0.338098038,0.000000000,-0.114536999,0.585185515,-0.001380016,-0.303355580,0.000000000
0.670000,0.302342712,-0.161689111,0.152524796,-0.613613712,-0.161689111,0.150653993,9.821303776e-05,5.191007213e-05,1,1,-0.093681246,-0.588549338,-0.002884048,-0.339157220,0.000000000,-0.113064528,0.585022879,-0.001387163,-0.305823031,0.000000000
0.672500,0.302155345,-0.161689111,0.152486844,-0.613426345,-0.161689111,0.150653993,5.416903863e-05,5.254498757e-05,1,1,-0.092471227,-0.588255617,-0.002859933,-0.341173365,0.000000000,-0.111578049,0.584856695,-0.001393863,-0.308315288,0.000000000
0.675000,0.301964340,-0.161689111,0.152448753,-0.613235340,-0.161689111,0.150653993,4.656020361e-05,5.320828369e-05,1,1,-0.091420474,-0.588007248,-0.002839913,-0.342924690,0.000000000,-0.110076564,0.584687042,-0.001400141,-0.310834013,0.000000000
0.677500,0.301769702,-0.161689111,0.152410540,-0.613040702,-0.161689111,0.150653993,4.564819914e-05,5.387379987e-05,1,1,-0.090399805,-0.587761359,-0.002819424,-0.344627856,0.000000000,-0.108560120,0.584513944,-0.001405987,-0.313379157,0.000000000
0.680000,0.301571434,-0.161689111,0.152372223,-0.612842434,-0.161689111,0.150653993,4.607738353e-05,5.453414840e-05,1,1,-0.089373903,-0.587512356,-0.002798280,-0.346341340,0.000000000,-0.107029074,0.584337403,-0.001411384,-0.315950170,0.000000000
0.682500,0.301369543,-0.161689111,0.152333819,-0.612640543,-0.161689111,0.150653993,4.679011723e-05,5.518738019e-05,1,1,-0.088333270,-0.587259711,-0.002776593,-0.348080772,0.000000000,-0.105483869,0.584157414,-0.001416308,-0.318546357,0.000000000
0.685000,0.301164034,-0.161689111,0.152295346,-0.612435034,-0.161689111,0.150653993,4.756374640e-05,5.583312749e-05,1,1,-0.087275481,-0.587003458,-0.002754415,-0.349850159,0.000000000,-0.103924968,0.583973973,-0.001420739,-0.321166993,0.000000000
0.687500,0.300954915,-0.161689111,0.152256822,-0.612225915,-0.161689111,0.150653993,4.834823417e-05,5.647147640e-05,1,1,-0.086200042,-0.586743651,-0.002731755,-0.351650353,0.000000000,-0.102352838,0.583787073,-0.001424652,-0.323811348,0.000000000
0.690000,0.300742190,-0.161689111,0.152218264,-0.612013190,-0.161689111,0.150653993,4.913164221e-05,5.710263726e-05,1,1,-0.085106982,-0.586480331,-0.002708611,-0.353481349,0.000000000,-0.100767937,0.583596708,-0.001428025,-0.326478700,0.000000000
0.692500,0.300525869,-0.161689111,0.152179692,-0.611796869,-0.161689111,0.150653993,4.991096016e-05,5.772684796e-05,1,1,-0.083996477,-0.586213530,-0.002684972,-0.355342908,0.000000000,-0.099170721,0.583402872,-0.001430835,-0.329168339,0.000000000
0.695000,0.300305959,-0.161689111,0.152141124,-0.611576959,-0.161689111,0.150653993,5.068537140e-05,5.834434574e-05,1,1,-0.082868742,-0.585943279,-0.002660829,-0.357234724,0.000000000,-0.097561636,0.583205561,-0.001433059,-0.331879564,0.000000000
0.697500,0.300082468,-0.161689111,0.152102579,-0.611353468,-0.161689111,0.150653993,5.145461851e-05,5.895535921e-05,1,1,-0.081724006,-0.585669612,-0.002636170,-0.359156470,0.000000000,-0.095941122,0.583004768,-0.001434674,-0.334611688,0.000000000
0.700000,0.299855405,-0.161689111,0.152064075,-0.611126405,-0.161689111,0.150653993,5.221859176e-05,5.956010550e-05,1,1,-0.080562501,-0.585392557,-0.002610986,-0.361107814,0.000000000,-0.094309611,0.582800490,-0.001435659,-0.337364032,0.000000000
0.702500,0.299624780,-0.161689111,0.152025631,-0.610895780,-0.161689111,0.150653993,5.297722337e-05,6.015879016e-05,1,1,-0.079384464,-0.585112149,-0.002585266,-0.363088416,0.000000000,-0.092667528,0.582592722,-0.001435991,-0.340135934,0.000000000
0.705000,0.299390602,-0.161689111,0.151987267,-0.610661602,-0.161689111,0.150653993,5.373045958e-05,6.075160661e-05,1,1,-0.078190132,-0.584828419,-0.002558998,-0.365097935,0.000000000,-0.091015291,0.582381460,-0.001435647,-0.342926737,0.000000000
0.707500,0.299152882,-0.161689111,0.151949003,-0.610423882,-0.161689111,0.150653993,5.447825301e-05,6.133873628e-05,1,1,-0.076979746,-0.584541401,-0.002532173,-0.367136027,0.000000000,-0.089353312,0.582166701,-0.001434606,-0.345735800,0.000000000
0.710000,0.298911631,-0.161689111,0.151910857,-0.610182631,-0.161689111,0.150653993,5.522056074e-05,6.192034907e-05,1,1,-0.075753544,-0.584251129,-0.002504780,-0.369202344,0.000000000,-0.087681993,0.581948440,-0.001432845,-0.348562493,0.000000000
0.712500,0.298666859,-0.161689111,0.151872850,-0.609937859,-0.161689111,0.150653993,5.595734349e-05,6.249660319e-05,1,1,-0.074511771,-0.583957638,-0.002476808,-0.371296539,0.000000000,-0.086001731,0.581726676,-0.001430343,-0.351406194,0.000000000
0.715000,0.298418580,-0.161689111,0.151835001,-0.609689580,-0.161689111,0.150653993,5.668856517e-05,6.306764552e-05,1,1,-0.073254667,-0.583660962,-0.002448248,-0.373418262,0.000000000,-0.084312916,0.581501405,-0.001427078,-0.354266295,0.000000000
0.717500,0.298166805,-0.161689111,0.151797332,-0.609437805,-0.161689111,0.150653993,5.741419266e-05,6.363361196e-05,1,1,-0.071982477,-0.583361137,-0.002419089,-0.375567160,0.000000000,-0.082615930,0.581272626,-0.001423028,-0.357142198,0.000000000
0.720000,0.297911547,-0.161689111,0.151759861,-0.609182547,-0.161689111,0.150653993,5.813419570e-05,6.419462735e-05,1,1,-0.070695444,-0.583058200,-0.002389320,-0.377742884,0.000000000,-0.080911150,0.581040336,-0.001418172,-0.360033316,0.000000000
0.722500,0.297652820,-0.161689111,0.151722609,-0.608923820,-0.161689111,0.150653993,5.884854640e-05,6.475080620e-05,1,1,-0.069393812,-0.582752187,-0.002358933,-0.379945078,0.000000000,-0.079198943,0.580804535,-0.001412489,-0.362939072,0.000000000
0.725000,0.297390637,-0.161689111,0.151685597,-0.608661637,-0.161689111,0.150653993,5.955721935e-05,6.530225281e-05,1,1,-0.068077826,-0.582443136,-0.002327917,-0.382173392,0.000000000,-0.077479673,0.580565221,-0.001405958,-0.365858900,0.000000000
0.727500,0.297125014,-0.161689111,0.151648847,-0.608396014,-0.161689111,0.150653993,6.026019129e-05,6.584906154e-05,1,1,-0.066747729,-0.582131086,-0.002296263,-0.384427471,0.000000000,-0.075753694,0.580322394,-0.001398558,-0.368792244,0.000000000
0.730000,0.296855963,-0.161689111,0.151612378,-0.608126963,-0.161689111,0.150653993,6.095744083e-05,6.639131729e-05,1,1,-0.065403764,-0.581816075,-0.002263961,-0.386706964,0.000000000,-0.074021357,0.580076052,-0.001390268,-0.371738559,0.000000000
0.732500,0.296583502,-0.161689111,0.151576212,-0.607854502,-0.161689111,0.150653993,6.164894856e-05,6.692909573e-05,1,1,-0.064046175,-0.581498143,-0.002231003,-0.389011517,0.000000000,-0.072283004,0.579826198,-0.001381067,-0.374697309,0.000000000
0.735000,0.296307646,-0.161689111,0.151540370,-0.607578646,-0.161689111,0.150653993,6.233469661e-05,6.746246347e-05,1,1,-0.062675205,-0.581177330,-0.002197378,-0.391340781,0.000000000,-0.070538971,0.579572831,-0.001370936,-0.377667968,0.000000000
0.737500,0.296028411,-0.161689111,0.151504873,-0.607299411,-0.161689111,0.150653993,6.301466869e-05,6.799147898e-05,1,1,-0.061291094,-0.580853676,-0.002163079,-0.393694404,0.000000000,-0.068789589,0.579315952,-0.001359854,-0.380650018,0.000000000
0.740000,0.295745815,-0.161689111,0.151469744,-0.607016815,-0.161689111,0.150653993,6.368884998e-05,6.851619220e-05,1,1,-0.059894083,-0.580527223,-0.002128097,-0.396072037,0.000000000,-0.067035182,0.579055562,-0.001347800,-0.383642954,0.000000000
0.742500,0.295459873,-0.161689111,0.151435004,-0.606730873,-0.161689111,0.150653993,6.435722692e-05,6.903664537e-05,1,1,-0.058484411,-0.580198012,-0.002092423,-0.398473335,0.000000000,-0.065276069,0.578791664,-0.001334756,-0.386646277,0.000000000
0.745000,0.295170605,-0.161689111,0.151400675,-0.606441605,-0.161689111,0.150653993,6.501978706e-05,6.955287311e-05,1,1,-0.057062317,-0.579866088,-0.002056050,-0.400897951,0.000000000,-0.063512562,0.578524260,-0.001320702,-0.389659498,0.000000000
0.747500,0.294878029,-0.161689111,0.151366779,-0.606149029,-0.161689111,0.150653993,6.567651929e-05,7.006490319e-05,1,1,-0.055628036,-0.579531493,-0.002018970,-0.403345543,0.000000000,-0.061744967,0.578253352,-0.001305617,-0.392682138,0.000000000
0.750000,0.294582164,-0.161689111,0.151333338,-0.605853164,-0.161689111,0.150653993,6.632741335e-05,7.057275619e-05,1,1,-0.054181803,-0.579194271,-0.001981174,-0.405815769,0.000000000,-0.059973585,0.577978944,-0.001289484,-0.395713724,0.000000000
0.752500,0.294283028,-0.161689111,0.151300376,-0.605554028,-0.161689111,0.150653993,6.697246019e-05,7.107644623e-05,1,1,-0.052723851,-0.578854467,-0.001942657,-0.408308292,0.000000000,-0.058198713,0.577701040,-0.001272282,-0.398753794,0.000000000
0.755000,0.293980642,-0.161689111,0.151267914,-0.605251642,-0.161689111,0.150653993,6.761165163e-05,7.157598147e-05,1,1,-0.051254411,-0.578512126,-0.001903411,-0.410822777,0.000000000,-0.056420640,0.577419643,-0.001253994,-0.401801892,0.000000000
0.757500,0.293675025,-0.161689111,0.151235976,-0.604946025,-0.161689111,0.150653993,6.824498045e-05,7.207136384e-05,1,1,-0.049773710,-0.578167296,-0.001863430,-0.413358892,0.000000000,-0.054639651,0.577134758,-0.001234600,-0.404857572,0.000000000
0.760000,0.293366200,-0.161689111,0.151204585,-0.604637200,-0.161689111,0.150653993,6.887244063e-05,7.256258987e-05,1,1,-0.048281976,-0.577820022,-0.001822707,-0.415916309,0.000000000,-0.052856025,0.576846390,-0.001214082,-0.407920396,0.000000000
0.762500,0.293054186,-0.161689111,0.151173764,-0.604325186,-0.161689111,0.150653993,6.949402705e-05,7.304965072e-05,1,1,-0.046779431,-0.577470353,-0.001781237,-0.418494703,0.000000000,-0.051070038,0.576554545,-0.001192422,-0.410989932,0.000000000
0.765000,0.292739007,-0.161689111,0.151143537,-0.604010007,-0.161689111,0.150653993,7.010973562e-05,7.353253263e-05,1,1,-0.045266297,-0.577118338,-0.001739015,-0.421093753,0.000000000,-0.049281957,0.576259228,-0.001169602,-0.414065756,0.000000000
0.767500,0.292420683,-0.161689111,0.151113928,-0.603691683,-0.161689111,0.150653993,7.071956353e-05,7.401121686e-05,1,1,-0.043742791,-0.576764026,-0.001696035,-0.423713145,0.000000000,-0.047492048,0.575960446,-0.001145605,-0.417147451,0.000000000
0.770000,0.292099238,-0.161689111,0.151084960,-0.603370238,-0.161689111,0.150653993,7.132350934e-05,7.448568037e-05,1,1,-0.042209127,-0.576407467,-0.001652293,-0.426352566,0.000000000,-0.045700570,0.575658207,-0.001120412,-0.420234610,0.000000000
0.772500,0.291774695,-0.161689111,0.151056660,-0.603045695,-0.161689111,0.150653993,7.192157293e-05,7.495589578e-05,1,1,-0.040665518,-0.576048714,-0.001607784,-0.429011710,0.000000000,-0.043907778,0.575352516,-0.001094007,-0.423326830,0.000000000
0.775000,0.291447077,-0.161689111,0.151029050,-0.602718077,-0.161689111,0.150653993,7.251375595e-05,7.542183168e-05,1,1,-0.039112171,-0.575687818,-0.001562506,-0.431690278,0.000000000,-0.042113922,0.575043383,-0.001066372,-0.426423715,0.000000000
0.777500,0.291116409,-0.161689111,0.151002158,-0.602387409,-0.161689111,0.150653993,7.310006196e-05,7.588345307e-05,1,1,-0.037549289,-0.575324833,-0.001516455,-0.434387974,0.000000000,-0.040319249,0.574730816,-0.001037492,-0.429524877,0.000000000
0.780000,0.290782716,-0.161689111,0.150976007,-0.602053716,-0.161689111,0.150653993,7.368049675e-05,7.634072127e-05,1,1,-0.035977073,-0.574959814,-0.001469629,-0.437104510,0.000000000,-0.038523999,0.574414824,-0.001007348,-0.432629933,0.000000000
0.782500,0.290446022,-0.161689111,0.150950625,-0.601717022,-0.161689111,0.150653993,7.425506867e-05,7.679359427e-05,1,1,-0.034395717,-0.574592817,-0.001422025,-0.439839606,0.000000000,-0.036728409,0.574095416,-0.000975926,-0.435738509,0.000000000
0.785000,0.290106353,-0.161689111,0.150926038,-0.601377353,-0.161689111,0.150653993,7.482378929e-05,7.724202705e-05,1,1,-0.032805411,-0.574223898,-0.001373643,-0.442592988,0.000000000,-0.034932712,0.573772603,-0.000943209,-0.438850235,0.000000000
0.787500,0.289763735,-0.161689111,0.150902272,-0.601034735,-0.161689111,0.150653993,7.538667369e-05,7.768597159e-05,1,1,-0.031206341,-0.573853117,-0.001324482,-0.445364391,0.000000000,-0.033137137,0.573446394,-0.000909182,-0.441964746,0.000000000
0.790000,0.289418194,-0.161689111,0.150879356,-0.600689194,-0.161689111,0.150653993,7.594374152e-05,7.812537722e-05,1,1,-0.029598686,-0.573480533,-0.001274541,-0.448153559,0.000000000,-0.031341907,0.573116802,-0.000873828,-0.445081686,0.000000000
0.792500,0.289069759,-0.161689111,0.150857319,-0.600340759,-0.161689111,0.150653993,7.649501769e-05,7.856019068e-05,1,1,-0.027982619,-0.573106209,-0.001223822,-0.450960248,0.000000000,-0.029547244,0.572783837,-0.000837134,-0.448200703,0.000000000
0.795000,0.288718455,-0.161689111,0.150836189,-0.599989455,-0.161689111,0.150653993,7.704053357e-05,7.899035625e-05,1,1,-0.026358306,-0.572730208,-0.001172327,-0.453784223,0.000000000,-0.027753363,0.572447511,-0.000799083,-0.451321451,0.000000000
0.797500,0.288364311,-0.161689111,0.150815997,-0.599635311,-0.161689111,0.150653993,7.758032846e-05,7.941581643e-05,1,1,-0.024725905,-0.572352597,-0.001120057,-0.456625262,0.000000000,-0.025960477,0.572107839,-0.000759663,-0.454443589,0.000000000
0.800000,0.288007356,-0.161689111,0.150796774,-0.599278356,-0.161689111,0.150653993,7.811445144e-05,7.983651110e-05,1,1,-0.023085566,-0.571973442,-0.001067018,-0.459483159,0.000000000,-0.024168794,0.571764832,-0.000718857,-0.457566782,0.000000000
0.802500,0.287647617,-0.161689111,0.150778553,-0.598918617,-0.161689111,0.150653993,7.864296391e-05,8.025237867e-05,1,1,-0.021437428,-0.571592816,-0.001013213,-0.462357724,0.000000000,-0.022378521,0.571418505,-0.000676653,-0.460690700,0.000000000
0.805000,0.287285125,-0.161689111,0.150761367,-0.598556125,-0.161689111,0.150653993,7.916594274e-05,8.066335567e-05,1,1,-0.019781620,-0.571210793,-0.000958650,-0.465248786,0.000000000,-0.020589857,0.571068872,-0.000633037,-0.463815019,0.000000000
0.807500,0.286919909,-0.161689111,0.150745254,-0.598190909,-0.161689111,0.150653993,7.968348462e-05,8.106937706e-05,1,1,-0.018118256,-0.570827451,-0.000903334,-0.468156197,0.000000000,-0.018803001,0.570715948,-0.000587995,-0.466939418,0.000000000
0.810000,0.286552000,-0.161689111,0.150730252,-0.597823000,-0.161689111,0.150653993,8.019571263e-05,8.147037626e-05,1,1,-0.016447438,-0.570442871,-0.000847278,-0.471079833,0.000000000,-0.017018148,0.570359749,-0.000541514,-0.470063582,0.000000000
0.812500,0.286181427,-0.161689111,0.150716401,-0.597452427,-0.161689111,0.150653993,8.070278435e-05,8.186628543e-05,1,1,-0.014769244,-0.570057142,-0.000790491,-0.474019608,0.000000000,-0.015235487,0.570000291,-0.000493582,-0.473187201,0.000000000
0.815000,0.285808222,-0.161689111,0.150703747,-0.597079222,-0.161689111,0.150653993,8.120490557e-05,8.225703547e-05,1,1,-0.013083732,-0.569670358,-0.000732987,-0.476975471,0.000000000,-0.013455207,0.569637590,-0.000444186,-0.476309971,0.000000000
0.817500,0.285432417,-0.161689111,0.150692338,-0.596703417,-0.161689111,0.150653993,8.170234959e-05,8.264255626e-05,1,1,-0.011390932,-0.569282621,-0.000674786,-0.479947426,0.000000000,-0.011677491,0.569271665,-0.000393315,-0.479431589,0.000000000
0.820000,0.285054043,-0.161689111,0.150682231,-0.596325043,-0.161689111,0.150653993,8.219549021e-05,8.302277654e-05,1,1,-0.009690830,-0.568894046,-0.000615907,-0.482935545,0.000000000,-0.009902520,0.568902532,-0.000340956,-0.482551759,0.000000000
0.822500,0.284673133,-0.161689111,0.150673489,-0.595944133,-0.161689111,0.150653993,8.268485785e-05,8.339762427e-05,1,1,-0.007983365,-0.568504761,-0.000556378,-0.485939992,0.000000000,-0.008130473,0.568530211,-0.000287098,-0.485670190,0.000000000
0.825000,0.284289720,-0.161689111,0.150666190,-0.595560720,-0.161689111,0.150653993,8.317124601e-05,8.376702661e-05,1,1,-0.006268393,-0.568114917,-0.000496233,-0.488961070,0.000000000,-0.006361522,0.568154720,-0.000231731,-0.488786593,0.000000000
0.827500,0.283903837,-0.161689111,0.150660432,-0.595174837,-0.161689111,0.150653993,8.365594169e-05,8.413090988e-05,1,1,-0.004545651,-0.567724703,-0.000435521,-0.491999301,0.000000000,-0.004595841,0.567776080,-0.000174843,-0.491900685,0.000000000
0.830000,0.283515517,-0.161689111,0.150656352,-0.594786517,-0.161689111,0.150653993,8.414133580e-05,8.448919999e-05,1,1,-0.002814645,-0.567334367,-0.000374312,-0.495055614,0.000000000,-0.002833597,0.567394310,-0.000116425,-0.495012186,0.000000000
0.832500,0.283124795,-0.161689111,0.150654188,-0.594395795,-0.161689111,0.150653993,8.463340463e-05,8.484182204e-05,1,1,-0.001074313,-0.566944325,-0.000312730,-0.498131951,0.000000000,-0.001074956,0.567009433,-0.000056467,-0.498120821,0.000000000
0.835000,0.282731705,-0.161689111,0.150653993,-0.594002705,-0.161689111,0.150654674,8.512398384e-05,8.522518745e-05,1,1,0.000675533,-0.566554742,-0.000250821,-0.501228694,0.000000000,0.000683485,0.566622475,0.000004699,-0.501232684,0.000000000
0.837500,0.282336282,-0.161689111,0.150653993,-0.593607282,-0.161689111,0.150657549,8.551399474e-05,8.569270521e-05,1,1,0.002425393,-0.566163051,-0.000187691,-0.504328913,0.000000000,0.002450150,0.566235878,0.000066251,-0.504362828,0.000000000
0.840000,0.281938562,-0.161689111,0.150653993,-0.593209562,-0.161689111,0.150662304,8.586142808e-05,8.615998176e-05,1,1,0.004172029,-0.565768501,-0.000123061,-0.507426933,0.000000000,0.004224932,0.565849653,0.000128193,-0.507511031,0.000000000
0.842500,0.281538581,-0.161689111,0.150653993,-0.592809581,-0.161689111,0.150668779,8.619352530e-05,8.661170685e-05,1,1,0.005914616,-0.565370968,-0.000056869,-0.510521337,0.000000000,0.006006684,0.565463579,0.000190611,-0.510675274,0.000000000
0.845000,0.281136373,-0.161689111,0.150653993,-0.592407373,-0.161689111,0.150676878,8.651733724e-05,8.704790491e-05,1,1,0.007652856,-0.564970448,0.000010905,-0.513611619,0.000000000,0.007794396,0.565077495,0.000253577,-0.513853808,0.000000000
0.847500,0.280731977,-0.161689111,0.150653993,-0.592002977,-0.161689111,0.150686539,8.683451128e-05,8.747039423e-05,1,1,0.009386570,-0.564566962,0.000080270,-0.516697474,0.000000000,0.009587263,0.564691292,0.000317140,-0.517045242,0.000000000
0.850000,0.280325429,-0.161689111,0.150653993,-0.591596429,-0.161689111,0.150697714,8.714537024e-05,8.788061666e-05,1,1,0.011115606,-0.564160533,0.000151233,-0.519778641,0.000000000,0.011384617,0.564304896,0.000381341,-0.520248427,0.000000000
0.852500,0.279916767,-0.161689111,0.150653993,-0.591187767,-0.161689111,0.150710364,8.744992775e-05,8.827954250e-05,1,1,0.012839818,-0.563751187,0.000223802,-0.522854870,0.000000000,0.013185885,0.563918256,0.000446211,-0.523462380,0.000000000
0.855000,0.279506028,-0.161689111,0.150653993,-0.590777028,-0.161689111,0.150724459,8.774812745e-05,8.866782481e-05,1,1,0.014559066,-0.563338952,0.000297982,-0.525925917,0.000000000,0.014990557,0.563531335,0.000511775,-0.526686228,0.000000000
0.857500,0.279093250,-0.161689111,0.150653993,-0.590364250,-0.161689111,0.150739973,8.803989742e-05,8.904591856e-05,1,1,0.016273213,-0.562923854,0.000373779,-0.528991543,0.000000000,0.016798171,0.563144109,0.000578054,-0.529919179,0.000000000
0.860000,0.278678473,-0.161689111,0.150653993,-0.589949473,-0.161689111,0.150756885,8.832516258e-05,8.941415222e-05,1,1,0.017982121,-0.562505922,0.000451199,-0.532051509,0.000000000,0.018608301,0.562756559,0.000645069,-0.533160503,0.000000000
0.862500,0.278261734,-0.161689111,0.150653993,-0.589532734,-0.161689111,0.150775174,8.860384730e-05,8.977276910e-05,1,1,0.019685659,-0.562085184,0.000530246,-0.535105584,0.000000000,0.020420550,0.562368674,0.000712834,-0.536409518,0.000000000
0.865000,0.277843074,-0.161689111,0.150653993,-0.589114074,-0.161689111,0.150794824,8.887587609e-05,9.012195376e-05,1,1,0.021383696,-0.561661671,0.000610925,-0.538153534,0.000000000,0.022234543,0.561980448,0.000781364,-0.539665580,0.000000000
0.867500,0.277422532,-0.161689111,0.150653993,-0.588693532,-0.161689111,0.150815819,8.914117370e-05,9.046184711e-05,1,1,0.023076103,-0.561235412,0.000693239,-0.541195134,0.000000000,0.024049924,0.561591876,0.000850672,-0.542928081,0.000000000
0.870000,0.277000149,-0.161689111,0.150653993,-0.588271149,-0.161689111,0.150838144,8.939966525e-05,9.079255742e-05,1,1,0.024762755,-0.560806439,0.000777193,-0.544230157,0.000000000,0.025866356,0.561202960,0.000920770,-0.546196435,0.000000000
0.872500,0.276575964,-0.161689111,0.150653993,-0.587846964,-0.161689111,0.150861785,8.965127624e-05,9.111416781e-05,1,1,0.026443528,-0.560374782,0.000862789,-0.547258382,0.000000000,0.027683512,0.560813702,0.000991668,-0.549470083,0.000000000
0.875000,0.276150019,-0.161689111,0.150653993,-0.587421019,-0.161689111,0.150886731,8.989593246e-05,9.142674143e-05,1,1,0.028118300,-0.559940474,0.000950030,-0.550279589,0.000000000,0.029501083,0.560424108,0.001063374,-0.552748486,0.000000000
0.877500,0.275722354,-0.161689111,0.150653993,-0.586993354,-0.161689111,0.150912969,9.013356033e-05,9.173032554e-05,1,1,0.029786954,-0.559503549,0.001038918,-0.553293563,0.000000000,0.031318767,0.560034183,0.001135898,-0.556031122,0.000000000
0.880000,0.275293012,-0.161689111,0.150653993,-0.586564012,-0.161689111,0.150940487,9.036408658e-05,9.202495392e-05,1,1,0.031449372,-0.559064039,0.001129454,-0.556300089,0.000000000,0.033136272,0.559643938,0.001209247,-0.559317486,0.000000000
0.882500,0.274862034,-0.161689111,0.150653993,-0.586133034,-0.161689111,0.150969274,9.058743865e-05,9.231064996e-05,1,1,0.033105440,-0.558621978,0.001221639,-0.559298956,0.000000000,0.034953318,0.559253381,0.001283427,-0.562607086,0.000000000
0.885000,0.274429462,-0.161689111,0.150653993,-0.585700462,-0.161689111,0.150999319,9.080354432e-05,9.258742745e-05,1,1,0.034755045,-0.558177403,0.001315474,-0.562289957,0.000000000,0.036769631,0.558862525,0.001358445,-0.565899443,0.000000000
0.887500,0.273995340,-0.161689111,0.150653993,-0.585266340,-0.161689111,0.151030612,9.101233207e-05,9.285529275e-05,1,1,0.036398077,-0.557730347,0.001410959,-0.565272885,0.000000000,0.038584945,0.558471382,0.001434306,-0.569194091,0.000000000
0.890000,0.273559710,-0.161689111,0.150653993,-0.584830710,-0.161689111,0.151063142,9.121373101e-05,9.311424551e-05,1,1,0.038034429,-0.557280849,0.001508094,-0.568247537,0.000000000,0.040399002,0.558079964,0.001511014,-0.572490573,0.000000000
0.892500,0.273122615,-0.161689111,0.150653993,-0.584393615,-0.161689111,0.151096898,9.140767078e-05,9.336427958e-05,1,1,0.039663993,-0.556828944,0.001606877,-0.571213713,0.000000000,0.042211548,0.557688288,0.001588574,-0.575788444,0.000000000
0.895000,0.272684100,-0.161689111,0.150653993,-0.583955100,-0.161689111,0.151131871,9.159408171e-05,9.360538417e-05,1,1,0.041286668,-0.556374671,0.001707307,-0.574171214,0.000000000,0.044022338,0.557296366,0.001666989,-0.579087267,0.000000000
0.897500,0.272244207,-0.161689111,0.150653993,-0.583515207,-0.161689111,0.151168048,9.177289477e-05,9.383754393e-05,1,1,0.042902350,-0.555918068,0.001809381,-0.577119845,0.000000000,0.045831131,0.556904216,0.001746263,-0.582386613,0.000000000
0.900000,0.271802981,-0.161689111,0.150653993,-0.583073981,-0.161689111,0.151205420,9.194404177e-05,9.406073992e-05,1,1,0.044510939,-0.555459175,0.001913098,-0.580059412,0.000000000,0.047637692,0.556511854,0.001826398,-0.585686061,0.000000000
0.902500,0.271360468,-0.161689111,0.150653993,-0.582631468,-0.161689111,0.151243977,9.210745504e-05,9.427494984e-05,1,1,0.046112339,-0.554998030,0.002018454,-0.582989725,0.000000000,0.049441791,0.556119297,0.001907396,-0.588985198,0.000000000
0.905000,0.270916711,-0.161689111,0.150653993,-0.582187711,-0.161689111,0.151283706,9.226306781e-05,9.448014862e-05,1,1,0.047706453,-0.554534674,0.002125446,-0.585910594,0.000000000,0.051243202,0.555726563,0.001989260,-0.592283618,0.000000000
0.907500,0.270471757,-0.161689111,0.150653993,-0.581742757,-0.161689111,0.151324599,9.241081406e-05,9.467630851e-05,1,1,0.049293187,-0.554069149,0.002234068,-0.588821833,0.000000000,0.053041706,0.555333669,0.002071989,-0.595580921,0.000000000
0.910000,0.270025650,-0.161689111,0.150653993,-0.581296650,-0.161689111,0.151366643,9.255062839e-05,9.486339957e-05,1,1,0.050872450,-0.553601497,0.002344317,-0.591723259,0.000000000,0.054837086,0.554940635,0.002155586,-0.598876714,0.000000000
0.912500,0.269578437,-0.161689111,0.150653993,-0.580849437,-0.161689111,0.151409827,9.268244642e-05,9.504138998e-05,1,1,0.052444150,-0.553131759,0.002456187,-0.594614688,0.000000000,0.056629130,0.554547479,0.002240050,-0.602170608,0.000000000
0.915000,0.269130163,-0.161689111,0.150653993,-0.580401163,-0.161689111,0.151454140,9.280620444e-05,9.521024601e-05,1,1,0.054008201,-0.552659980,0.002569672,-0.597495943,0.000000000,0.058417630,0.554154222,0.002325381,-0.605462223,0.000000000
0.917500,0.268680875,-0.161689111,0.150653993,-0.579951875,-0.161689111,0.151499571,9.292183968e-05,9.536993241e-05,1,1,0.055564516,-0.552186203,0.002684765,-0.600366845,0.000000000,0.060202382,0.553760883,0.002411580,-0.608751181,0.000000000
0.920000,0.268230620,-0.161689111,0.150653993,-0.579501620,-0.161689111,0.151546108,9.302929014e-05,9.552041278e-05,1,1,0.057113009,-0.551710474,0.002801460,-0.603227218,0.000000000,0.061983186,0.553367482,0.002498644,-0.612037110,0.000000000
0.922500,0.267779445,-0.161689111,0.150653993,-0.579050445,-0.161689111,0.151593738,9.312849469e-05,9.566164923e-05,1,1,0.058653600,-0.551232836,0.002919749,-0.606076890,0.000000000,0.063759844,0.552974040,0.002586573,-0.615319644,0.000000000
0.925000,0.267327398,-0.161689111,0.150653993,-0.578598398,-0.161689111,0.151642450,9.321939316e-05,9.579360315e-05,1,1,0.060186205,-0.550753337,0.003039623,-0.608915690,0.000000000,0.065532165,0.552580577,0.002675366,-0.618598421,0.000000000
0.927500,0.266874524,-0.161689111,0.150653993,-0.578145524,-0.161689111,0.151692231,9.330192618e-05,9.591623497e-05,1,1,0.061710748,-0.550272023,0.003161075,-0.611743448,0.000000000,0.067299956,0.552187117,0.002765020,-0.621873082,0.000000000
0.930000,0.266420874,-0.161689111,0.150653993,-0.577691874,-0.161689111,0.151743069,9.337603535e-05,9.602950420e-05,1,1,0.063227149,-0.549788941,0.003284093,-0.614559997,0.000000000,0.069063032,0.551793679,0.002855532,-0.625143274,0.000000000
0.932500,0.265966494,-0.161689111,0.150653993,-0.577237494,-0.161689111,0.151794950,9.344166319e-05,9.613337000e-05,1,1,0.064735334,-0.549304140,0.003408670,-0.617365173,0.000000000,0.070821210,0.551400286,0.002946901,-0.628408647,0.000000000
0.935000,0.265511433,-0.161689111,0.150653993,-0.576782433,-0.161689111,0.151847861,9.349875314e-05,9.622779054e-05,1,1,0.066235229,-0.548817668,0.003534793,-0.620158811,0.000000000,0.072574308,0.551006960,0.003039123,-0.631668857,0.000000000
0.937500,0.265055740,-0.161689111,0.150653993,-0.576326740,-0.161689111,0.151901790,9.354724957e-05,9.631272406e-05,1,1,0.067726760,-0.548329575,0.003662452,-0.622940752,0.000000000,0.074322150,0.550613723,0.003132194,-0.634923561,0.000000000
0.940000,0.264599464,-0.161689111,0.150653993,-0.575870464,-0.161689111,0.151956721,9.358709791e-05,9.638812809e-05,1,1,0.069209858,-0.547839910,0.003791635,-0.625710836,0.000000000,0.076064560,0.550220599,0.003226111,-0.638172421,0.000000000
0.942500,0.264142653,-0.161689111,0.150653993,-0.575413653,-0.161689111,0.152012643,9.361824446e-05,9.645396033e-05,1,1,0.070684454,-0.547348725,0.003922330,-0.628468905,0.000000000,0.077801367,0.549827611,0.003320869,-0.641415103,0.000000000
0.945000,0.263685358,-0.161689111,0.150653993,-0.574956358,-0.161689111,0.152069539,9.364063651e-05,9.651017794e-05,1,1,0.072150481,-0.546856071,0.004054524,-0.631214805,0.000000000,0.079532401,0.549434781,0.003416464,-0.644651275,0.000000000
0.947500,0.263227627,-0.161689111,0.150653993,-0.574498627,-0.161689111,0.152127396,9.365422246e-05,9.655673813e-05,1,1,0.073607872,-0.546362001,0.004188202,-0.633948381,0.000000000,0.081257496,0.549042133,0.003512891,-0.647880611,0.000000000
0.950000,0.262769510,-0.161689111,0.150653993,-0.574040510,-0.161689111,0.152186198,9.365895150e-05,9.659359795e-05,1,1,0.075056563,-0.545866565,0.004323352,-0.636669483,0.000000000,0.082976489,0.548649691,0.003610145,-0.651102785,0.000000000
0.952500,0.262311058,-0.161689111,0.150653993,-0.573582058,-0.161689111,0.152245932,9.365477409e-05,9.662071483e-05,1,1,0.076496493,-0.545369820,0.004459958,-0.639377960,0.000000000,0.084689217,0.548257479,0.003708219,-0.654317476,0.000000000
0.955000,0.261852321,-0.161689111,0.150653993,-0.573123321,-0.161689111,0.152306581,9.364164151e-05,9.663804597e-05,1,1,0.077927599,-0.544871817,0.004598005,-0.642073664,0.000000000,0.086395523,0.547865522,0.003807109,-0.657524366,0.000000000
0.957500,0.261393349,-0.161689111,0.150653993,-0.572664349,-0.161689111,0.152368130,9.361950627e-05,9.664554893e-05,1,1,0.079349823,-0.544372612,0.004737477,-0.644756450,0.000000000,0.088095249,0.547473844,0.003906806,-0.660723140,0.000000000
0.960000,0.260934193,-0.161689111,0.150653993,-0.572205193,-0.161689111,0.152430563,9.358832170e-05,9.664318147e-05,1,1,0.080763107,-0.543872261,0.004878357,-0.647426172,0.000000000,0.089788242,0.547082469,0.004007306,-0.663913484,0.000000000
0.962500,0.260474904,-0.161689111,0.150653993,-0.571745904,-0.161689111,0.152493863,9.354804237e-05,9.663090171e-05,1,1,0.082167394,-0.543370819,0.005020628,-0.650082688,0.000000000,0.091474351,0.546691423,0.004108600,-0.667095090,0.000000000
0.965000,0.260015533,-0.161689111,0.150653993,-0.571286533,-0.161689111,0.152558016,9.349862374e-05,9.660866784e-05,1,1,0.083562629,-0.542868342,0.005164273,-0.652725857,0.000000000,0.093153425,0.546300731,0.004210681,-0.670267650,0.000000000
0.967500,0.259556131,-0.161689111,0.150653993,-0.570827131,-0.161689111,0.152623003,9.344002252e-05,9.657643881e-05,1,1,0.084948758,-0.542364889,0.005309273,-0.655355540,0.000000000,0.094825318,0.545910418,0.004313541,-0.673430860,0.000000000
0.970000,0.259096750,-0.161689111,0.150653993,-0.570367750,-0.161689111,0.152688808,9.337219644e-05,9.653417378e-05,1,1,0.086325730,-0.541860517,0.005455608,-0.657971599,0.000000000,0.096489885,0.545520510,0.004417173,-0.676584419,0.000000000
0.972500,0.258637442,-0.161689111,0.150653993,-0.569908442,-0.161689111,0.152755414,9.329510417e-05,9.648183242e-05,1,1,0.087693494,-0.541355284,0.005603260,-0.660573898,0.000000000,0.098146982,0.545131034,0.004521567,-0.679728027,0.000000000
0.975000,0.258178257,-0.161689111,0.150653993,-0.569449257,-0.161689111,0.152822803,9.320870566e-05,9.641937509e-05,1,1,0.089052001,-0.540849250,0.005752208,-0.663162304,0.000000000,0.099796471,0.544742014,0.004626714,-0.682861388,0.000000000
0.977500,0.257719249,-0.161689111,0.150653993,-0.568990249,-0.161689111,0.152890957,9.311296191e-05,9.634676240e-05,1,1,0.090401202,-0.540342473,0.005902431,-0.665736683,0.000000000,0.101438211,0.544353478,0.004732606,-0.685984207,0.000000000
0.980000,0.257260469,-0.161689111,0.150653993,-0.568531469,-0.161689111,0.152959859,9.300783497e-05,9.626395595e-05,1,1,0.091741052,-0.539835015,0.006053907,-0.668296904,0.000000000,0.103072067,0.543965453,0.004839233,-0.689096194,0.000000000
0.982500,0.256801970,-0.161689111,0.150653993,-0.568072970,-0.161689111,0.153029490,9.289328804e-05,9.617091767e-05,1,1,0.093071504,-0.539326937,0.006206616,-0.670842839,0.000000000,0.104697904,0.543577965,0.004946584,-0.692197058,0.000000000
0.985000,0.256343805,-0.161689111,0.150653993,-0.567614805,-0.161689111,0.153099831,9.276928546e-05,9.606761039e-05,1,1,0.094392516,-0.538818299,0.006360533,-0.673374359,0.000000000,0.106315590,0.543191041,0.005054650,-0.695286512,0.000000000
0.987500,0.255886025,-0.161689111,0.150653993,-0.567157025,-0.161689111,0.153170864,9.263579259e-05,9.595399765e-05,1,1,0.095704045,-0.538309164,0.006515636,-0.675891339,0.000000000,0.107924993,0.542804708,0.005163419,-0.698364272,0.000000000
0.990000,0.255428683,-0.161689111,0.150653993,-0.566699683,-0.161689111,0.153242570,9.249277613e-05,9.583004359e-05,1,1,0.097006049,-0.537799593,0.006671901,-0.678393653,0.000000000,0.109525986,0.542418995,0.005272881,-0.701430055,0.000000000
0.992500,0.254971833,-0.161689111,0.150653993,-0.566242833,-0.161689111,0.153314930,9.234020369e-05,9.569571332e-05,1,1,0.098298489,-0.537289652,0.006829304,-0.680881179,0.000000000,0.111118442,0.542033928,0.005383024,-0.704483581,0.000000000
0.995000,0.254515528,-0.161689111,0.150653993,-0.565786528,-0.161689111,0.153387924,9.217804419e-05,9.555097273e-05,1,1,0.099581326,-0.536779402,0.006987819,-0.683353795,0.000000000,0.112702236,0.541649537,0.005493836,-0.707524571,0.000000000
0.997500,0.254059820,-0.161689111,0.150653993,-0.565330820,-0.161689111,0.153461531,9.200626751e-05,9.539578852e-05,1,1,0.100854522,-0.536268909,0.007147421,-0.685811381,0.000000000,0.114277245,0.541265849,0.005605305,-0.710552750,0.000000000
1.000000,0.253604764,-0.161689111,0.150653993,-0.564875764,-0.161689111,0.153535733,9.182484494e-05,9.523012824e-05,1,1,0.102118041,-0.535758236,0.007308083,-0.688253819,0.000000000,0.115843347,0.540882892,0.005717418,-0.713567843,0.000000000
1.002500,0.253150411,-0.161689111,0.150653993,-0.564421411,-0.161689111,0.153610509,9.163374870e-05,9.505396058e-05,1,1,0.103371849,-0.535247450,0.007469780,-0.690680991,0.000000000,0.117400424,0.540500696,0.005830164,-0.716569578,0.000000000
1.005000,0.252696817,-0.161689111,0.150653993,-0.563967817,-0.161689111,0.153685839,9.143295228e-05,9.486725495e-05,1,1,0.104615911,-0.534736617,0.007632482,-0.693092782,0.000000000,0.118948357,0.540119290,0.005943527,-0.719557686,0.000000000
